;FLAVOR:Marlin
;TIME:1202
;Filament used: 0.743565m
;Layer height: 0.1
;MINX:77.199
;MINY:77.45
;MINZ:0.3
;MAXX:122.801
;MAXY:122.55
;MAXZ:2
;Generated with Cura_SteamEngine 4.5.0
M140 S60
M105
M190 S60
M104 S200
M105
M109 S200
M82 ;absolute extrusion mode
G21 ;metric values
 G90 ;absolute positioning
 M82 ;set extruder to absolute mode
 M107 ;start with the fan off
 G28 X0 Y0 ;move X/Y to min endstops
 G28 Z0 ;move Z to min endstops
 G1 Z15.0 F120 ;move the platform down 15mm
 G92 E0 ;zero the extruded length
 G1 F200 E6 ;extrude 6 mm of feed stock
 G92 E0 ;zero the extruded length again
 G1 F120 
 ;Put printing message on LCD screen
 M117 Printing...
G92 E0
G92 E0
G1 F1500 E-6.5
;LAYER_COUNT:18
;LAYER:0
M107
G0 F3600 X79.622 Y81.099 Z0.3
;TYPE:SKIRT
G1 F1500 E0
G1 F1800 X80.221 Y80.584 E0.03941
G1 X80.869 Y80.133 E0.0788
G1 X81.56 Y79.749 E0.11824
G1 X82.285 Y79.437 E0.15762
G1 X83.038 Y79.2 E0.197
G1 X83.812 Y79.041 E0.23642
G1 X84.597 Y78.96 E0.27579
G1 X87.414 Y78.95 E0.41634
G1 X87.869 Y78.633 E0.444
G1 X88.56 Y78.249 E0.48344
G1 X89.285 Y77.937 E0.52282
G1 X90.038 Y77.7 E0.5622
G1 X90.812 Y77.541 E0.60162
G1 X91.597 Y77.46 E0.641
G1 X108.001 Y77.45 E1.45939
G1 X108.79 Y77.49 E1.49881
G1 X109.57 Y77.609 E1.53817
G1 X110.335 Y77.807 E1.5776
G1 X111.075 Y78.081 E1.61697
G1 X111.784 Y78.429 E1.65637
G1 X112.455 Y78.847 E1.69581
G1 X112.588 Y78.95 E1.7042
G1 X115.001 Y78.95 E1.82459
G1 X115.79 Y78.99 E1.864
G1 X116.57 Y79.109 E1.90337
G1 X117.335 Y79.307 E1.94279
G1 X118.075 Y79.581 E1.98216
G1 X118.784 Y79.929 E2.02156
G1 X119.455 Y80.347 E2.061
G1 X120.079 Y80.83 E2.10037
G1 X120.652 Y81.373 E2.13975
G1 X121.167 Y81.972 E2.17916
G1 X121.618 Y82.62 E2.21855
G1 X122.002 Y83.311 E2.25799
G1 X122.314 Y84.036 E2.29737
G1 X122.551 Y84.789 E2.33675
G1 X122.71 Y85.563 E2.37617
G1 X122.791 Y86.348 E2.41555
G1 X122.801 Y114.75 E3.83253
G1 X122.761 Y115.539 E3.87194
G1 X122.642 Y116.319 E3.91131
G1 X122.444 Y117.084 E3.95073
G1 X122.17 Y117.824 E3.9901
G1 X121.822 Y118.533 E4.0295
G1 X121.404 Y119.204 E4.06894
G1 X120.921 Y119.828 E4.10831
G1 X120.378 Y120.401 E4.14769
G1 X119.779 Y120.916 E4.18711
G1 X119.131 Y121.367 E4.22649
G1 X118.44 Y121.751 E4.26593
G1 X117.715 Y122.063 E4.30531
G1 X116.962 Y122.3 E4.3447
G1 X116.188 Y122.459 E4.38412
G1 X115.403 Y122.54 E4.42349
G1 X84.999 Y122.55 E5.94035
G1 X84.21 Y122.51 E5.97976
G1 X83.43 Y122.391 E6.01913
G1 X82.665 Y122.193 E6.05855
G1 X81.925 Y121.919 E6.09792
G1 X81.216 Y121.571 E6.13732
G1 X80.545 Y121.153 E6.17676
G1 X79.921 Y120.67 E6.21613
G1 X79.348 Y120.127 E6.25552
G1 X78.833 Y119.528 E6.29493
G1 X78.382 Y118.88 E6.33432
G1 X77.998 Y118.189 E6.37376
G1 X77.686 Y117.464 E6.41313
G1 X77.449 Y116.711 E6.45252
G1 X77.29 Y115.937 E6.49194
G1 X77.209 Y115.152 E6.53131
G1 X77.199 Y86.75 E7.94829
G1 X77.239 Y85.961 E7.98771
G1 X77.358 Y85.181 E8.02707
G1 X77.556 Y84.416 E8.06649
G1 X77.83 Y83.676 E8.10586
G1 X78.178 Y82.967 E8.14527
G1 X78.596 Y82.296 E8.18471
G1 X79.079 Y81.672 E8.22407
G1 X79.622 Y81.099 E8.26346
G0 F3600 X80.015 Y81.28
G1 F1800 X80.61 Y80.792 E8.30185
G1 X81.252 Y80.369 E8.34021
G1 X81.935 Y80.014 E8.37861
G1 X82.65 Y79.733 E8.41694
G1 X83.392 Y79.527 E8.45536
G1 X84.15 Y79.399 E8.49371
G1 X84.999 Y79.35 E8.53614
G1 X87.539 Y79.35 E8.66286
G1 X88.252 Y78.869 E8.70577
G1 X88.935 Y78.514 E8.74417
G1 X89.65 Y78.233 E8.7825
G1 X90.392 Y78.027 E8.82091
G1 X91.15 Y77.899 E8.85927
G1 X91.999 Y77.85 E8.90169
G1 X108.001 Y77.85 E9.70004
G1 X108.769 Y77.89 E9.7384
G1 X109.529 Y78.009 E9.77678
G1 X110.272 Y78.207 E9.81515
G1 X110.991 Y78.481 E9.85353
G1 X111.677 Y78.828 E9.89189
G1 X112.324 Y79.244 E9.93026
G1 X112.456 Y79.35 E9.93871
G1 X115.001 Y79.35 E10.06568
G1 X115.769 Y79.39 E10.10405
G1 X116.529 Y79.509 E10.14243
G1 X117.272 Y79.707 E10.18079
G1 X117.991 Y79.981 E10.21917
G1 X118.677 Y80.328 E10.25753
G1 X119.324 Y80.744 E10.2959
G1 X119.924 Y81.225 E10.33427
G1 X120.471 Y81.766 E10.37265
G1 X120.959 Y82.361 E10.41104
G1 X121.382 Y83.003 E10.4494
G1 X121.737 Y83.686 E10.4878
G1 X122.018 Y84.401 E10.52613
G1 X122.224 Y85.143 E10.56455
G1 X122.352 Y85.901 E10.6029
G1 X122.401 Y86.75 E10.64533
G1 X122.401 Y114.75 E12.04226
G1 X122.361 Y115.518 E12.08062
G1 X122.242 Y116.278 E12.119
G1 X122.044 Y117.021 E12.15736
G1 X121.77 Y117.74 E12.19575
G1 X121.423 Y118.426 E12.2341
G1 X121.007 Y119.073 E12.27248
G1 X120.526 Y119.673 E12.31085
G1 X119.985 Y120.22 E12.34923
G1 X119.39 Y120.708 E12.38762
G1 X118.748 Y121.131 E12.42598
G1 X118.065 Y121.486 E12.46438
G1 X117.35 Y121.767 E12.50271
G1 X116.608 Y121.973 E12.54113
G1 X115.85 Y122.101 E12.57948
G1 X115.001 Y122.15 E12.62191
G1 X84.999 Y122.15 E14.11871
G1 X84.231 Y122.11 E14.15708
G1 X83.471 Y121.991 E14.19546
G1 X82.728 Y121.793 E14.23382
G1 X82.009 Y121.519 E14.27221
G1 X81.323 Y121.172 E14.31056
G1 X80.676 Y120.756 E14.34894
G1 X80.076 Y120.275 E14.3873
G1 X79.529 Y119.734 E14.42568
G1 X79.041 Y119.139 E14.46408
G1 X78.618 Y118.497 E14.50243
G1 X78.263 Y117.814 E14.54084
G1 X77.982 Y117.099 E14.57916
G1 X77.776 Y116.357 E14.61758
G1 X77.648 Y115.599 E14.65593
G1 X77.599 Y114.75 E14.69836
G1 X77.599 Y86.75 E16.09529
G1 X77.639 Y85.982 E16.13366
G1 X77.758 Y85.222 E16.17203
G1 X77.956 Y84.479 E16.2104
G1 X78.23 Y83.76 E16.24878
G1 X78.577 Y83.074 E16.28714
G1 X78.993 Y82.427 E16.32551
G1 X79.474 Y81.827 E16.36388
G1 X80.015 Y81.28 E16.40226
G0 F3600 X80.407 Y81.466
G1 F1800 X80.997 Y81.007 E16.43955
G1 X81.633 Y80.612 E16.47691
G1 X82.307 Y80.288 E16.51422
G1 X83.012 Y80.038 E16.55153
G1 X83.74 Y79.864 E16.58888
G1 X84.482 Y79.769 E16.6262
G1 X84.999 Y79.75 E16.65201
G1 X87.685 Y79.75 E16.78601
G1 X87.997 Y79.507 E16.80574
G1 X88.633 Y79.112 E16.8431
G1 X89.307 Y78.788 E16.88041
G1 X90.012 Y78.538 E16.91772
G1 X90.74 Y78.364 E16.95507
G1 X91.482 Y78.269 E16.99239
G1 X91.999 Y78.25 E17.0182
G1 X108.001 Y78.25 E17.81654
G1 X108.748 Y78.29 E17.85386
G1 X109.486 Y78.409 E17.89116
G1 X110.208 Y78.607 E17.92851
G1 X110.904 Y78.88 E17.96581
G1 X111.567 Y79.227 E18.00314
G1 X112.19 Y79.642 E18.04049
G1 X112.319 Y79.75 E18.04888
G1 X115.001 Y79.75 E18.18269
G1 X115.748 Y79.79 E18.22001
G1 X116.486 Y79.909 E18.2573
G1 X117.208 Y80.107 E18.29465
G1 X117.904 Y80.38 E18.33195
G1 X118.567 Y80.727 E18.36929
G1 X119.19 Y81.142 E18.40663
G1 X119.764 Y81.621 E18.44393
G1 X120.285 Y82.158 E18.48126
G1 X120.744 Y82.748 E18.51855
G1 X121.139 Y83.384 E18.5559
G1 X121.463 Y84.058 E18.59321
G1 X121.713 Y84.763 E18.63053
G1 X121.887 Y85.491 E18.66787
G1 X121.982 Y86.233 E18.7052
G1 X122.001 Y86.75 E18.73101
G1 X122.001 Y114.75 E20.12793
G1 X121.961 Y115.497 E20.16525
G1 X121.842 Y116.235 E20.20255
G1 X121.644 Y116.957 E20.2399
G1 X121.371 Y117.653 E20.2772
G1 X121.024 Y118.316 E20.31453
G1 X120.609 Y118.939 E20.35188
G1 X120.13 Y119.513 E20.38918
G1 X119.593 Y120.034 E20.4265
G1 X119.003 Y120.493 E20.4638
G1 X118.367 Y120.888 E20.50115
G1 X117.693 Y121.212 E20.53846
G1 X116.988 Y121.462 E20.57578
G1 X116.26 Y121.636 E20.61312
G1 X115.518 Y121.731 E20.65044
G1 X115.001 Y121.75 E20.67625
G1 X84.999 Y121.75 E22.17306
G1 X84.252 Y121.71 E22.21038
G1 X83.514 Y121.591 E22.24767
G1 X82.792 Y121.393 E22.28502
G1 X82.096 Y121.12 E22.32232
G1 X81.433 Y120.773 E22.35966
G1 X80.81 Y120.358 E22.397
G1 X80.236 Y119.879 E22.4343
G1 X79.715 Y119.342 E22.47163
G1 X79.256 Y118.752 E22.50892
G1 X78.861 Y118.116 E22.54628
G1 X78.537 Y117.442 E22.58358
G1 X78.287 Y116.737 E22.6209
G1 X78.113 Y116.009 E22.65825
G1 X78.018 Y115.267 E22.69557
G1 X77.999 Y114.75 E22.72138
G1 X77.999 Y86.75 E24.1183
G1 X78.039 Y86.003 E24.15562
G1 X78.158 Y85.265 E24.19292
G1 X78.356 Y84.543 E24.23027
G1 X78.629 Y83.847 E24.26757
G1 X78.976 Y83.184 E24.3049
G1 X79.391 Y82.561 E24.34225
G1 X79.87 Y81.987 E24.37955
G1 X80.407 Y81.466 E24.41688
G0 F3600 X80.264 Y82.152
G1 F1800 X80.798 Y81.659 E24.45313
G1 X81.383 Y81.229 E24.48936
G1 X82.012 Y80.865 E24.52561
G1 X82.677 Y80.572 E24.56187
G1 X83.37 Y80.354 E24.59811
G1 X84.082 Y80.214 E24.63431
G1 X84.999 Y80.15 E24.68017
G1 X87.81 Y80.15 E24.82042
G1 X88.383 Y79.729 E24.85589
G1 X89.012 Y79.365 E24.89215
G1 X89.677 Y79.072 E24.9284
G1 X90.37 Y78.854 E24.96465
G1 X91.082 Y78.714 E25.00085
G1 X91.999 Y78.65 E25.04671
G1 X108.001 Y78.65 E25.84505
G1 X108.726 Y78.69 E25.88128
G1 X109.443 Y78.809 E25.91754
G1 X110.142 Y79.007 E25.95378
G1 X110.815 Y79.28 E25.99002
G1 X111.454 Y79.625 E26.02625
G1 X112.051 Y80.039 E26.06249
G1 X112.179 Y80.15 E26.07094
G1 X115.001 Y80.15 E26.21173
G1 X115.726 Y80.19 E26.24796
G1 X116.443 Y80.309 E26.28422
G1 X117.142 Y80.507 E26.32046
G1 X117.815 Y80.78 E26.3567
G1 X118.454 Y81.125 E26.39293
G1 X119.051 Y81.539 E26.42917
G1 X119.599 Y82.015 E26.46539
G1 X120.092 Y82.549 E26.50165
G1 X120.522 Y83.134 E26.53787
G1 X120.886 Y83.763 E26.57412
G1 X121.179 Y84.428 E26.61038
G1 X121.397 Y85.121 E26.64662
G1 X121.537 Y85.833 E26.68283
G1 X121.601 Y86.75 E26.72869
G1 X121.601 Y114.75 E28.12561
G1 X121.561 Y115.475 E28.16184
G1 X121.442 Y116.192 E28.1981
G1 X121.244 Y116.891 E28.23434
G1 X120.971 Y117.564 E28.27058
G1 X120.626 Y118.203 E28.30681
G1 X120.212 Y118.8 E28.34305
G1 X119.736 Y119.348 E28.37926
G1 X119.202 Y119.841 E28.41552
G1 X118.617 Y120.271 E28.45175
G1 X117.988 Y120.635 E28.488
G1 X117.323 Y120.928 E28.52426
G1 X116.63 Y121.146 E28.5605
G1 X115.918 Y121.286 E28.5967
G1 X115.001 Y121.35 E28.64256
G1 X84.999 Y121.35 E30.13937
G1 X84.274 Y121.31 E30.1756
G1 X83.557 Y121.191 E30.21186
G1 X82.858 Y120.993 E30.2481
G1 X82.185 Y120.72 E30.28433
G1 X81.546 Y120.375 E30.32056
G1 X80.949 Y119.961 E30.35681
G1 X80.401 Y119.485 E30.39302
G1 X79.908 Y118.951 E30.42928
G1 X79.478 Y118.366 E30.4655
G1 X79.114 Y117.737 E30.50176
G1 X78.821 Y117.072 E30.53802
G1 X78.603 Y116.379 E30.57426
G1 X78.463 Y115.667 E30.61046
G1 X78.399 Y114.75 E30.65632
G1 X78.399 Y86.75 E32.05325
G1 X78.439 Y86.025 E32.08947
G1 X78.558 Y85.308 E32.12573
G1 X78.756 Y84.609 E32.16198
G1 X79.029 Y83.936 E32.19821
G1 X79.374 Y83.297 E32.23444
G1 X79.788 Y82.7 E32.27069
G1 X80.264 Y82.152 E32.3069
G0 F3600 X80.658 Y82.323
G1 F1800 X81.188 Y81.859 E32.34204
G1 X81.767 Y81.459 E32.37715
G1 X82.388 Y81.127 E32.41229
G1 X83.042 Y80.867 E32.4474
G1 X83.722 Y80.683 E32.48254
G1 X84.418 Y80.577 E32.51767
G1 X84.999 Y80.55 E32.54668
G1 X87.97 Y80.55 E32.69491
G1 X88.767 Y79.959 E32.74441
G1 X89.388 Y79.627 E32.77954
G1 X90.042 Y79.367 E32.81465
G1 X90.722 Y79.183 E32.8498
G1 X91.418 Y79.077 E32.88492
G1 X91.999 Y79.05 E32.91394
G1 X108.001 Y79.05 E33.71228
G1 X108.704 Y79.09 E33.74741
G1 X109.398 Y79.209 E33.78254
G1 X110.073 Y79.407 E33.81764
G1 X110.722 Y79.679 E33.85274
G1 X111.336 Y80.024 E33.88788
G1 X111.907 Y80.435 E33.92298
G1 X112.033 Y80.55 E33.93149
G1 X115.001 Y80.55 E34.07957
G1 X115.704 Y80.59 E34.11469
G1 X116.398 Y80.709 E34.14982
G1 X117.073 Y80.907 E34.18492
G1 X117.722 Y81.179 E34.22003
G1 X118.336 Y81.524 E34.25516
G1 X118.907 Y81.935 E34.29026
G1 X119.428 Y82.409 E34.3254
G1 X119.892 Y82.939 E34.36055
G1 X120.292 Y83.518 E34.39566
G1 X120.624 Y84.139 E34.43079
G1 X120.884 Y84.793 E34.4659
G1 X121.068 Y85.473 E34.50104
G1 X121.174 Y86.169 E34.53617
G1 X121.201 Y86.75 E34.56519
G1 X121.201 Y114.75 E35.96211
G1 X121.161 Y115.453 E35.99724
G1 X121.042 Y116.147 E36.03237
G1 X120.844 Y116.822 E36.06747
G1 X120.572 Y117.471 E36.10257
G1 X120.227 Y118.085 E36.13771
G1 X119.816 Y118.656 E36.17281
G1 X119.342 Y119.177 E36.20795
G1 X118.812 Y119.641 E36.24309
G1 X118.233 Y120.041 E36.2782
G1 X117.612 Y120.373 E36.31333
G1 X116.958 Y120.633 E36.34845
G1 X116.278 Y120.817 E36.38359
G1 X115.582 Y120.923 E36.41872
G1 X115.001 Y120.95 E36.44773
G1 X84.999 Y120.95 E37.94454
G1 X84.296 Y120.91 E37.97967
G1 X83.602 Y120.791 E38.0148
G1 X82.927 Y120.593 E38.04989
G1 X82.278 Y120.321 E38.085
G1 X81.664 Y119.976 E38.12014
G1 X81.093 Y119.565 E38.15524
G1 X80.572 Y119.091 E38.19038
G1 X80.108 Y118.561 E38.22552
G1 X79.708 Y117.982 E38.26063
G1 X79.376 Y117.361 E38.29576
G1 X79.116 Y116.707 E38.33087
G1 X78.932 Y116.027 E38.36602
G1 X78.826 Y115.331 E38.40114
G1 X78.799 Y114.75 E38.43016
G1 X78.799 Y86.75 E39.82709
G1 X78.839 Y86.047 E39.86222
G1 X78.958 Y85.353 E39.89734
G1 X79.156 Y84.678 E39.93244
G1 X79.428 Y84.029 E39.96755
G1 X79.773 Y83.415 E40.00268
G1 X80.184 Y82.844 E40.03778
G1 X80.658 Y82.323 E40.07292
G0 F3600 X81.052 Y82.501
G1 F1800 X81.577 Y82.067 E40.10691
G1 X82.149 Y81.698 E40.14087
G1 X82.761 Y81.399 E40.17485
G1 X83.403 Y81.174 E40.20879
G1 X84.068 Y81.025 E40.24279
G1 X84.999 Y80.95 E40.28939
G1 X88.114 Y80.95 E40.44479
G1 X88.577 Y80.567 E40.47477
G1 X89.149 Y80.198 E40.50873
G1 X89.761 Y79.899 E40.54271
G1 X90.403 Y79.674 E40.57665
G1 X91.068 Y79.525 E40.61065
G1 X91.999 Y79.45 E40.65725
G1 X108.001 Y79.45 E41.45559
G1 X108.681 Y79.49 E41.48958
G1 X109.351 Y79.609 E41.52353
G1 X110.003 Y79.806 E41.55751
G1 X110.627 Y80.078 E41.59147
G1 X111.215 Y80.422 E41.62546
G1 X111.759 Y80.832 E41.65944
G1 X111.882 Y80.95 E41.66795
G1 X115.001 Y80.95 E41.82355
G1 X115.681 Y80.99 E41.85754
G1 X116.351 Y81.109 E41.89149
G1 X117.003 Y81.306 E41.92547
G1 X117.627 Y81.578 E41.95943
G1 X118.215 Y81.922 E41.99341
G1 X118.759 Y82.332 E42.0274
G1 X119.25 Y82.803 E42.06134
G1 X119.684 Y83.328 E42.09533
G1 X120.053 Y83.9 E42.12929
G1 X120.352 Y84.512 E42.16327
G1 X120.577 Y85.154 E42.19721
G1 X120.726 Y85.819 E42.23121
G1 X120.801 Y86.75 E42.27781
G1 X120.801 Y114.75 E43.67473
G1 X120.761 Y115.43 E43.70872
G1 X120.642 Y116.1 E43.74267
G1 X120.445 Y116.752 E43.77665
G1 X120.173 Y117.376 E43.81061
G1 X119.829 Y117.964 E43.84459
G1 X119.419 Y118.508 E43.87858
G1 X118.948 Y118.999 E43.91252
G1 X118.423 Y119.433 E43.94651
G1 X117.851 Y119.802 E43.98047
G1 X117.239 Y120.101 E44.01445
G1 X116.597 Y120.326 E44.04839
G1 X115.932 Y120.475 E44.08239
G1 X115.001 Y120.55 E44.12899
G1 X84.999 Y120.55 E45.62579
G1 X84.319 Y120.51 E45.65978
G1 X83.649 Y120.391 E45.69373
G1 X82.997 Y120.194 E45.72771
G1 X82.373 Y119.922 E45.76167
G1 X81.785 Y119.578 E45.79565
G1 X81.241 Y119.168 E45.82964
G1 X80.75 Y118.697 E45.86358
G1 X80.316 Y118.172 E45.89757
G1 X79.947 Y117.6 E45.93153
G1 X79.648 Y116.988 E45.96551
G1 X79.423 Y116.346 E45.99945
G1 X79.274 Y115.681 E46.03345
G1 X79.199 Y114.75 E46.08005
G1 X79.199 Y86.75 E47.47697
G1 X79.239 Y86.07 E47.51096
G1 X79.358 Y85.4 E47.54491
G1 X79.555 Y84.748 E47.57889
G1 X79.827 Y84.124 E47.61285
G1 X80.171 Y83.536 E47.64683
G1 X80.581 Y82.992 E47.68082
G1 X81.052 Y82.501 E47.71476
G0 F3600 X81.444 Y82.685
G1 F1800 X81.964 Y82.284 E47.74753
G1 X82.528 Y81.948 E47.78028
G1 X83.13 Y81.684 E47.81307
G1 X83.759 Y81.494 E47.84585
G1 X84.406 Y81.383 E47.87861
G1 X84.999 Y81.35 E47.90824
G1 X88.277 Y81.35 E48.07178
G1 X88.964 Y80.784 E48.11618
G1 X89.528 Y80.448 E48.14894
G1 X90.13 Y80.184 E48.18173
G1 X90.759 Y79.994 E48.21451
G1 X91.406 Y79.883 E48.24726
G1 X91.999 Y79.85 E48.2769
G1 X108.001 Y79.85 E49.07524
G1 X108.657 Y79.89 E49.10803
G1 X109.303 Y80.009 E49.1408
G1 X109.93 Y80.206 E49.17359
G1 X110.528 Y80.478 E49.20636
G1 X111.089 Y80.82 E49.23914
G1 X111.604 Y81.228 E49.27192
G1 X111.725 Y81.35 E49.28049
G1 X115.001 Y81.35 E49.44393
G1 X115.657 Y81.39 E49.47672
G1 X116.303 Y81.509 E49.50949
G1 X116.93 Y81.706 E49.54228
G1 X117.528 Y81.978 E49.57506
G1 X118.089 Y82.32 E49.60784
G1 X118.604 Y82.728 E49.64062
G1 X119.066 Y83.195 E49.67339
G1 X119.467 Y83.715 E49.70615
G1 X119.803 Y84.279 E49.7389
G1 X120.067 Y84.881 E49.7717
G1 X120.257 Y85.51 E49.80448
G1 X120.368 Y86.157 E49.83723
G1 X120.401 Y86.75 E49.86686
G1 X120.401 Y114.75 E51.26379
G1 X120.361 Y115.406 E51.29658
G1 X120.242 Y116.052 E51.32935
G1 X120.045 Y116.679 E51.36214
G1 X119.773 Y117.277 E51.39491
G1 X119.431 Y117.838 E51.42769
G1 X119.023 Y118.353 E51.46047
G1 X118.556 Y118.815 E51.49324
G1 X118.036 Y119.216 E51.526
G1 X117.472 Y119.552 E51.55876
G1 X116.87 Y119.816 E51.59155
G1 X116.241 Y120.006 E51.62433
G1 X115.594 Y120.117 E51.65708
G1 X115.001 Y120.15 E51.68672
G1 X84.999 Y120.15 E53.18352
G1 X84.343 Y120.11 E53.21631
G1 X83.697 Y119.991 E53.24908
G1 X83.07 Y119.794 E53.28187
G1 X82.472 Y119.522 E53.31465
G1 X81.911 Y119.18 E53.34742
