;FLAVOR:Marlin
;TIME:9540
;Filament used: 5.09889m
;Layer height: 0.1
;MINX:77.224
;MINY:73.741
;MINZ:0.3
;MAXX:122.777
;MAXY:121.354
;MAXZ:47.4
;Generated with Cura_SteamEngine 4.5.0
M140 S60
M105
M190 S60
M104 S200
M105
M109 S200
M82 ;absolute extrusion mode
G21 ;metric values
 G90 ;absolute positioning
 M82 ;set extruder to absolute mode
 M107 ;start with the fan off
 G28 X0 Y0 ;move X/Y to min endstops
 G28 Z0 ;move Z to min endstops
 G1 Z15.0 F120 ;move the platform down 15mm
 G92 E0 ;zero the extruded length
 G1 F200 E6 ;extrude 6 mm of feed stock
 G92 E0 ;zero the extruded length again
 G1 F120 
 ;Put printing message on LCD screen
 M117 Printing...
G92 E0
G92 E0
G1 F1500 E-6.5
;LAYER_COUNT:472
;LAYER:0
M107
G0 F3600 X79.708 Y76.411 Z0.3
;TYPE:SKIRT
G1 F1500 E0
G1 F1800 X80.51 Y75.67 E0.05448
G1 X81.147 Y75.204 E0.09385
G1 X81.916 Y74.76 E0.13815
G1 X82.911 Y74.304 E0.19276
G1 X83.662 Y74.059 E0.23217
G1 X84.461 Y73.888 E0.27293
G1 X85.545 Y73.754 E0.32743
G1 X114.006 Y73.741 E1.74735
G1 X114.795 Y73.781 E1.78677
G1 X115.575 Y73.9 E1.82613
G1 X116.41 Y74.121 E1.86922
G1 X116.981 Y74.306 E1.89917
G1 X117.719 Y74.587 E1.93857
G1 X118.425 Y74.941 E1.97797
G1 X119.091 Y75.365 E2.01736
G1 X119.711 Y75.854 E2.05675
G1 X120.118 Y76.236 E2.0846
G1 X120.859 Y77.041 E2.13919
G1 X121.323 Y77.679 E2.17854
G1 X121.757 Y78.433 E2.22195
G1 X122.213 Y79.428 E2.27655
G1 X122.458 Y80.179 E2.31596
G1 X122.627 Y80.965 E2.35607
G1 X122.762 Y82.046 E2.41042
G1 X122.777 Y110.519 E3.83095
G1 X122.737 Y111.307 E3.87031
G1 X122.628 Y112.067 E3.90862
G1 X122.463 Y112.839 E3.948
G1 X122.22 Y113.591 E3.98743
G1 X121.863 Y114.392 E4.03118
G1 X121.327 Y115.345 E4.08573
G1 X120.864 Y115.984 E4.1251
G1 X120.291 Y116.62 E4.16781
G1 X119.492 Y117.359 E4.22211
G1 X118.855 Y117.825 E4.26148
G1 X118.127 Y118.248 E4.30349
G1 X117.136 Y118.71 E4.35804
G1 X116.387 Y118.959 E4.39742
G1 X115.539 Y119.143 E4.44071
G1 X114.454 Y119.276 E4.49524
G1 X85.995 Y119.29 E5.91507
G1 X85.207 Y119.25 E5.95443
G1 X84.441 Y119.14 E5.99304
G1 X83.669 Y118.973 E6.03245
G1 X82.917 Y118.73 E6.07188
G1 X82.144 Y118.386 E6.11409
G1 X81.19 Y117.854 E6.16858
G1 X80.549 Y117.392 E6.208
G1 X79.922 Y116.831 E6.24998
G1 X79.178 Y116.035 E6.30434
G1 X78.709 Y115.399 E6.34376
G1 X78.255 Y114.62 E6.38874
G1 X77.796 Y113.627 E6.44332
G1 X77.549 Y112.877 E6.48272
G1 X77.374 Y112.068 E6.52401
G1 X77.239 Y110.987 E6.57836
G1 X77.224 Y82.513 E7.99894
G1 X77.264 Y81.725 E8.0383
G1 X77.376 Y80.953 E8.07722
G1 X77.543 Y80.181 E8.11662
G1 X77.787 Y79.43 E8.15602
G1 X78.102 Y78.716 E8.19495
G1 X78.629 Y77.754 E8.24968
G1 X79.086 Y77.11 E8.28907
G1 X79.708 Y76.411 E8.33576
G0 F3600 X79.991 Y76.694
G1 F1800 X80.777 Y75.968 E8.38914
G1 X81.4 Y75.516 E8.42754
G1 X82.096 Y75.117 E8.46756
G1 X83.072 Y74.67 E8.52112
G1 X83.805 Y74.435 E8.55952
G1 X84.524 Y74.283 E8.59619
G1 X85.588 Y74.152 E8.64967
G1 X114.006 Y74.141 E10.06745
G1 X114.774 Y74.181 E10.10582
G1 X115.534 Y74.3 E10.1442
G1 X116.287 Y74.501 E10.18308
G1 X116.858 Y74.686 E10.21302
G1 X117.576 Y74.961 E10.25138
G1 X118.262 Y75.309 E10.28976
G1 X118.908 Y75.726 E10.32812
G1 X119.508 Y76.208 E10.36652
G1 X120.048 Y76.734 E10.40413
G1 X120.56 Y77.308 E10.4425
G1 X121.01 Y77.931 E10.48084
G1 X121.4 Y78.613 E10.52004
G1 X121.847 Y79.589 E10.57359
G1 X122.082 Y80.322 E10.612
G1 X122.233 Y81.029 E10.64806
G1 X122.364 Y82.09 E10.7014
G1 X122.377 Y110.519 E12.11973
G1 X122.337 Y111.287 E12.1581
G1 X122.233 Y112.003 E12.19419
G1 X122.071 Y112.755 E12.23257
G1 X121.832 Y113.486 E12.27094
G1 X121.507 Y114.209 E12.31049
G1 X120.981 Y115.144 E12.36401
G1 X120.527 Y115.765 E12.40239
G1 X120.009 Y116.337 E12.44089
G1 X119.225 Y117.061 E12.49413
G1 X118.602 Y117.513 E12.53253
G1 X117.945 Y117.892 E12.57037
G1 X116.973 Y118.344 E12.62385
G1 X116.242 Y118.584 E12.66224
G1 X115.476 Y118.748 E12.70132
G1 X114.411 Y118.878 E12.75484
G1 X85.995 Y118.89 E14.17252
G1 X85.227 Y118.85 E14.21089
G1 X84.505 Y118.745 E14.24729
G1 X83.753 Y118.582 E14.28568
G1 X83.023 Y118.342 E14.32402
G1 X82.326 Y118.03 E14.36212
G1 X81.39 Y117.507 E14.41561
G1 X80.768 Y117.055 E14.45397
G1 X80.204 Y116.548 E14.4918
G1 X79.475 Y115.766 E14.54514
G1 X79.02 Y115.145 E14.58355
G1 X78.612 Y114.439 E14.62423
G1 X78.162 Y113.464 E14.67781
G1 X77.925 Y112.732 E14.71619
G1 X77.768 Y112.004 E14.75335
G1 X77.637 Y110.943 E14.80668
G1 X77.624 Y82.513 E16.22506
G1 X77.664 Y81.745 E16.26343
G1 X77.77 Y81.017 E16.30013
G1 X77.934 Y80.266 E16.33848
G1 X78.175 Y79.535 E16.37688
G1 X78.459 Y78.895 E16.41181
G1 X78.977 Y77.951 E16.46554
G1 X79.425 Y77.326 E16.5039
G1 X79.991 Y76.694 E16.54623
G0 F3600 X80.273 Y76.978
G1 F1800 X81.044 Y76.266 E16.59858
G1 X81.652 Y75.83 E16.63591
G1 X82.276 Y75.474 E16.67175
G1 X83.233 Y75.037 E16.72424
G1 X83.947 Y74.811 E16.7616
G1 X84.587 Y74.677 E16.79423
G1 X85.996 Y74.541 E16.86485
G1 X114.006 Y74.541 E18.26227
G1 X114.753 Y74.581 E18.29959
G1 X115.491 Y74.7 E18.33689
G1 X116.164 Y74.882 E18.37167
G1 X116.735 Y75.067 E18.40162
G1 X117.433 Y75.335 E18.43892
G1 X118.099 Y75.676 E18.47625
G1 X118.724 Y76.087 E18.51357
G1 X119.55 Y76.799 E18.56797
G1 X120.261 Y77.574 E18.62044
G1 X120.696 Y78.183 E18.65778
G1 X121.043 Y78.793 E18.69279
G1 X121.48 Y79.75 E18.74528
G1 X121.706 Y80.464 E18.78264
G1 X121.838 Y81.094 E18.81476
G1 X121.966 Y82.133 E18.86699
G1 X121.977 Y110.519 E20.28317
G1 X121.887 Y111.636 E20.33908
G1 X121.68 Y112.671 E20.39174
G1 X121.444 Y113.38 E20.42902
G1 X121.152 Y114.026 E20.46438
G1 X120.635 Y114.942 E20.51686
G1 X120.191 Y115.544 E20.55418
G1 X119.727 Y116.053 E20.58854
G1 X118.957 Y116.763 E20.6408
G1 X118.35 Y117.199 E20.67808
G1 X117.763 Y117.536 E20.71185
G1 X116.809 Y117.978 E20.76431
G1 X116.098 Y118.208 E20.80159
G1 X115.413 Y118.353 E20.83652
G1 X114.007 Y118.489 E20.90699
G1 X85.995 Y118.49 E22.30452
G1 X85.248 Y118.45 E22.34184
G1 X84.569 Y118.35 E22.37608
G1 X83.838 Y118.191 E22.4134
G1 X83.129 Y117.954 E22.4507
G1 X82.508 Y117.674 E22.48468
G1 X81.591 Y117.16 E22.53713
G1 X80.988 Y116.718 E22.57443
G1 X80.486 Y116.264 E22.6082
G1 X79.772 Y115.497 E22.66048
G1 X79.333 Y114.891 E22.69781
G1 X78.968 Y114.258 E22.73426
G1 X78.528 Y113.302 E22.78677
G1 X78.301 Y112.589 E22.8241
G1 X78.163 Y111.939 E22.85725
G1 X78.035 Y110.9 E22.90948
G1 X78.024 Y82.513 E24.32571
G1 X78.064 Y81.766 E24.36303
G1 X78.165 Y81.082 E24.39753
G1 X78.325 Y80.351 E24.43486
G1 X78.563 Y79.642 E24.47217
G1 X78.817 Y79.074 E24.50321
G1 X79.325 Y78.15 E24.55582
G1 X79.763 Y77.543 E24.59317
G1 X80.273 Y76.978 E24.63114
G0 F3600 X80.555 Y77.261
G1 F1800 X81.311 Y76.565 E24.68241
G1 X81.903 Y76.144 E24.71865
G1 X82.456 Y75.831 E24.75035
G1 X83.394 Y75.404 E24.80177
G1 X84.087 Y75.188 E24.83798
G1 X84.651 Y75.072 E24.86671
G1 X85.996 Y74.941 E24.93413
G1 X114.006 Y74.941 E26.33155
G1 X114.731 Y74.981 E26.36778
G1 X115.448 Y75.1 E26.40404
G1 X116.04 Y75.262 E26.43466
G1 X116.611 Y75.447 E26.4646
G1 X117.289 Y75.709 E26.50087
G1 X117.934 Y76.043 E26.53711
G1 X118.538 Y76.447 E26.57336
G1 X119.266 Y77.081 E26.62152
G1 X119.962 Y77.84 E26.6729
G1 X120.381 Y78.433 E26.70912
G1 X120.686 Y78.973 E26.74006
G1 X121.113 Y79.911 E26.79148
G1 X121.329 Y80.604 E26.8277
G1 X121.443 Y81.158 E26.85591
G1 X121.576 Y82.51 E26.92369
G1 X121.577 Y110.519 E28.32107
G1 X121.492 Y111.573 E28.37382
G1 X121.288 Y112.585 E28.42533
G1 X121.056 Y113.273 E28.46155
G1 X120.796 Y113.843 E28.49281
G1 X120.29 Y114.739 E28.54414
G1 X119.855 Y115.322 E28.58043
G1 X119.445 Y115.77 E28.61073
G1 X118.691 Y116.464 E28.66186
G1 X118.099 Y116.885 E28.6981
G1 X117.581 Y117.18 E28.72784
G1 X116.647 Y117.612 E28.77918
G1 X115.954 Y117.832 E28.81545
G1 X115.35 Y117.958 E28.84624
G1 X114.007 Y118.089 E28.91356
G1 X85.995 Y118.09 E30.31108
G1 X84.935 Y118.004 E30.36414
G1 X83.924 Y117.799 E30.4156
G1 X83.236 Y117.566 E30.45184
G1 X82.69 Y117.318 E30.48176
G1 X81.793 Y116.814 E30.53309
G1 X81.209 Y116.382 E30.56933
G1 X80.768 Y115.981 E30.59907
G1 X80.069 Y115.229 E30.65029
G1 X79.646 Y114.639 E30.68651
G1 X79.325 Y114.077 E30.7188
G1 X78.895 Y113.14 E30.77024
G1 X78.677 Y112.447 E30.80648
G1 X78.558 Y111.875 E30.83563
G1 X78.425 Y110.523 E30.90341
G1 X78.424 Y82.513 E32.30083
G1 X78.511 Y81.446 E32.35424
G1 X78.717 Y80.437 E32.40562
G1 X78.95 Y79.75 E32.44181
G1 X79.174 Y79.254 E32.46896
G1 X79.673 Y78.349 E32.52052
G1 X80.101 Y77.762 E32.55676
G1 X80.555 Y77.261 E32.5905
G0 F3600 X80.837 Y77.545
G1 F1800 X81.578 Y76.864 E32.64071
G1 X82.154 Y76.459 E32.67583
G1 X82.636 Y76.189 E32.7034
G1 X83.554 Y75.771 E32.75372
G1 X84.227 Y75.566 E32.78882
G1 X85.013 Y75.419 E32.82871
G1 X85.996 Y75.341 E32.87791
G1 X114.006 Y75.341 E34.27533
G1 X114.709 Y75.381 E34.31046
G1 X115.403 Y75.5 E34.34559
G1 X115.917 Y75.643 E34.37221
G1 X116.488 Y75.828 E34.40216
G1 X117.144 Y76.083 E34.43727
G1 X117.767 Y76.41 E34.47237
G1 X118.35 Y76.806 E34.50753
G1 X118.981 Y77.362 E34.54949
G1 X119.662 Y78.106 E34.59981
G1 X120.065 Y78.683 E34.63492
G1 X120.328 Y79.153 E34.66179
G1 X120.746 Y80.071 E34.71212
G1 X120.951 Y80.744 E34.74722
G1 X121.096 Y81.518 E34.7865
G1 X121.176 Y82.51 E34.83616
G1 X121.177 Y110.519 E36.23353
G1 X121.097 Y111.509 E36.28308
G1 X120.897 Y112.499 E36.33347
G1 X120.668 Y113.165 E36.36861
G1 X120.44 Y113.66 E36.3958
G1 X119.944 Y114.536 E36.44602
G1 X119.52 Y115.099 E36.48118
G1 X119.163 Y115.486 E36.50745
G1 X118.424 Y116.165 E36.55752
G1 X117.848 Y116.57 E36.59265
G1 X117.399 Y116.824 E36.61839
G1 X116.485 Y117.246 E36.66861
G1 X115.813 Y117.455 E36.70372
G1 X115.287 Y117.563 E36.73051
G1 X114.007 Y117.689 E36.79468
G1 X85.995 Y117.69 E38.1922
G1 X84.999 Y117.609 E38.24206
G1 X84.011 Y117.408 E38.29236
G1 X83.345 Y117.179 E38.3275
G1 X82.872 Y116.962 E38.35346
G1 X81.995 Y116.468 E38.40368
G1 X81.431 Y116.046 E38.43882
G1 X81.05 Y115.697 E38.4646
G1 X80.367 Y114.961 E38.51469
G1 X79.96 Y114.387 E38.5498
G1 X79.682 Y113.896 E38.57795
G1 X79.262 Y112.979 E38.62827
G1 X79.054 Y112.307 E38.66336
G1 X78.953 Y111.811 E38.68861
G1 X78.825 Y110.523 E38.75319
G1 X78.824 Y82.513 E40.15061
G1 X78.906 Y81.51 E40.20082
G1 X79.108 Y80.524 E40.25103
G1 X79.338 Y79.859 E40.28614
G1 X79.67 Y79.158 E40.32484
G1 X80.021 Y78.548 E40.35995
G1 X80.438 Y77.981 E40.39506
G1 X80.837 Y77.545 E40.42455
G0 F3600 X81.119 Y77.828
G1 F1800 X81.843 Y77.164 E40.47356
G1 X82.403 Y76.776 E40.50755
G1 X83.088 Y76.409 E40.54632
G1 X83.713 Y76.139 E40.58029
G1 X84.365 Y75.944 E40.61424
G1 X85.077 Y75.814 E40.65035
G1 X85.996 Y75.741 E40.69634
G1 X114.006 Y75.741 E42.09376
G1 X114.686 Y75.781 E42.12775
G1 X115.356 Y75.9 E42.1617
G1 X116.365 Y76.208 E42.21433
G1 X116.999 Y76.456 E42.24829
G1 X117.6 Y76.776 E42.28226
G1 X118.159 Y77.164 E42.31621
G1 X118.697 Y77.644 E42.35218
G1 X119.361 Y78.371 E42.40131
G1 X119.748 Y78.931 E42.43527
G1 X120.108 Y79.605 E42.47339
G1 X120.378 Y80.23 E42.50735
G1 X120.573 Y80.882 E42.54131
G1 X120.701 Y81.582 E42.57681
G1 X120.776 Y82.51 E42.62326
G1 X120.777 Y110.519 E44.02063
G1 X120.703 Y111.445 E44.06698
G1 X120.506 Y112.413 E44.11626
G1 X120.281 Y113.055 E44.1502
G1 X119.946 Y113.747 E44.18856
G1 X119.599 Y114.333 E44.22254
G1 X119.186 Y114.874 E44.25649
G1 X118.669 Y115.414 E44.29379
G1 X118.159 Y115.865 E44.32775
G1 X117.599 Y116.253 E44.36174
G1 X116.947 Y116.606 E44.39873
G1 X116.323 Y116.879 E44.43271
G1 X115.672 Y117.078 E44.46668
G1 X114.923 Y117.216 E44.50467
G1 X114.007 Y117.289 E44.55052
G1 X85.995 Y117.29 E45.94804
G1 X85.063 Y117.215 E45.99469
G1 X84.098 Y117.017 E46.04384
G1 X83.455 Y116.791 E46.07784
G1 X82.784 Y116.468 E46.11499
G1 X82.197 Y116.123 E46.14896
G1 X81.655 Y115.711 E46.18293
G1 X81.119 Y115.202 E46.21981
G1 X80.666 Y114.694 E46.25376
G1 X80.275 Y114.137 E46.28771
G1 X79.901 Y113.443 E46.32705
G1 X79.629 Y112.819 E46.36101
G1 X79.432 Y112.167 E46.39499
G1 X79.3 Y111.451 E46.43131
G1 X79.225 Y110.523 E46.47776
G1 X79.224 Y82.513 E47.87518
G1 X79.3 Y81.575 E47.92214
G1 X79.499 Y80.612 E47.97119
G1 X79.725 Y79.969 E48.0052
G1 X80.027 Y79.338 E48.0401
G1 X80.368 Y78.748 E48.0741
G1 X80.775 Y78.202 E48.10807
G1 X81.119 Y77.828 E48.13342
G0 F3600 X81.616 Y77.899
G1 F1800 X82.109 Y77.464 E48.16622
G1 X82.651 Y77.093 E48.19899
G1 X83.268 Y76.766 E48.23383
G1 X83.872 Y76.507 E48.26662
G1 X84.502 Y76.323 E48.29936
G1 X85.14 Y76.209 E48.3317
G1 X85.996 Y76.141 E48.37454
G1 X114.006 Y76.141 E49.77196
G1 X114.662 Y76.181 E49.80475
G1 X115.308 Y76.3 E49.83752
G1 X116.241 Y76.589 E49.88625
G1 X116.853 Y76.829 E49.91905
G1 X117.431 Y77.142 E49.95184
G1 X117.966 Y77.522 E49.98458
G1 X118.413 Y77.925 E50.01461
G1 X119.06 Y78.635 E50.06253
G1 X119.43 Y79.178 E50.09531
G1 X119.751 Y79.785 E50.12957
G1 X120.01 Y80.389 E50.16236
G1 X120.194 Y81.019 E50.1951
G1 X120.306 Y81.646 E50.22688
G1 X120.376 Y82.51 E50.27012
G1 X120.377 Y110.519 E51.6675
G1 X120.308 Y111.381 E51.71064
G1 X120.115 Y112.325 E51.75871
G1 X119.894 Y112.944 E51.7915
G1 X119.59 Y113.564 E51.82595
G1 X119.254 Y114.128 E51.8587
G1 X118.853 Y114.648 E51.89147
G1 X118.386 Y115.13 E51.92495
G1 X117.893 Y115.565 E51.95775
G1 X117.351 Y115.936 E51.99052
G1 X116.765 Y116.249 E52.02366
G1 X116.163 Y116.512 E52.05644
G1 X115.533 Y116.7 E52.08924
G1 X114.86 Y116.821 E52.12335
G1 X114.007 Y116.889 E52.16604
G1 X85.995 Y116.89 E53.56357
G1 X85.127 Y116.82 E53.60701
G1 X84.186 Y116.626 E53.65495
G1 X83.567 Y116.404 E53.68776
G1 X82.966 Y116.111 E53.72111
G1 X82.401 Y115.777 E53.75386
G1 X81.88 Y115.377 E53.78663
G1 X81.402 Y114.918 E53.81969
G1 X80.965 Y114.427 E53.85248
G1 X80.591 Y113.887 E53.88525
G1 X80.257 Y113.262 E53.92061
G1 X79.996 Y112.659 E53.95339
G1 X79.81 Y112.029 E53.98616
G1 X79.695 Y111.387 E54.0187
G1 X79.625 Y110.523 E54.06195
G1 X79.624 Y82.513 E55.45937
G1 X79.695 Y81.64 E55.50307
G1 X79.89 Y80.7 E55.55097
G1 X80.247 Y79.792 E55.59964
G1 X80.714 Y78.949 E55.64772
G1 X81.111 Y78.425 E55.68052
G1 X81.616 Y77.899 E55.7169
G0 F3600 X81.898 Y78.182
G1 F1800 X82.373 Y77.765 E55.74843
G1 X82.897 Y77.412 E55.77995
G1 X83.448 Y77.123 E55.811
G1 X84.029 Y76.875 E55.84251
G1 X84.904 Y76.652 E55.88756
G1 X85.996 Y76.541 E55.94232
G1 X114.006 Y76.541 E57.33975
G1 X114.637 Y76.581 E57.37129
G1 X115.547 Y76.784 E57.41781
G1 X116.118 Y76.969 E57.44775
G1 X116.706 Y77.202 E57.47931
G1 X117.26 Y77.507 E57.51086
G1 X117.771 Y77.879 E57.54239
G1 X118.343 Y78.423 E57.58177
G1 X118.759 Y78.899 E57.61331
G1 X119.257 Y79.693 E57.66007
G1 X119.642 Y80.546 E57.70676
G1 X119.864 Y81.414 E57.75146
G1 X119.976 Y82.51 E57.80643
G1 X119.977 Y110.519 E59.2038
G1 X119.913 Y111.317 E59.24374
G1 X119.724 Y112.237 E59.2906
G1 X119.373 Y113.111 E59.33759
G1 X118.91 Y113.923 E59.38422
G1 X118.316 Y114.636 E59.43052
G1 X117.629 Y115.264 E59.47696
G1 X116.853 Y115.755 E59.52277
G1 X116.003 Y116.145 E59.56943
G1 X115.097 Y116.378 E59.6161
G1 X114.007 Y116.489 E59.67076
G1 X85.995 Y116.49 E61.06828
G1 X85.192 Y116.425 E61.10848
G1 X84.274 Y116.235 E61.15525
G1 X83.418 Y115.893 E61.20124
G1 X82.605 Y115.432 E61.24786
G1 X81.897 Y114.847 E61.29368
G1 X81.265 Y114.161 E61.34022
G1 X80.909 Y113.639 E61.37174
G1 X80.614 Y113.081 E61.40323
G1 X80.364 Y112.501 E61.43474
G1 X80.137 Y111.619 E61.48018
G1 X80.025 Y110.523 E61.53514
G1 X80.024 Y82.513 E62.93257
G1 X80.09 Y81.704 E62.97306
G1 X80.28 Y80.789 E63.01968
G1 X80.604 Y79.971 E63.06358
G1 X81.061 Y79.15 E63.11046
G1 X81.446 Y78.649 E63.14198
G1 X81.898 Y78.182 E63.1744
G0 F3600 X81.966 Y78.679
G1 F1800 X82.637 Y78.067 E63.21971
G1 X83.356 Y77.618 E63.262
G1 X84.186 Y77.244 E63.30742
G1 X84.968 Y77.047 E63.34766
G1 X85.996 Y76.941 E63.39922
G1 X114.006 Y76.941 E64.79664
G1 X114.611 Y76.981 E64.82689
G1 X115.424 Y77.165 E64.86848
G1 X115.995 Y77.35 E64.89842
G1 X116.558 Y77.574 E64.92865
G1 X117.087 Y77.871 E64.95892
G1 X117.572 Y78.235 E64.98917
G1 X118.059 Y78.704 E65.0229
G1 X118.456 Y79.162 E65.05314
G1 X118.899 Y79.873 E65.09494
G1 X119.273 Y80.703 E65.14035
G1 X119.469 Y81.478 E65.18024
G1 X119.576 Y82.51 E65.232
G1 X119.577 Y110.519 E66.62937
G1 X119.518 Y111.253 E66.66611
G1 X119.333 Y112.147 E66.71166
G1 X119.018 Y112.928 E66.75367
G1 X118.566 Y113.717 E66.79904
G1 X118.034 Y114.352 E66.84037
