;FLAVOR:Marlin
;TIME:8312
;Filament used: 4.77913m
;Layer height: 0.1
;MINX:59.691
;MINY:82.462
;MINZ:0.3
;MAXX:140.309
;MAXY:155.459
;MAXZ:19
;Generated with Cura_SteamEngine 4.5.0
M140 S60
M105
M190 S60
M104 S200
M105
M109 S200
M82 ;absolute extrusion mode
G21 ;metric values
 G90 ;absolute positioning
 M82 ;set extruder to absolute mode
 M107 ;start with the fan off
 G28 X0 Y0 ;move X/Y to min endstops
 G28 Z0 ;move Z to min endstops
 G1 Z15.0 F120 ;move the platform down 15mm
 G92 E0 ;zero the extruded length
 G1 F200 E6 ;extrude 6 mm of feed stock
 G92 E0 ;zero the extruded length again
 G1 F120 
 ;Put printing message on LCD screen
 M117 Printing...
G92 E0
G92 E0
G1 F1500 E-6.5
;LAYER_COUNT:188
;LAYER:0
M107
G0 F3600 X73.261 Y84.427 Z0.3
;TYPE:SKIRT
G1 F1500 E0
G1 F1800 X73.902 Y83.965 E0.03942
G1 X74.586 Y83.571 E0.0788
G1 X75.306 Y83.247 E0.11819
G1 X76.508 Y82.844 E0.18144
G1 X77.271 Y82.638 E0.22087
G1 X78.05 Y82.51 E0.26026
G1 X78.918 Y82.462 E0.30363
G1 X121.082 Y82.462 E2.4072
G1 X121.871 Y82.502 E2.44661
G1 X122.651 Y82.621 E2.48598
G1 X123.486 Y82.842 E2.52907
G1 X124.267 Y83.095 E2.57003
G1 X125.005 Y83.376 E2.60942
G1 X125.711 Y83.73 E2.64883
G1 X126.377 Y84.154 E2.68821
G1 X126.997 Y84.643 E2.72761
G1 X127.466 Y85.086 E2.7598
G1 X127.998 Y85.669 E2.79917
G1 X128.468 Y86.304 E2.83859
G1 X128.872 Y86.982 E2.87796
G1 X129.205 Y87.698 E2.91736
G1 X129.553 Y88.689 E2.96976
G1 X129.861 Y89.754 E3.02507
G1 X129.99 Y90.533 E3.06446
G1 X130.041 Y91.421 E3.10884
G1 X130.041 Y108.579 E3.96485
G1 X130.001 Y109.368 E4.00427
G1 X129.882 Y110.148 E4.04363
G1 X129.641 Y111.046 E4.09002
G1 X129.376 Y111.841 E4.13183
G1 X129.088 Y112.576 E4.17121
G1 X128.728 Y113.279 E4.21062
G1 X128.299 Y113.942 E4.25001
G1 X127.862 Y114.486 E4.28483
G1 X128.735 Y115.08 E4.33751
G1 X129.362 Y115.56 E4.3769
G1 X129.778 Y115.94 E4.40501
G1 X130.409 Y116.56 E4.44914
G1 X130.943 Y117.142 E4.48855
G1 X131.297 Y117.602 E4.51751
G1 X131.81 Y118.323 E4.56166
G1 X132.235 Y118.989 E4.60107
G1 X132.494 Y119.484 E4.62894
G1 X132.877 Y120.286 E4.67328
G1 X133.18 Y121.015 E4.71267
G1 X133.355 Y121.566 E4.74151
G1 X133.59 Y122.415 E4.78546
G1 X133.762 Y123.186 E4.82487
G1 X133.838 Y123.756 E4.85356
G1 X133.862 Y124.008 E4.86619
G1 X134.592 Y124.375 E4.90696
G1 X135.275 Y124.771 E4.94634
G1 X135.718 Y125.082 E4.97335
G1 X136.141 Y125.401 E4.99978
G1 X136.747 Y125.908 E5.0392
G1 X137.449 Y126.622 E5.08915
G1 X137.965 Y127.22 E5.12856
G1 X138.276 Y127.65 E5.15504
G1 X138.574 Y128.092 E5.18163
G1 X138.982 Y128.768 E5.22102
G1 X139.209 Y129.227 E5.24657
G1 X139.427 Y129.707 E5.27287
G1 X139.717 Y130.441 E5.31225
G1 X139.865 Y130.933 E5.33788
G1 X140.001 Y131.446 E5.36436
G1 X140.164 Y132.219 E5.40377
G1 X140.229 Y132.739 E5.42991
G1 X140.277 Y133.267 E5.45636
G1 X140.309 Y134.056 E5.49576
G1 X140.251 Y135.061 E5.54598
G1 X140.155 Y135.845 E5.58539
G1 X140.04 Y136.39 E5.61318
G1 X139.913 Y136.9 E5.6394
G1 X139.683 Y137.655 E5.67877
G1 X139.29 Y138.603 E5.72997
G1 X138.94 Y139.311 E5.76938
G1 X138.666 Y139.764 E5.79579
G1 X138.377 Y140.207 E5.82218
G1 X137.912 Y140.845 E5.86156
G1 X137.581 Y141.23 E5.8869
G1 X137.219 Y141.623 E5.91355
G1 X136.655 Y142.176 E5.95296
G1 X136.266 Y142.499 E5.97819
G1 X135.85 Y142.822 E6.00446
G1 X135.202 Y143.274 E6.04388
G1 X134.729 Y143.547 E6.07112
G1 X134.259 Y143.797 E6.09768
G1 X133.87 Y143.979 E6.11911
G1 X133.758 Y144.846 E6.16272
G1 X133.642 Y145.371 E6.18955
G1 X133.421 Y146.226 E6.23361
G1 X133.185 Y146.98 E6.27302
G1 X132.961 Y147.521 E6.30224
G1 X132.591 Y148.329 E6.34657
G1 X132.226 Y149.03 E6.386
G1 X131.927 Y149.5 E6.41379
G1 X131.428 Y150.226 E6.45774
G1 X130.948 Y150.853 E6.49714
G1 X130.555 Y151.284 E6.52624
G1 X129.934 Y151.914 E6.57037
G1 X129.352 Y152.447 E6.60975
G1 X128.907 Y152.789 E6.63775
G1 X128.186 Y153.303 E6.68192
G1 X127.52 Y153.729 E6.72136
G1 X127.009 Y153.996 E6.75013
G1 X126.206 Y154.378 E6.79449
G1 X125.476 Y154.68 E6.83391
G1 X124.946 Y154.848 E6.86164
G1 X124.098 Y155.084 E6.90556
G1 X123.328 Y155.257 E6.94493
G1 X122.746 Y155.335 E6.97423
G1 X121.863 Y155.419 E7.01848
G1 X121.125 Y155.454 E7.05534
G1 X78.92 Y155.459 E9.16096
G1 X78.314 Y155.435 E9.19121
G1 X77.556 Y155.376 E9.22914
G1 X76.401 Y155.199 E9.28744
G1 X75.628 Y155.02 E9.32703
G1 X74.869 Y154.803 E9.36641
G1 X73.703 Y154.342 E9.42896
G1 X72.988 Y154.007 E9.46836
G1 X71.953 Y153.399 E9.52824
G1 X71.298 Y152.959 E9.56761
G1 X70.323 Y152.155 E9.63066
G1 X69.746 Y151.616 E9.67005
G1 X68.949 Y150.715 E9.73006
G1 X68.461 Y150.094 E9.76947
G1 X67.785 Y149.029 E9.8324
G1 X67.403 Y148.338 E9.87179
G1 X66.921 Y147.23 E9.93207
G1 X66.649 Y146.488 E9.9715
G1 X66.338 Y145.282 E10.03364
G1 X66.188 Y144.506 E10.07307
G1 X66.131 Y143.989 E10.09902
G1 X65.408 Y143.625 E10.1394
G1 X64.725 Y143.229 E10.17879
G1 X64.282 Y142.918 E10.20579
G1 X63.859 Y142.599 E10.23223
G1 X63.253 Y142.092 E10.27165
G1 X62.551 Y141.378 E10.3216
G1 X62.035 Y140.78 E10.36101
G1 X61.724 Y140.35 E10.38748
G1 X61.426 Y139.908 E10.41408
G1 X61.018 Y139.232 E10.45347
G1 X60.789 Y138.769 E10.47924
G1 X60.57 Y138.286 E10.5057
G1 X60.281 Y137.551 E10.5451
G1 X60.134 Y137.061 E10.57062
G1 X59.999 Y136.551 E10.59694
G1 X59.836 Y135.778 E10.63636
G1 X59.771 Y135.261 E10.66235
G1 X59.723 Y134.733 E10.6888
G1 X59.691 Y133.944 E10.7282
G1 X59.749 Y132.939 E10.77842
G1 X59.845 Y132.155 E10.81783
G1 X59.96 Y131.61 E10.84562
G1 X60.087 Y131.1 E10.87184
G1 X60.317 Y130.345 E10.91121
G1 X60.71 Y129.397 E10.96241
G1 X61.06 Y128.689 E11.00182
G1 X61.334 Y128.236 E11.02823
G1 X61.623 Y127.793 E11.05462
G1 X62.088 Y127.155 E11.094
G1 X62.419 Y126.77 E11.11933
G1 X62.781 Y126.377 E11.14599
G1 X63.345 Y125.824 E11.1854
G1 X63.734 Y125.501 E11.21062
G1 X64.15 Y125.178 E11.2369
G1 X64.798 Y124.726 E11.27632
G1 X65.271 Y124.453 E11.30356
G1 X65.741 Y124.203 E11.33012
G1 X66.13 Y124.021 E11.35155
G1 X66.242 Y123.154 E11.39516
G1 X66.358 Y122.629 E11.42199
G1 X66.579 Y121.774 E11.46605
G1 X66.815 Y121.02 E11.50546
G1 X67.039 Y120.479 E11.53467
G1 X67.409 Y119.671 E11.57901
G1 X67.774 Y118.97 E11.61844
G1 X68.073 Y118.5 E11.64623
G1 X68.572 Y117.774 E11.69018
G1 X69.052 Y117.147 E11.72958
G1 X69.445 Y116.716 E11.75868
G1 X70.066 Y116.086 E11.80281
G1 X70.648 Y115.553 E11.84218
G1 X71.093 Y115.211 E11.87018
G1 X71.814 Y114.697 E11.91436
G1 X72.144 Y114.486 E11.9339
G1 X71.532 Y113.696 E11.98376
G1 X71.128 Y113.018 E12.02313
G1 X70.795 Y112.302 E12.06253
G1 X70.362 Y111.054 E12.12843
G1 X70.15 Y110.293 E12.16785
G1 X70.015 Y109.515 E12.20724
G1 X69.959 Y108.579 E12.25402
G1 X69.959 Y91.421 E13.11004
G1 X69.999 Y90.632 E13.14945
G1 X70.118 Y89.852 E13.18882
G1 X70.359 Y88.954 E13.2352
G1 X70.624 Y88.159 E13.27701
G1 X70.912 Y87.424 E13.31639
G1 X71.272 Y86.721 E13.3558
G1 X71.701 Y86.058 E13.3952
G1 X72.195 Y85.443 E13.43455
G1 X72.558 Y85.061 E13.46084
G1 X73.261 Y84.427 E13.50807
G0 F3600 X73.527 Y84.727
G1 F1800 X74.153 Y84.28 E13.54645
G1 X74.821 Y83.9 E13.58479
G1 X75.85 Y83.478 E13.64028
G1 X76.632 Y83.224 E13.6813
G1 X77.375 Y83.025 E13.71967
G1 X78.134 Y82.904 E13.75802
G1 X78.918 Y82.862 E13.79719
G1 X121.082 Y82.862 E15.90076
G1 X121.85 Y82.902 E15.93912
G1 X122.61 Y83.021 E15.9775
G1 X123.363 Y83.222 E16.01638
G1 X124.144 Y83.475 E16.05734
G1 X124.862 Y83.75 E16.0957
G1 X125.548 Y84.098 E16.13408
G1 X126.194 Y84.515 E16.17244
G1 X127.072 Y85.259 E16.22985
G1 X127.702 Y85.939 E16.2761
G1 X128.157 Y86.559 E16.31447
G1 X128.546 Y87.222 E16.35282
G1 X128.986 Y88.259 E16.40902
G1 X129.174 Y88.816 E16.43835
G1 X129.474 Y89.859 E16.49249
G1 X129.597 Y90.618 E16.53085
G1 X129.641 Y91.421 E16.57098
G1 X129.641 Y108.579 E17.42699
G1 X129.601 Y109.347 E17.46536
G1 X129.482 Y110.107 E17.50374
G1 X129.261 Y110.919 E17.54572
G1 X128.996 Y111.714 E17.58753
G1 X128.715 Y112.43 E17.62591
G1 X128.362 Y113.113 E17.66426
G1 X127.939 Y113.756 E17.70266
G1 X127.452 Y114.351 E17.74102
G1 X127.238 Y114.574 E17.75644
G1 X127.782 Y114.91 E17.78834
G1 X128.508 Y115.41 E17.83232
G1 X129.118 Y115.878 E17.87068
G1 X129.497 Y116.226 E17.89635
G1 X130.128 Y116.846 E17.94048
G1 X130.648 Y117.412 E17.97883
G1 X130.972 Y117.834 E18.00537
G1 X131.485 Y118.555 E18.04952
G1 X131.897 Y119.204 E18.08787
G1 X132.133 Y119.656 E18.11331
G1 X132.516 Y120.458 E18.15765
G1 X132.811 Y121.168 E18.19601
G1 X132.97 Y121.673 E18.22242
G1 X133.205 Y122.522 E18.26637
G1 X133.371 Y123.273 E18.30474
G1 X133.44 Y123.794 E18.33096
G1 X133.486 Y124.278 E18.35522
G1 X134.409 Y124.731 E18.40651
G1 X135.074 Y125.118 E18.4449
G1 X135.901 Y125.721 E18.49596
G1 X136.49 Y126.215 E18.53431
G1 X137.16 Y126.898 E18.58205
G1 X137.661 Y127.481 E18.6204
G1 X138.243 Y128.315 E18.67114
G1 X138.639 Y128.974 E18.70949
G1 X139.063 Y129.872 E18.75904
G1 X139.344 Y130.588 E18.79741
G1 X139.614 Y131.549 E18.84721
G1 X139.772 Y132.301 E18.88555
G1 X139.879 Y133.303 E18.93582
G1 X139.908 Y134.072 E18.97422
G1 X139.852 Y135.032 E19.02219
G1 X139.758 Y135.796 E19.06059
G1 X139.652 Y136.293 E19.08595
G1 X139.525 Y136.803 E19.11217
G1 X139.3 Y137.539 E19.15057
G1 X138.923 Y138.444 E19.19948
G1 X138.581 Y139.133 E19.23785
G1 X138.042 Y139.988 E19.28828
G1 X137.589 Y140.61 E19.32667
G1 X136.925 Y141.352 E19.37634
G1 X136.375 Y141.889 E19.41469
G1 X135.604 Y142.506 E19.46396
G1 X134.973 Y142.945 E19.50231
G1 X134.071 Y143.444 E19.55374
G1 X133.491 Y143.715 E19.58568
G1 X133.361 Y144.793 E19.63985
G1 X133.034 Y146.126 E19.70832
G1 X132.803 Y146.86 E19.74671
G1 X132.597 Y147.355 E19.77346
G1 X132.227 Y148.163 E19.8178
G1 X131.871 Y148.845 E19.85618
G1 X131.597 Y149.274 E19.88158
G1 X131.098 Y150 E19.92553
G1 X130.63 Y150.61 E19.96389
G1 X130.27 Y151.003 E19.99048
G1 X129.649 Y151.633 E20.03461
G1 X129.081 Y152.152 E20.07299
G1 X128.675 Y152.464 E20.09854
G1 X127.954 Y152.978 E20.14272
G1 X127.305 Y153.391 E20.18109
G1 X126.837 Y153.634 E20.2074
G1 X126.034 Y154.016 E20.25177
G1 X125.323 Y154.31 E20.29015
G1 X124.839 Y154.463 E20.31548
G1 X123.991 Y154.699 E20.35939
G1 X123.24 Y154.867 E20.39778
G1 X122.708 Y154.937 E20.42456
G1 X121.825 Y155.021 E20.46881
G1 X121.125 Y155.054 E20.50377
G1 X78.92 Y155.059 E22.60939
G1 X78.345 Y155.037 E22.63809
G1 X77.587 Y154.978 E22.67602
G1 X76.492 Y154.809 E22.7313
G1 X75.719 Y154.63 E22.77089
G1 X74.979 Y154.418 E22.80929
G1 X73.854 Y153.972 E22.86967
G1 X72.841 Y153.465 E22.92618
G1 X72.159 Y153.056 E22.96586
G1 X71.521 Y152.627 E23.00421
G1 X70.581 Y151.849 E23.06509
G1 X69.772 Y151.051 E23.12178
G1 X69.251 Y150.452 E23.16139
G1 X68.777 Y149.847 E23.19973
G1 X68.124 Y148.818 E23.26053
G1 X67.6 Y147.806 E23.31739
G1 X67.289 Y147.073 E23.35711
G1 X67.026 Y146.351 E23.39545
G1 X66.726 Y145.186 E23.45547
G1 X66.539 Y144.054 E23.51271
G1 X66.51 Y143.72 E23.52944
G1 X65.591 Y143.269 E23.58051
G1 X64.926 Y142.882 E23.61889
G1 X64.099 Y142.279 E23.66996
G1 X63.51 Y141.785 E23.70831
G1 X62.84 Y141.102 E23.75604
G1 X62.339 Y140.519 E23.79439
G1 X61.757 Y139.685 E23.84513
G1 X61.361 Y139.026 E23.88349
G1 X60.934 Y138.121 E23.93341
G1 X60.654 Y137.405 E23.97177
G1 X60.385 Y136.449 E24.02131
G1 X60.227 Y135.696 E24.0597
G1 X60.121 Y134.697 E24.10982
G1 X60.092 Y133.928 E24.14821
G1 X60.148 Y132.968 E24.19619
G1 X60.242 Y132.204 E24.23459
G1 X60.348 Y131.707 E24.25995
G1 X60.475 Y131.197 E24.28617
G1 X60.7 Y130.461 E24.32456
G1 X61.077 Y129.556 E24.37347
G1 X61.419 Y128.867 E24.41185
G1 X61.958 Y128.012 E24.46228
G1 X62.411 Y127.39 E24.50066
G1 X63.075 Y126.648 E24.55034
G1 X63.625 Y126.111 E24.58869
G1 X64.396 Y125.494 E24.63796
G1 X65.027 Y125.055 E24.67631
G1 X65.929 Y124.556 E24.72774
G1 X66.509 Y124.285 E24.75967
G1 X66.639 Y123.207 E24.81385
G1 X66.966 Y121.874 E24.88232
G1 X67.197 Y121.14 E24.92071
G1 X67.403 Y120.645 E24.94746
G1 X67.773 Y119.837 E24.9918
G1 X68.129 Y119.155 E25.03018
G1 X68.403 Y118.726 E25.05557
G1 X68.902 Y118 E25.09953
G1 X69.37 Y117.39 E25.13788
G1 X69.73 Y116.997 E25.16447
G1 X70.351 Y116.367 E25.20861
G1 X70.919 Y115.848 E25.24699
G1 X71.325 Y115.536 E25.27254
G1 X72.046 Y115.022 E25.31671
G1 X72.695 Y114.609 E25.35509
G1 X72.764 Y114.573 E25.35898
G1 X72.298 Y114.061 E25.39351
G1 X71.843 Y113.441 E25.43188
G1 X71.454 Y112.778 E25.47023
G1 X71.007 Y111.722 E25.52744
G1 X70.741 Y110.927 E25.56927
G1 X70.536 Y110.186 E25.60762
G1 X70.408 Y109.427 E25.64603
G1 X70.359 Y108.579 E25.6884
G1 X70.359 Y91.421 E26.54442
G1 X70.399 Y90.653 E26.58279
G1 X70.518 Y89.893 E26.62116
G1 X70.739 Y89.081 E26.66315
G1 X71.004 Y88.286 E26.70496
G1 X71.285 Y87.57 E26.74333
G1 X71.638 Y86.887 E26.78169
G1 X72.061 Y86.244 E26.82009
G1 X72.548 Y85.649 E26.85845
G1 X72.951 Y85.236 E26.88724
G1 X73.527 Y84.727 E26.92558
G0 F3600 X73.792 Y85.027
G1 F1800 X74.403 Y84.595 E26.96292
G1 X75.056 Y84.23 E27.00024
G1 X75.974 Y83.858 E27.04966
G1 X76.756 Y83.604 E27.09068
G1 X77.478 Y83.412 E27.12795
G1 X78.218 Y83.297 E27.16531
G1 X78.918 Y83.262 E27.20028
G1 X121.082 Y83.262 E29.30385
G1 X121.829 Y83.302 E29.34117
G1 X122.567 Y83.421 E29.37846
G1 X123.239 Y83.603 E29.4132
G1 X124.02 Y83.856 E29.45416
G1 X124.719 Y84.124 E29.49151
G1 X125.384 Y84.465 E29.52879
G1 X126.01 Y84.875 E29.56612
G1 X126.791 Y85.543 E29.6174
G1 X127.405 Y86.208 E29.66255
G1 X127.845 Y86.813 E29.69987
G1 X128.219 Y87.461 E29.7372
G1 X128.607 Y88.387 E29.78729
G1 X128.795 Y88.944 E29.81662
G1 X129.088 Y89.963 E29.86952
G1 X129.204 Y90.702 E29.90684
G1 X129.241 Y91.421 E29.94276
G1 X129.241 Y108.579 E30.79877
G1 X129.201 Y109.326 E30.83609
G1 X129.082 Y110.064 E30.87339
G1 X128.882 Y110.793 E30.9111
G1 X128.617 Y111.588 E30.95291
G1 X128.343 Y112.284 E30.99023
G1 X127.996 Y112.946 E31.02752
G1 X127.58 Y113.568 E31.06485
G1 X126.881 Y114.368 E31.11785
G1 X126.553 Y114.668 E31.14003
G1 X127.152 Y114.981 E31.17375
G1 X128.281 Y115.739 E31.24159
G1 X128.874 Y116.196 E31.27894
G1 X129.848 Y117.131 E31.3463
G1 X130.353 Y117.683 E31.38362
G1 X131.159 Y118.787 E31.45182
G1 X131.559 Y119.419 E31.48914
G1 X132.155 Y120.63 E31.55647
G1 X132.441 Y121.322 E31.59383
G1 X132.819 Y122.629 E31.66171
G1 X132.98 Y123.359 E31.699
G1 X133.112 Y124.575 E31.76003
G1 X133.752 Y124.842 E31.79462
G1 X134.226 Y125.086 E31.82122
G1 X134.872 Y125.464 E31.85856
G1 X135.66 Y126.04 E31.90726
G1 X136.232 Y126.522 E31.94458
G1 X136.87 Y127.174 E31.99009
G1 X137.357 Y127.742 E32.02741
G1 X137.911 Y128.539 E32.07584
G1 X138.296 Y129.181 E32.11319
G1 X138.698 Y130.037 E32.16037
G1 X138.971 Y130.734 E32.19771
G1 X139.227 Y131.651 E32.24521
G1 X139.38 Y132.384 E32.28257
G1 X139.48 Y133.339 E32.33048
G1 X139.508 Y134.087 E32.36782
G1 X139.453 Y135.004 E32.41365
G1 X139.36 Y135.746 E32.45096
G1 X139.137 Y136.706 E32.50013
G1 X138.917 Y137.422 E32.5375
G1 X138.556 Y138.285 E32.58417
G1 X138.222 Y138.954 E32.62147
G1 X137.707 Y139.77 E32.66961
G1 X137.265 Y140.373 E32.70691
G1 X136.631 Y141.081 E32.75433
G1 X136.095 Y141.603 E32.79166
G1 X135.359 Y142.19 E32.83862
G1 X134.744 Y142.617 E32.87598
G1 X133.883 Y143.091 E32.92501
G1 X133.205 Y143.407 E32.96233
G1 X133.112 Y143.441 E32.96727
G1 X133.066 Y143.998 E32.99515
G1 X132.964 Y144.739 E33.03247
G1 X132.646 Y146.026 E33.09861
G1 X132.421 Y146.739 E33.13591
G1 X131.863 Y147.996 E33.20452
G1 X131.516 Y148.659 E33.24186
G1 X130.769 Y149.773 E33.30877
G1 X130.313 Y150.366 E33.3461
G1 X129.364 Y151.352 E33.41437
G1 X128.811 Y151.856 E33.4517
G1 X127.721 Y152.652 E33.51904
G1 X127.09 Y153.053 E33.55634
G1 X125.862 Y153.655 E33.62457
G1 X125.17 Y153.94 E33.6619
G1 X123.884 Y154.314 E33.72872
G1 X123.153 Y154.475 E33.76606
G1 X121.787 Y154.623 E33.83461
G1 X121.125 Y154.654 E33.86768
G1 X78.92 Y154.659 E35.97329
G1 X78.376 Y154.638 E36.00045
G1 X77.618 Y154.579 E36.03838
G1 X76.582 Y154.42 E36.09068
G1 X75.809 Y154.241 E36.13026
G1 X74.746 Y153.903 E36.18591
G1 X74.005 Y153.601 E36.22583
G1 X73.047 Y153.122 E36.27927
G1 X72.365 Y152.713 E36.31894
G1 X71.745 Y152.295 E36.35625
G1 X70.839 Y151.544 E36.41496
G1 X70.073 Y150.789 E36.46862
G1 X69.552 Y150.19 E36.50822
G1 X69.092 Y149.6 E36.54555
G1 X68.464 Y148.607 E36.60417
G1 X67.968 Y147.65 E36.65794
G1 X67.657 Y146.917 E36.69767
G1 X67.305 Y145.86 E36.75325
G1 X67.115 Y145.09 E36.79282
