;FLAVOR:Marlin
;TIME:6744
;Filament used: 3.73725m
;Layer height: 0.1
;MINX:66.7
;MINY:50.2
;MINZ:0.3
;MAXX:133.3
;MAXY:149.8
;MAXZ:16.5
;Generated with Cura_SteamEngine 4.5.0
M140 S60
M105
M190 S60
M104 S200
M105
M109 S200
M82 ;absolute extrusion mode
G21 ;metric values
 G90 ;absolute positioning
 M82 ;set extruder to absolute mode
 M107 ;start with the fan off
 G28 X0 Y0 ;move X/Y to min endstops
 G28 Z0 ;move Z to min endstops
 G1 Z15.0 F120 ;move the platform down 15mm
 G92 E0 ;zero the extruded length
 G1 F200 E6 ;extrude 6 mm of feed stock
 G92 E0 ;zero the extruded length again
 G1 F120 
 ;Put printing message on LCD screen
 M117 Printing...
G92 E0
G92 E0
G1 F1500 E-6.5
;LAYER_COUNT:163
;LAYER:0
M107
G0 F3600 X68.58 Y62.422 Z0.3
;TYPE:SKIRT
G1 F1500 E0
G1 F1800 X68.985 Y61.985 E0.02973
G1 X70.469 Y60.501 E0.13443
G1 X71.055 Y59.971 E0.17385
G1 X71.691 Y59.504 E0.21321
G1 X72.371 Y59.103 E0.2526
G1 X73.089 Y58.773 E0.29202
G1 X73.836 Y58.518 E0.3314
G1 X74.605 Y58.339 E0.37079
G1 X75.389 Y58.239 E0.41022
G1 X75.976 Y58.216 E0.43953
G1 X84.241 Y58.207 E0.85188
G1 X84.359 Y57.431 E0.89103
G1 X84.557 Y56.666 E0.93046
G1 X84.831 Y55.926 E0.96983
G1 X85.179 Y55.217 E1.00923
G1 X85.597 Y54.546 E1.04867
G1 X86.08 Y53.922 E1.08804
G1 X86.485 Y53.485 E1.11776
G1 X87.468 Y52.502 E1.18712
G1 X88.054 Y51.972 E1.22654
G1 X88.69 Y51.505 E1.2659
G1 X89.37 Y51.104 E1.30529
G1 X90.088 Y50.774 E1.34471
G1 X90.835 Y50.519 E1.38409
G1 X91.604 Y50.34 E1.42348
G1 X92.388 Y50.24 E1.46291
G1 X92.973 Y50.217 E1.49212
G1 X106.63 Y50.2 E2.17347
G1 X108.134 Y50.296 E2.24866
G1 X108.909 Y50.449 E2.28807
G1 X109.664 Y50.679 E2.32745
G1 X110.393 Y50.984 E2.36687
G1 X111.086 Y51.362 E2.40626
G1 X111.738 Y51.807 E2.44564
G1 X112.535 Y52.503 E2.49843
G1 X113.518 Y53.487 E2.56782
G1 X114.047 Y54.074 E2.60724
G1 X114.514 Y54.71 E2.64661
G1 X114.915 Y55.391 E2.68604
G1 X115.244 Y56.109 E2.72544
G1 X115.5 Y56.856 E2.76483
G1 X115.678 Y57.625 E2.80421
G1 X115.75 Y58.191 E2.83268
G1 X123.812 Y58.2 E3.2349
G1 X124.354 Y58.219 E3.26195
G1 X125.349 Y58.33 E3.3119
G1 X126.12 Y58.504 E3.35133
G1 X126.868 Y58.756 E3.39071
G1 X127.588 Y59.081 E3.43012
G1 X128.27 Y59.478 E3.46949
G1 X128.91 Y59.942 E3.50893
G1 X129.53 Y60.5 E3.55055
G1 X131.015 Y61.985 E3.65532
G1 X131.545 Y62.571 E3.69474
G1 X132.012 Y63.207 E3.73411
G1 X132.413 Y63.887 E3.77349
G1 X132.743 Y64.605 E3.81291
G1 X132.998 Y65.352 E3.85229
G1 X133.177 Y66.121 E3.89169
G1 X133.277 Y66.905 E3.93112
G1 X133.3 Y67.5 E3.96082
G1 X133.3 Y90.5 E5.1083
G1 X133.26 Y91.289 E5.14771
G1 X133.141 Y92.069 E5.18708
G1 X132.943 Y92.834 E5.2265
G1 X132.669 Y93.574 E5.26587
G1 X132.321 Y94.283 E5.30527
G1 X131.903 Y94.954 E5.34471
G1 X131.42 Y95.578 E5.38408
G1 X131.015 Y96.015 E5.41381
G1 X129.531 Y97.499 E5.51851
G1 X128.945 Y98.029 E5.55793
G1 X128.309 Y98.496 E5.59729
G1 X127.629 Y98.897 E5.63668
G1 X126.911 Y99.227 E5.6761
G1 X126.164 Y99.482 E5.71548
G1 X125.395 Y99.661 E5.75487
G1 X124.611 Y99.761 E5.7943
G1 X123.308 Y99.799 E5.85934
G1 X76.01 Y99.8 E8.21905
G1 X75.221 Y99.76 E8.25846
G1 X74.441 Y99.641 E8.29782
G1 X73.676 Y99.443 E8.33725
G1 X72.936 Y99.169 E8.37662
G1 X72.227 Y98.821 E8.41602
G1 X71.556 Y98.403 E8.45546
G1 X70.932 Y97.92 E8.49483
G1 X70.513 Y97.534 E8.52325
G1 X69.003 Y96.034 E8.62944
G1 X68.472 Y95.45 E8.66882
G1 X68.002 Y94.815 E8.70823
G1 X67.599 Y94.136 E8.74762
G1 X67.267 Y93.419 E8.78704
G1 X67.009 Y92.673 E8.82642
G1 X66.827 Y91.904 E8.86585
G1 X66.725 Y91.121 E8.90524
G1 X66.7 Y90.5 E8.93625
G1 X66.7 Y67.5 E10.08372
G1 X66.74 Y66.711 E10.12314
G1 X66.859 Y65.931 E10.1625
G1 X67.057 Y65.166 E10.20193
G1 X67.331 Y64.426 E10.2413
G1 X67.679 Y63.717 E10.2807
G1 X68.097 Y63.046 E10.32014
G1 X68.58 Y62.422 E10.35951
G0 F3600 X68.975 Y62.577
G1 F1800 X70.751 Y60.783 E10.48545
G1 X71.323 Y60.269 E10.52382
G1 X71.945 Y59.816 E10.56221
G1 X72.61 Y59.43 E10.60057
G1 X73.312 Y59.115 E10.63895
G1 X74.043 Y58.875 E10.67734
G1 X74.794 Y58.712 E10.71568
G1 X75.559 Y58.628 E10.75407
G1 X84.62 Y58.607 E11.20613
G1 X84.64 Y58.232 E11.22487
G1 X84.759 Y57.472 E11.26324
G1 X84.957 Y56.729 E11.30161
G1 X85.231 Y56.01 E11.33999
G1 X85.578 Y55.324 E11.37835
G1 X85.994 Y54.677 E11.41672
G1 X86.475 Y54.077 E11.45509
G1 X87.75 Y52.784 E11.54568
G1 X88.322 Y52.27 E11.58405
G1 X88.944 Y51.817 E11.62244
G1 X89.609 Y51.431 E11.6608
G1 X90.311 Y51.116 E11.69919
G1 X91.042 Y50.876 E11.73757
G1 X91.793 Y50.713 E11.77591
G1 X92.558 Y50.629 E11.81431
G1 X106.631 Y50.6 E12.51641
G1 X108.097 Y50.695 E12.58971
G1 X108.851 Y50.847 E12.62808
G1 X109.585 Y51.076 E12.66644
G1 X110.291 Y51.38 E12.70479
G1 X110.962 Y51.756 E12.74316
G1 X111.591 Y52.199 E12.78155
G1 X112.252 Y52.786 E12.82565
G1 X113.235 Y53.77 E12.89504
G1 X113.75 Y54.342 E12.93344
G1 X114.202 Y54.964 E12.9718
G1 X114.588 Y55.629 E13.01016
G1 X114.902 Y56.331 E13.04853
G1 X115.142 Y57.062 E13.08691
G1 X115.304 Y57.814 E13.12529
G1 X115.388 Y58.579 E13.16369
G1 X123.811 Y58.6 E13.58391
G1 X124.325 Y58.618 E13.60957
G1 X125.301 Y58.728 E13.65857
G1 X126.05 Y58.9 E13.69692
G1 X126.778 Y59.15 E13.73532
G1 X127.475 Y59.474 E13.77366
G1 X128.136 Y59.868 E13.81206
G1 X128.751 Y60.329 E13.8504
G1 X129.248 Y60.782 E13.88395
G1 X130.733 Y62.267 E13.98873
G1 X131.247 Y62.839 E14.02709
G1 X131.7 Y63.461 E14.06548
G1 X132.086 Y64.126 E14.10384
G1 X132.401 Y64.828 E14.14223
G1 X132.641 Y65.559 E14.18061
G1 X132.804 Y66.31 E14.21895
G1 X132.888 Y67.075 E14.25735
G1 X132.9 Y90.5 E15.42603
G1 X132.86 Y91.268 E15.4644
G1 X132.741 Y92.028 E15.50277
G1 X132.543 Y92.771 E15.54114
G1 X132.269 Y93.49 E15.57952
G1 X131.922 Y94.176 E15.61788
G1 X131.506 Y94.823 E15.65625
G1 X131.025 Y95.423 E15.69462
G1 X129.249 Y97.217 E15.82056
G1 X128.677 Y97.731 E15.85893
G1 X128.055 Y98.184 E15.89732
G1 X127.39 Y98.57 E15.93568
G1 X126.688 Y98.885 E15.97407
G1 X125.957 Y99.125 E16.01245
G1 X125.206 Y99.288 E16.05079
G1 X124.155 Y99.383 E16.10344
G1 X123.301 Y99.399 E16.14605
G1 X76.01 Y99.4 E18.50541
G1 X75.242 Y99.36 E18.54378
G1 X74.482 Y99.241 E18.58216
G1 X73.739 Y99.043 E18.62052
G1 X73.02 Y98.769 E18.65891
G1 X72.334 Y98.422 E18.69726
G1 X71.687 Y98.006 E18.73563
G1 X71.087 Y97.525 E18.774
G1 X69.285 Y95.75 E18.90019
G1 X68.768 Y95.18 E18.93858
G1 X68.313 Y94.56 E18.97695
G1 X67.925 Y93.896 E19.01532
G1 X67.608 Y93.195 E19.0537
G1 X67.366 Y92.465 E19.09207
G1 X67.2 Y91.714 E19.13044
G1 X67.114 Y90.95 E19.1688
G1 X67.1 Y67.5 E20.33873
G1 X67.14 Y66.732 E20.37709
G1 X67.259 Y65.972 E20.41547
G1 X67.457 Y65.229 E20.45383
G1 X67.731 Y64.51 E20.49222
G1 X68.078 Y63.824 E20.53058
G1 X68.494 Y63.177 E20.56895
G1 X68.975 Y62.577 E20.60732
G0 F3600 X68.892 Y63.311
G1 F1800 X69.55 Y62.55 E20.65751
G1 X71.034 Y61.066 E20.76221
G1 X71.591 Y60.566 E20.79955
G1 X72.197 Y60.129 E20.83683
G1 X72.847 Y59.758 E20.87417
G1 X73.533 Y59.459 E20.9115
G1 X74.247 Y59.235 E20.94884
G1 X74.98 Y59.088 E20.98613
G1 X75.977 Y59.016 E21.036
G1 X85 Y59.006 E21.48616
G1 X85.04 Y58.253 E21.52378
G1 X85.159 Y57.515 E21.56108
G1 X85.357 Y56.793 E21.59843
G1 X85.63 Y56.097 E21.63573
G1 X85.977 Y55.434 E21.67306
G1 X86.392 Y54.811 E21.71041
G1 X87.05 Y54.05 E21.7606
G1 X88.033 Y53.067 E21.82995
G1 X88.59 Y52.567 E21.8673
G1 X89.196 Y52.13 E21.90457
G1 X89.846 Y51.759 E21.94191
G1 X90.532 Y51.46 E21.97925
G1 X91.246 Y51.236 E22.01658
G1 X91.979 Y51.089 E22.05388
G1 X92.974 Y51.017 E22.10365
G1 X106.631 Y51 E22.785
G1 X108.058 Y51.094 E22.85635
G1 X108.791 Y51.245 E22.89368
G1 X109.504 Y51.473 E22.93103
G1 X110.188 Y51.775 E22.96833
G1 X110.836 Y52.149 E23.00566
G1 X111.44 Y52.59 E23.04297
G1 X111.969 Y53.069 E23.07857
G1 X112.952 Y54.053 E23.14797
G1 X113.452 Y54.609 E23.18527
G1 X113.889 Y55.216 E23.22259
G1 X114.259 Y55.866 E23.2599
G1 X114.558 Y56.552 E23.29723
G1 X114.782 Y57.266 E23.33457
G1 X114.928 Y58 E23.37191
G1 X114.999 Y58.99 E23.42142
G1 X123.811 Y59 E23.86106
G1 X124.509 Y59.032 E23.89592
G1 X125.251 Y59.125 E23.93322
G1 X125.98 Y59.296 E23.97058
G1 X126.685 Y59.544 E24.00787
G1 X127.361 Y59.866 E24.04522
G1 X127.998 Y60.258 E24.08254
G1 X128.589 Y60.716 E24.11984
G1 X128.965 Y61.065 E24.14544
G1 X130.45 Y62.55 E24.25021
G1 X130.95 Y63.107 E24.28755
G1 X131.387 Y63.713 E24.32483
G1 X131.758 Y64.363 E24.36217
G1 X132.057 Y65.049 E24.3995
G1 X132.281 Y65.763 E24.43683
G1 X132.428 Y66.496 E24.47413
G1 X132.5 Y67.5 E24.52435
G1 X132.5 Y90.5 E25.67182
G1 X132.46 Y91.247 E25.70915
G1 X132.341 Y91.985 E25.74644
G1 X132.143 Y92.707 E25.78379
G1 X131.87 Y93.403 E25.82109
G1 X131.523 Y94.066 E25.85842
G1 X131.108 Y94.689 E25.89577
G1 X130.45 Y95.45 E25.94596
G1 X128.966 Y96.934 E26.05067
G1 X128.409 Y97.434 E26.08801
G1 X127.803 Y97.871 E26.12528
G1 X127.153 Y98.242 E26.16262
G1 X126.467 Y98.541 E26.19996
G1 X125.753 Y98.765 E26.23729
G1 X125.02 Y98.912 E26.27459
G1 X124.147 Y98.983 E26.31829
G1 X123.293 Y98.999 E26.3609
G1 X76.01 Y99 E28.71986
G1 X75.263 Y98.96 E28.75718
G1 X74.525 Y98.841 E28.79447
G1 X73.803 Y98.643 E28.83182
G1 X73.107 Y98.37 E28.86912
G1 X72.444 Y98.023 E28.90646
G1 X71.821 Y97.608 E28.9438
G1 X71.077 Y96.966 E28.99283
G1 X69.567 Y95.466 E29.09902
G1 X69.065 Y94.911 E29.13635
G1 X68.625 Y94.306 E29.17367
G1 X68.253 Y93.658 E29.21095
G1 X67.951 Y92.973 E29.2483
G1 X67.725 Y92.26 E29.28562
G1 X67.576 Y91.527 E29.32293
G1 X67.5 Y90.5 E29.37431
G1 X67.5 Y67.5 E30.52179
G1 X67.54 Y66.753 E30.55911
G1 X67.659 Y66.015 E30.5964
G1 X67.857 Y65.293 E30.63375
G1 X68.13 Y64.597 E30.67105
G1 X68.477 Y63.934 E30.70838
G1 X68.892 Y63.311 E30.74573
G0 F3600 X69.289 Y63.45
G1 F1800 X69.833 Y62.833 E30.78677
G1 X71.317 Y61.349 E30.89147
G1 X71.858 Y60.865 E30.92769
G1 X72.449 Y60.442 E30.96395
G1 X73.083 Y60.088 E31.00018
G1 X73.752 Y59.805 E31.03642
G1 X74.448 Y59.597 E31.07266
G1 X75.163 Y59.467 E31.10891
G1 X75.977 Y59.416 E31.1496
G1 X85.4 Y59.406 E31.61972
G1 X85.44 Y58.275 E31.67618
G1 X85.559 Y57.558 E31.71244
G1 X85.757 Y56.859 E31.74869
G1 X86.03 Y56.186 E31.78492
G1 X86.375 Y55.547 E31.82115
G1 X86.789 Y54.95 E31.85739
G1 X87.333 Y54.333 E31.89843
G1 X88.316 Y53.35 E31.96779
G1 X88.857 Y52.866 E32.004
G1 X89.448 Y52.443 E32.04026
G1 X90.082 Y52.089 E32.07649
G1 X90.751 Y51.806 E32.11273
G1 X91.447 Y51.598 E32.14897
G1 X92.162 Y51.468 E32.18523
G1 X92.975 Y51.417 E32.22587
G1 X106.632 Y51.4 E32.90722
G1 X108.02 Y51.493 E32.97662
G1 X108.731 Y51.642 E33.01286
G1 X109.421 Y51.869 E33.0491
G1 X110.081 Y52.171 E33.08531
G1 X110.705 Y52.543 E33.12156
G1 X111.284 Y52.981 E33.15778
G1 X111.686 Y53.351 E33.18504
G1 X112.669 Y54.335 E33.25443
G1 X113.154 Y54.877 E33.29071
G1 X113.575 Y55.468 E33.32691
G1 X113.93 Y56.102 E33.36317
G1 X114.212 Y56.771 E33.39939
G1 X114.42 Y57.467 E33.43563
G1 X114.549 Y58.182 E33.47188
G1 X114.6 Y59 E33.51276
G1 X114.6 Y59.389 E33.53217
G1 X123.811 Y59.4 E33.99171
G1 X124.481 Y59.431 E34.02517
G1 X125.201 Y59.523 E34.06139
G1 X125.908 Y59.692 E34.09765
G1 X126.591 Y59.938 E34.13387
G1 X127.243 Y60.258 E34.1701
G1 X127.856 Y60.648 E34.20635
G1 X128.682 Y61.348 E34.26037
G1 X130.167 Y62.833 E34.36514
G1 X130.651 Y63.374 E34.40136
G1 X131.074 Y63.965 E34.43762
G1 X131.428 Y64.599 E34.47385
G1 X131.711 Y65.268 E34.51009
G1 X131.919 Y65.964 E34.54633
G1 X132.049 Y66.679 E34.58258
G1 X132.1 Y67.5 E34.62362
G1 X132.1 Y90.5 E35.7711
G1 X132.06 Y91.225 E35.80732
G1 X131.941 Y91.942 E35.84358
G1 X131.743 Y92.641 E35.87983
G1 X131.47 Y93.314 E35.91606
G1 X131.125 Y93.953 E35.95229
G1 X130.711 Y94.55 E35.98854
G1 X130.167 Y95.167 E36.02957
G1 X128.683 Y96.651 E36.13428
G1 X128.142 Y97.135 E36.17049
G1 X127.551 Y97.558 E36.20675
G1 X126.917 Y97.912 E36.24298
G1 X126.248 Y98.195 E36.27922
G1 X125.552 Y98.403 E36.31546
G1 X124.837 Y98.533 E36.35172
G1 X124.14 Y98.583 E36.38658
G1 X123.286 Y98.599 E36.42919
G1 X76.01 Y98.6 E38.7878
G1 X75.285 Y98.56 E38.82403
G1 X74.568 Y98.441 E38.86029
G1 X73.869 Y98.243 E38.89654
G1 X73.196 Y97.97 E38.93277
G1 X72.557 Y97.625 E38.969
G1 X71.96 Y97.211 E39.00524
G1 X71.359 Y96.682 E39.04519
G1 X69.849 Y95.182 E39.15137
G1 X69.362 Y94.643 E39.18762
G1 X68.938 Y94.053 E39.22386
G1 X68.581 Y93.421 E39.26008
G1 X68.296 Y92.752 E39.29636
G1 X68.086 Y92.057 E39.33258
G1 X67.954 Y91.343 E39.3688
G1 X67.9 Y90.5 E39.41095
G1 X67.9 Y67.5 E40.55842
G1 X67.94 Y66.775 E40.59465
G1 X68.059 Y66.058 E40.63091
G1 X68.257 Y65.359 E40.66715
G1 X68.53 Y64.686 E40.70339
G1 X68.875 Y64.047 E40.73962
G1 X69.289 Y63.45 E40.77586
G0 F3600 X69.685 Y63.594
G1 F1800 X70.116 Y63.116 E40.80797
G1 X71.6 Y61.632 E40.91268
G1 X72.125 Y61.163 E40.9478
G1 X72.7 Y60.757 E40.98291
G1 X73.318 Y60.419 E41.01806
G1 X73.969 Y60.152 E41.05316
G1 X74.647 Y59.962 E41.08829
G1 X75.342 Y59.849 E41.12342
G1 X75.977 Y59.816 E41.15514
G1 X85.8 Y59.806 E41.64521
G1 X85.8 Y59 E41.68542
G1 X85.84 Y58.297 E41.72055
G1 X85.959 Y57.603 E41.75568
G1 X86.157 Y56.928 E41.79078
G1 X86.429 Y56.279 E41.82589
G1 X86.774 Y55.665 E41.86102
G1 X87.185 Y55.094 E41.89612
G1 X87.616 Y54.616 E41.92823
G1 X88.599 Y53.633 E41.99759
G1 X89.124 Y53.164 E42.03271
G1 X89.699 Y52.758 E42.06783
G1 X90.317 Y52.42 E42.10297
G1 X90.968 Y52.153 E42.13807
G1 X91.646 Y51.963 E42.1732
G1 X92.341 Y51.85 E42.20833
G1 X92.975 Y51.817 E42.24
G1 X106.632 Y51.8 E42.92136
G1 X107.98 Y51.891 E42.98876
G1 X108.669 Y52.04 E43.02393
G1 X109.335 Y52.266 E43.05902
G1 X109.972 Y52.566 E43.09415
G1 X110.571 Y52.936 E43.12927
G1 X111.124 Y53.371 E43.16437
G1 X112.386 Y54.618 E43.25289
G1 X112.855 Y55.144 E43.28805
G1 X113.261 Y55.719 E43.32316
G1 X113.599 Y56.336 E43.35826
G1 X113.865 Y56.988 E43.39339
G1 X114.055 Y57.666 E43.42852
G1 X114.167 Y58.361 E43.46364
G1 X114.2 Y59 E43.49556
G1 X114.2 Y59.789 E43.53493
G1 X123.81 Y59.8 E44.01437
G1 X124.453 Y59.83 E44.04649
G1 X125.151 Y59.92 E44.0816
G1 X125.834 Y60.088 E44.11669
G1 X126.495 Y60.332 E44.15184
G1 X127.123 Y60.65 E44.18696
G1 X127.711 Y61.037 E44.22208
G1 X128.399 Y61.631 E44.26743
G1 X129.884 Y63.116 E44.3722
G1 X130.353 Y63.641 E44.40732
G1 X130.759 Y64.216 E44.44244
G1 X131.097 Y64.834 E44.47758
G1 X131.364 Y65.485 E44.51269
G1 X131.554 Y66.163 E44.54782
G1 X131.667 Y66.858 E44.58295
G1 X131.7 Y67.5 E44.61502
G1 X131.7 Y90.5 E45.76249
G1 X131.66 Y91.203 E45.79762
G1 X131.541 Y91.897 E45.83275
G1 X131.343 Y92.572 E45.86784
G1 X131.071 Y93.221 E45.90295
G1 X130.726 Y93.835 E45.93809
G1 X130.315 Y94.406 E45.97319
G1 X129.884 Y94.884 E46.0053
G1 X128.4 Y96.368 E46.11
G1 X127.875 Y96.837 E46.14513
G1 X127.3 Y97.243 E46.18024
G1 X126.682 Y97.581 E46.21538
G1 X126.031 Y97.848 E46.25049
G1 X125.353 Y98.038 E46.28562
G1 X124.658 Y98.151 E46.32075
G1 X124.132 Y98.183 E46.34704
G1 X123.278 Y98.199 E46.38965
G1 X76.01 Y98.2 E48.74786
G1 X75.307 Y98.16 E48.78299
G1 X74.613 Y98.041 E48.81812
G1 X73.938 Y97.843 E48.85321
G1 X73.289 Y97.571 E48.88832
G1 X72.675 Y97.226 E48.92346
G1 X72.104 Y96.815 E48.95856
G1 X71.641 Y96.399 E48.98961
G1 X70.131 Y94.899 E49.0958
G1 X69.66 Y94.375 E49.13095
G1 X69.252 Y93.801 E49.16608
G1 X68.912 Y93.185 E49.20119
G1 X68.643 Y92.534 E49.23633
G1 X68.45 Y91.857 E49.27145
G1 X68.336 Y91.163 E49.30654
G1 X68.3 Y90.5 E49.33966
G1 X68.3 Y67.5 E50.48714
G1 X68.34 Y66.797 E50.52227
G1 X68.459 Y66.103 E50.5574
G1 X68.657 Y65.428 E50.59249
G1 X68.929 Y64.779 E50.6276
G1 X69.274 Y64.165 E50.66274
G1 X69.685 Y63.594 E50.69784
G0 F3600 X70.082 Y63.742
G1 F1800 X71.883 Y61.915 E50.82583
G1 X72.392 Y61.462 E50.85982
G1 X72.95 Y61.073 E50.89376
G1 X73.55 Y60.751 E50.92773
G1 X74.184 Y60.502 E50.96171
G1 X74.843 Y60.329 E50.9957
G1 X75.517 Y60.235 E51.02965
G1 X86.2 Y60.205 E51.56263
G1 X86.2 Y59 E51.62275
G1 X86.24 Y58.32 E51.65674
G1 X86.359 Y57.65 E51.69069
G1 X86.556 Y56.998 E51.72467
G1 X86.828 Y56.374 E51.75863
G1 X87.172 Y55.786 E51.79261
G1 X87.582 Y55.242 E51.8266
G1 X88.882 Y53.916 E51.91924
G1 X89.391 Y53.463 E51.95324
G1 X89.949 Y53.074 E51.98717
G1 X90.549 Y52.752 E52.02115
G1 X91.183 Y52.503 E52.05513
G1 X91.842 Y52.33 E52.08912
G1 X92.516 Y52.236 E52.12307
G1 X106.633 Y52.2 E52.82737
G1 X107.94 Y52.29 E52.89273
G1 X108.605 Y52.438 E52.92672
G1 X109.248 Y52.662 E52.96069
G1 X109.86 Y52.96 E52.99465
G1 X110.433 Y53.328 E53.02863
G1 X111.12 Y53.917 E53.07377
