;FLAVOR:Marlin
;TIME:3437
;Filament used: 1.5995m
;Layer height: 0.1
;MINX:77.199
;MINY:78.2
;MINZ:0.3
;MAXX:122.8
;MAXY:121.8
;MAXZ:38
;Generated with Cura_SteamEngine 4.5.0
M140 S60
M105
M190 S60
M104 S200
M105
M109 S200
M82 ;absolute extrusion mode
G21 ;metric values
 G90 ;absolute positioning
 M82 ;set extruder to absolute mode
 M107 ;start with the fan off
 G28 X0 Y0 ;move X/Y to min endstops
 G28 Z0 ;move Z to min endstops
 G1 Z15.0 F120 ;move the platform down 15mm
 G92 E0 ;zero the extruded length
 G1 F200 E6 ;extrude 6 mm of feed stock
 G92 E0 ;zero the extruded length again
 G1 F120 
 ;Put printing message on LCD screen
 M117 Printing...
G92 E0
G92 E0
G1 F1500 E-6.5
;LAYER_COUNT:378
;LAYER:0
M107
G0 F3600 X79.622 Y80.349 Z0.3
;TYPE:SKIRT
G1 F1500 E0
G1 F1800 X80.221 Y79.834 E0.03941
G1 X80.869 Y79.383 E0.0788
G1 X81.56 Y78.999 E0.11824
G1 X82.285 Y78.687 E0.15762
G1 X83.038 Y78.45 E0.197
G1 X83.812 Y78.291 E0.23642
G1 X84.597 Y78.21 E0.27579
G1 X115 Y78.2 E1.79261
G1 X115.789 Y78.24 E1.83202
G1 X116.569 Y78.359 E1.87138
G1 X117.334 Y78.557 E1.91081
G1 X118.074 Y78.831 E1.95018
G1 X118.783 Y79.179 E1.98958
G1 X119.454 Y79.597 E2.02902
G1 X120.078 Y80.08 E2.06839
G1 X120.651 Y80.623 E2.10777
G1 X121.166 Y81.222 E2.14718
G1 X121.617 Y81.87 E2.18657
G1 X122.001 Y82.561 E2.22601
G1 X122.313 Y83.286 E2.26539
G1 X122.55 Y84.039 E2.30477
G1 X122.709 Y84.813 E2.34419
G1 X122.79 Y85.598 E2.38357
G1 X122.8 Y114 E3.80055
G1 X122.76 Y114.789 E3.83996
G1 X122.641 Y115.569 E3.87933
G1 X122.443 Y116.334 E3.91875
G1 X122.169 Y117.074 E3.95812
G1 X121.821 Y117.783 E3.99752
G1 X121.403 Y118.454 E4.03696
G1 X120.92 Y119.078 E4.07633
G1 X120.377 Y119.651 E4.11571
G1 X119.778 Y120.166 E4.15512
G1 X119.13 Y120.617 E4.19451
G1 X118.439 Y121.001 E4.23395
G1 X117.714 Y121.313 E4.27333
G1 X116.961 Y121.55 E4.31271
G1 X116.187 Y121.709 E4.35214
G1 X115.402 Y121.79 E4.39151
G1 X84.999 Y121.8 E5.90832
G1 X84.21 Y121.76 E5.94773
G1 X83.43 Y121.641 E5.9871
G1 X82.665 Y121.443 E6.02652
G1 X81.925 Y121.169 E6.06589
G1 X81.216 Y120.821 E6.10529
G1 X80.545 Y120.403 E6.14473
G1 X79.921 Y119.92 E6.1841
G1 X79.348 Y119.377 E6.22349
G1 X78.833 Y118.778 E6.2629
G1 X78.382 Y118.13 E6.30228
G1 X77.998 Y117.439 E6.34172
G1 X77.686 Y116.714 E6.3811
G1 X77.449 Y115.961 E6.42049
G1 X77.29 Y115.187 E6.45991
G1 X77.209 Y114.402 E6.49928
G1 X77.199 Y86 E7.91626
G1 X77.239 Y85.211 E7.95567
G1 X77.358 Y84.431 E7.99504
G1 X77.556 Y83.666 E8.03446
G1 X77.83 Y82.926 E8.07383
G1 X78.178 Y82.217 E8.11323
G1 X78.596 Y81.546 E8.15267
G1 X79.079 Y80.922 E8.19204
G1 X79.622 Y80.349 E8.23143
G0 F3600 X80.015 Y80.53
G1 F1800 X80.61 Y80.042 E8.26982
G1 X81.252 Y79.619 E8.30818
G1 X81.935 Y79.264 E8.34658
G1 X82.65 Y78.983 E8.38491
G1 X83.392 Y78.777 E8.42332
G1 X84.15 Y78.649 E8.46168
G1 X84.999 Y78.6 E8.5041
G1 X115 Y78.6 E10.00086
G1 X115.768 Y78.64 E10.03923
G1 X116.528 Y78.759 E10.07761
G1 X117.271 Y78.957 E10.11597
G1 X117.99 Y79.231 E10.15436
G1 X118.676 Y79.578 E10.19271
G1 X119.323 Y79.994 E10.23109
G1 X119.923 Y80.475 E10.26945
G1 X120.47 Y81.016 E10.30783
G1 X120.958 Y81.611 E10.34623
G1 X121.381 Y82.253 E10.38458
G1 X121.736 Y82.936 E10.42299
G1 X122.017 Y83.651 E10.46131
G1 X122.223 Y84.393 E10.49973
G1 X122.351 Y85.151 E10.53808
G1 X122.4 Y86 E10.58051
G1 X122.4 Y114 E11.97744
G1 X122.36 Y114.768 E12.0158
G1 X122.241 Y115.528 E12.05418
G1 X122.043 Y116.271 E12.09254
G1 X121.769 Y116.99 E12.13093
G1 X121.422 Y117.676 E12.16929
G1 X121.006 Y118.323 E12.20766
G1 X120.525 Y118.923 E12.24603
G1 X119.984 Y119.47 E12.28441
G1 X119.389 Y119.958 E12.3228
G1 X118.747 Y120.381 E12.36116
G1 X118.064 Y120.736 E12.39956
G1 X117.349 Y121.017 E12.43789
G1 X116.607 Y121.223 E12.47631
G1 X115.849 Y121.351 E12.51466
G1 X115 Y121.4 E12.55709
G1 X84.999 Y121.4 E14.05384
G1 X84.231 Y121.36 E14.09221
G1 X83.471 Y121.241 E14.13059
G1 X82.728 Y121.043 E14.16895
G1 X82.009 Y120.769 E14.20734
G1 X81.323 Y120.422 E14.24569
G1 X80.676 Y120.006 E14.28407
G1 X80.076 Y119.525 E14.32243
G1 X79.529 Y118.984 E14.36082
G1 X79.041 Y118.389 E14.39921
G1 X78.618 Y117.747 E14.43756
G1 X78.263 Y117.064 E14.47597
G1 X77.982 Y116.349 E14.5143
G1 X77.776 Y115.607 E14.55271
G1 X77.648 Y114.849 E14.59107
G1 X77.599 Y114 E14.63349
G1 X77.599 Y86 E16.03042
G1 X77.639 Y85.232 E16.06879
G1 X77.758 Y84.472 E16.10717
G1 X77.956 Y83.729 E16.14553
G1 X78.23 Y83.01 E16.18391
G1 X78.577 Y82.324 E16.22227
G1 X78.993 Y81.677 E16.26064
G1 X79.474 Y81.077 E16.29901
G1 X80.015 Y80.53 E16.33739
G0 F3600 X80.407 Y80.716
G1 F1800 X80.997 Y80.257 E16.37469
G1 X81.633 Y79.862 E16.41204
G1 X82.307 Y79.538 E16.44935
G1 X83.012 Y79.288 E16.48667
G1 X83.74 Y79.114 E16.52401
G1 X84.482 Y79.019 E16.56133
G1 X84.999 Y79 E16.58714
G1 X115 Y79 E18.0839
G1 X115.747 Y79.04 E18.12122
G1 X116.485 Y79.159 E18.15851
G1 X117.207 Y79.357 E18.19586
G1 X117.903 Y79.63 E18.23316
G1 X118.566 Y79.977 E18.2705
G1 X119.189 Y80.392 E18.30784
G1 X119.763 Y80.871 E18.34514
G1 X120.284 Y81.408 E18.38247
G1 X120.743 Y81.998 E18.41976
G1 X121.138 Y82.634 E18.45711
G1 X121.462 Y83.308 E18.49442
G1 X121.712 Y84.013 E18.53174
G1 X121.886 Y84.741 E18.56909
G1 X121.981 Y85.483 E18.60641
G1 X122 Y86 E18.63222
G1 X122 Y114 E20.02914
G1 X121.96 Y114.747 E20.06646
G1 X121.841 Y115.485 E20.10376
G1 X121.643 Y116.207 E20.14111
G1 X121.37 Y116.903 E20.17841
G1 X121.023 Y117.566 E20.21574
G1 X120.608 Y118.189 E20.25309
G1 X120.129 Y118.763 E20.29039
G1 X119.592 Y119.284 E20.32771
G1 X119.002 Y119.743 E20.36501
G1 X118.366 Y120.138 E20.40236
G1 X117.692 Y120.462 E20.43967
G1 X116.987 Y120.712 E20.47699
G1 X116.259 Y120.886 E20.51433
G1 X115.517 Y120.981 E20.55165
G1 X115 Y121 E20.57746
G1 X84.999 Y121 E22.07422
G1 X84.252 Y120.96 E22.11154
G1 X83.514 Y120.841 E22.14883
G1 X82.792 Y120.643 E22.18618
G1 X82.096 Y120.37 E22.22348
G1 X81.433 Y120.023 E22.26082
G1 X80.81 Y119.608 E22.29816
G1 X80.236 Y119.129 E22.33546
G1 X79.715 Y118.592 E22.37279
G1 X79.256 Y118.002 E22.41008
G1 X78.861 Y117.366 E22.44744
G1 X78.537 Y116.692 E22.48475
G1 X78.287 Y115.987 E22.52206
G1 X78.113 Y115.259 E22.55941
G1 X78.018 Y114.517 E22.59673
G1 X77.999 Y114 E22.62254
G1 X77.999 Y86 E24.01946
G1 X78.039 Y85.253 E24.05679
G1 X78.158 Y84.515 E24.09408
G1 X78.356 Y83.793 E24.13143
G1 X78.629 Y83.097 E24.16873
G1 X78.976 Y82.434 E24.20606
G1 X79.391 Y81.811 E24.24341
G1 X79.87 Y81.237 E24.28071
G1 X80.407 Y80.716 E24.31804
G0 F3600 X80.264 Y81.402
G1 F1800 X80.798 Y80.909 E24.3543
G1 X81.383 Y80.479 E24.39052
G1 X82.012 Y80.115 E24.42677
G1 X82.677 Y79.822 E24.46303
G1 X83.37 Y79.604 E24.49927
G1 X84.082 Y79.464 E24.53547
G1 X84.999 Y79.4 E24.58134
G1 X115 Y79.4 E26.07809
G1 X115.725 Y79.44 E26.11432
G1 X116.442 Y79.559 E26.15058
G1 X117.141 Y79.757 E26.18682
G1 X117.814 Y80.03 E26.22306
G1 X118.453 Y80.375 E26.25929
G1 X119.05 Y80.789 E26.29553
G1 X119.598 Y81.265 E26.33174
G1 X120.091 Y81.799 E26.368
G1 X120.521 Y82.384 E26.40423
G1 X120.885 Y83.013 E26.44048
G1 X121.178 Y83.678 E26.47674
G1 X121.396 Y84.371 E26.51298
G1 X121.536 Y85.083 E26.54918
G1 X121.6 Y86 E26.59504
G1 X121.6 Y114 E27.99197
G1 X121.56 Y114.725 E28.02819
G1 X121.441 Y115.442 E28.06446
G1 X121.243 Y116.141 E28.1007
G1 X120.97 Y116.814 E28.13693
G1 X120.625 Y117.453 E28.17316
G1 X120.211 Y118.05 E28.20941
G1 X119.735 Y118.598 E28.24562
G1 X119.201 Y119.091 E28.28188
G1 X118.616 Y119.521 E28.3181
G1 X117.987 Y119.885 E28.35436
G1 X117.322 Y120.178 E28.39061
G1 X116.629 Y120.396 E28.42686
G1 X115.917 Y120.536 E28.46306
G1 X115 Y120.6 E28.50892
G1 X84.999 Y120.6 E30.00568
G1 X84.274 Y120.56 E30.0419
G1 X83.557 Y120.441 E30.07816
G1 X82.858 Y120.243 E30.11441
G1 X82.185 Y119.97 E30.15064
G1 X81.546 Y119.625 E30.18687
G1 X80.949 Y119.211 E30.22312
G1 X80.401 Y118.735 E30.25933
G1 X79.908 Y118.201 E30.29559
G1 X79.478 Y117.616 E30.33181
G1 X79.114 Y116.987 E30.36807
G1 X78.821 Y116.322 E30.40432
G1 X78.603 Y115.629 E30.44057
G1 X78.463 Y114.917 E30.47677
G1 X78.399 Y114 E30.52263
G1 X78.399 Y86 E31.91956
G1 X78.439 Y85.275 E31.95578
G1 X78.558 Y84.558 E31.99204
G1 X78.756 Y83.859 E32.02829
G1 X79.029 Y83.186 E32.06452
G1 X79.374 Y82.547 E32.10075
G1 X79.788 Y81.95 E32.137
G1 X80.264 Y81.402 E32.17321
G0 F3600 X80.658 Y81.573
G1 F1800 X81.188 Y81.109 E32.20835
G1 X81.767 Y80.709 E32.24346
G1 X82.388 Y80.377 E32.27859
G1 X83.042 Y80.117 E32.3137
G1 X83.722 Y79.933 E32.34885
G1 X84.418 Y79.827 E32.38397
G1 X84.999 Y79.8 E32.41299
G1 X115 Y79.8 E33.90975
G1 X115.703 Y79.84 E33.94488
G1 X116.397 Y79.959 E33.98001
G1 X117.072 Y80.157 E34.0151
G1 X117.721 Y80.429 E34.05021
G1 X118.335 Y80.774 E34.08535
G1 X118.906 Y81.185 E34.12045
G1 X119.427 Y81.659 E34.15559
G1 X119.891 Y82.189 E34.19073
G1 X120.291 Y82.768 E34.22584
G1 X120.623 Y83.389 E34.26097
G1 X120.883 Y84.043 E34.29608
G1 X121.067 Y84.723 E34.33123
G1 X121.173 Y85.419 E34.36635
G1 X121.2 Y86 E34.39537
G1 X121.2 Y114 E35.79229
G1 X121.16 Y114.703 E35.82742
G1 X121.041 Y115.397 E35.86255
G1 X120.843 Y116.072 E35.89765
G1 X120.571 Y116.721 E35.93276
G1 X120.226 Y117.335 E35.96789
G1 X119.815 Y117.906 E36.00299
G1 X119.341 Y118.427 E36.03813
G1 X118.811 Y118.891 E36.07328
G1 X118.232 Y119.291 E36.10838
G1 X117.611 Y119.623 E36.14352
G1 X116.957 Y119.883 E36.17863
G1 X116.277 Y120.067 E36.21377
G1 X115.581 Y120.173 E36.2489
G1 X115 Y120.2 E36.27792
G1 X84.999 Y120.2 E37.77467
G1 X84.296 Y120.16 E37.8098
G1 X83.602 Y120.041 E37.84493
G1 X82.927 Y119.843 E37.88002
G1 X82.278 Y119.571 E37.91513
G1 X81.664 Y119.226 E37.95027
G1 X81.093 Y118.815 E37.98537
G1 X80.572 Y118.341 E38.02051
G1 X80.108 Y117.811 E38.05565
G1 X79.708 Y117.232 E38.09076
G1 X79.376 Y116.611 E38.12589
G1 X79.116 Y115.957 E38.16101
G1 X78.932 Y115.277 E38.19615
G1 X78.826 Y114.581 E38.23127
G1 X78.799 Y114 E38.26029
G1 X78.799 Y86 E39.65722
G1 X78.839 Y85.297 E39.69235
G1 X78.958 Y84.603 E39.72748
G1 X79.156 Y83.928 E39.76257
G1 X79.428 Y83.279 E39.79768
G1 X79.773 Y82.665 E39.83282
G1 X80.184 Y82.094 E39.86792
G1 X80.658 Y81.573 E39.90306
G0 F3600 X81.052 Y81.751
G1 F1800 X81.577 Y81.317 E39.93704
G1 X82.149 Y80.948 E39.971
G1 X82.761 Y80.649 E40.00498
G1 X83.403 Y80.424 E40.03892
G1 X84.068 Y80.275 E40.07292
G1 X84.999 Y80.2 E40.11952
G1 X115 Y80.2 E41.61627
G1 X115.68 Y80.24 E41.65026
G1 X116.35 Y80.359 E41.68421
G1 X117.002 Y80.556 E41.71819
G1 X117.626 Y80.828 E41.75215
G1 X118.214 Y81.172 E41.78614
G1 X118.758 Y81.582 E41.82012
G1 X119.249 Y82.053 E41.85407
G1 X119.683 Y82.578 E41.88805
G1 X120.052 Y83.15 E41.92201
G1 X120.351 Y83.762 E41.95599
G1 X120.576 Y84.404 E41.98993
G1 X120.725 Y85.069 E42.02393
G1 X120.8 Y86 E42.07053
G1 X120.8 Y114 E43.46745
G1 X120.76 Y114.68 E43.50144
G1 X120.641 Y115.35 E43.53539
G1 X120.444 Y116.002 E43.56937
G1 X120.172 Y116.626 E43.60333
G1 X119.828 Y117.214 E43.63732
G1 X119.418 Y117.758 E43.6713
G1 X118.947 Y118.249 E43.70525
G1 X118.422 Y118.683 E43.73923
G1 X117.85 Y119.052 E43.77319
G1 X117.238 Y119.351 E43.80717
G1 X116.596 Y119.576 E43.84111
G1 X115.931 Y119.725 E43.87511
G1 X115 Y119.8 E43.92171
G1 X84.999 Y119.8 E45.41846
G1 X84.319 Y119.76 E45.45245
G1 X83.649 Y119.641 E45.4864
G1 X82.997 Y119.444 E45.52038
G1 X82.373 Y119.172 E45.55434
G1 X81.785 Y118.828 E45.58833
G1 X81.241 Y118.418 E45.62231
G1 X80.75 Y117.947 E45.65626
G1 X80.316 Y117.422 E45.69024
G1 X79.947 Y116.85 E45.7242
G1 X79.648 Y116.238 E45.75818
G1 X79.423 Y115.596 E45.79212
G1 X79.274 Y114.931 E45.82612
G1 X79.199 Y114 E45.87272
G1 X79.199 Y86 E47.26964
G1 X79.239 Y85.32 E47.30363
G1 X79.358 Y84.65 E47.33758
G1 X79.555 Y83.998 E47.37156
G1 X79.827 Y83.374 E47.40552
G1 X80.171 Y82.786 E47.43951
G1 X80.581 Y82.242 E47.47349
G1 X81.052 Y81.751 E47.50744
G0 F3600 X81.444 Y81.935
G1 F1800 X81.964 Y81.534 E47.5402
G1 X82.528 Y81.198 E47.57295
G1 X83.13 Y80.934 E47.60574
G1 X83.759 Y80.744 E47.63853
G1 X84.406 Y80.633 E47.67128
G1 X84.999 Y80.6 E47.70091
G1 X115 Y80.6 E49.19766
G1 X115.656 Y80.64 E49.23045
G1 X116.302 Y80.759 E49.26322
G1 X116.929 Y80.956 E49.29601
G1 X117.527 Y81.228 E49.32879
G1 X118.088 Y81.57 E49.36157
G1 X118.603 Y81.978 E49.39435
G1 X119.065 Y82.445 E49.42712
G1 X119.466 Y82.965 E49.45988
G1 X119.802 Y83.529 E49.49263
G1 X120.066 Y84.131 E49.52543
G1 X120.256 Y84.76 E49.55821
G1 X120.367 Y85.407 E49.59096
G1 X120.4 Y86 E49.62059
G1 X120.4 Y114 E51.01752
G1 X120.36 Y114.656 E51.05031
G1 X120.241 Y115.302 E51.08308
G1 X120.044 Y115.929 E51.11587
G1 X119.772 Y116.527 E51.14864
G1 X119.43 Y117.088 E51.18142
G1 X119.022 Y117.603 E51.2142
G1 X118.555 Y118.065 E51.24697
G1 X118.035 Y118.466 E51.27973
G1 X117.471 Y118.802 E51.31249
G1 X116.869 Y119.066 E51.34528
G1 X116.24 Y119.256 E51.37806
G1 X115.593 Y119.367 E51.41081
G1 X115 Y119.4 E51.44044
G1 X84.999 Y119.4 E52.9372
G1 X84.343 Y119.36 E52.96999
G1 X83.697 Y119.241 E53.00276
G1 X83.07 Y119.044 E53.03555
G1 X82.472 Y118.772 E53.06833
G1 X81.911 Y118.43 E53.1011
G1 X81.396 Y118.022 E53.13388
G1 X80.934 Y117.555 E53.16666
G1 X80.533 Y117.035 E53.19942
G1 X80.197 Y116.471 E53.23217
G1 X79.933 Y115.869 E53.26497
G1 X79.743 Y115.24 E53.29775
G1 X79.632 Y114.593 E53.3305
G1 X79.599 Y114 E53.36013
G1 X79.599 Y86 E54.75705
G1 X79.639 Y85.344 E54.78984
G1 X79.758 Y84.698 E54.82261
G1 X79.955 Y84.071 E54.8554
G1 X80.227 Y83.473 E54.88818
G1 X80.569 Y82.912 E54.92096
G1 X80.977 Y82.397 E54.95374
G1 X81.444 Y81.935 E54.98651
G0 F3600 X81.372 Y82.559
G1 F1800 X81.835 Y82.129 E55.01804
G1 X82.349 Y81.76 E55.0496
G1 X82.905 Y81.46 E55.08112
G1 X83.494 Y81.232 E55.11263
G1 X84.108 Y81.08 E55.14419
G1 X84.999 Y81 E55.18882
G1 X115 Y81 E56.68558
G1 X115.631 Y81.04 E56.71712
G1 X116.252 Y81.159 E56.74867
G1 X116.852 Y81.356 E56.78017
G1 X117.424 Y81.627 E56.81175
G1 X117.956 Y81.967 E56.84325
G1 X118.441 Y82.373 E56.8748
G1 X118.871 Y82.836 E56.90633
G1 X119.24 Y83.35 E56.9379
G1 X119.54 Y83.906 E56.96942
G1 X119.768 Y84.495 E57.00093
G1 X119.92 Y85.109 E57.03248
G1 X120 Y86 E57.07711
G1 X120 Y114 E58.47404
G1 X119.96 Y114.631 E58.50558
G1 X119.841 Y115.252 E58.53713
G1 X119.644 Y115.852 E58.56864
G1 X119.373 Y116.424 E58.60021
G1 X119.033 Y116.956 E58.63171
G1 X118.627 Y117.441 E58.66327
G1 X118.164 Y117.871 E58.69479
G1 X117.65 Y118.24 E58.72636
G1 X117.094 Y118.54 E58.75788
G1 X116.505 Y118.768 E58.78939
G1 X115.891 Y118.92 E58.82095
G1 X115 Y119 E58.86558
G1 X84.999 Y119 E60.36233
G1 X84.368 Y118.96 E60.39388
G1 X83.747 Y118.841 E60.42542
G1 X83.147 Y118.644 E60.45693
G1 X82.575 Y118.373 E60.48851
G1 X82.043 Y118.033 E60.52001
G1 X81.558 Y117.627 E60.55156
G1 X81.128 Y117.164 E60.58309
G1 X80.759 Y116.65 E60.61465
G1 X80.459 Y116.094 E60.64617
G1 X80.231 Y115.505 E60.67768
G1 X80.079 Y114.891 E60.70924
G1 X79.999 Y114 E60.75387
G1 X79.999 Y86 E62.1508
G1 X80.039 Y85.369 E62.18234
G1 X80.158 Y84.748 E62.21389
G1 X80.355 Y84.148 E62.24539
G1 X80.626 Y83.576 E62.27697
G1 X80.966 Y83.044 E62.30847
G1 X81.372 Y82.559 E62.34003
G0 F3600 X81.766 Y82.728
G1 F1800 X82.224 Y82.331 E62.37027
G1 X82.731 Y81.998 E62.40053
G1 X83.277 Y81.734 E62.43078
G1 X83.853 Y81.545 E62.46103
G1 X84.449 Y81.433 E62.49128
G1 X84.999 Y81.4 E62.51877
G1 X115 Y81.4 E64.01553
G1 X115.605 Y81.44 E64.04578
G1 X116.199 Y81.559 E64.076
G1 X116.773 Y81.755 E64.10626
G1 X117.316 Y82.026 E64.13654
G1 X117.819 Y82.365 E64.1668
G1 X118.272 Y82.767 E64.19702
G1 X118.669 Y83.225 E64.22726
G1 X119.002 Y83.732 E64.25752
G1 X119.266 Y84.278 E64.28778
G1 X119.455 Y84.854 E64.31802
G1 X119.567 Y85.45 E64.34828
G1 X119.6 Y86 E64.37576
G1 X119.6 Y114 E65.77269
G1 X119.56 Y114.605 E65.80294
G1 X119.441 Y115.199 E65.83316
G1 X119.245 Y115.773 E65.86342
G1 X118.974 Y116.316 E65.8937
G1 X118.635 Y116.819 E65.92396
G1 X118.233 Y117.272 E65.95418
G1 X117.775 Y117.669 E65.98442
G1 X117.268 Y118.002 E66.01468
G1 X116.722 Y118.266 E66.04494
G1 X116.146 Y118.455 E66.07518
G1 X115.55 Y118.567 E66.10544
G1 X115 Y118.6 E66.13293
G1 X84.999 Y118.6 E67.62968
G1 X84.394 Y118.56 E67.65993
G1 X83.8 Y118.441 E67.69015
G1 X83.226 Y118.245 E67.72041
G1 X82.683 Y117.974 E67.75069
G1 X82.18 Y117.635 E67.78095
G1 X81.727 Y117.233 E67.81117
G1 X81.33 Y116.775 E67.84141
G1 X80.997 Y116.268 E67.87167
