;FLAVOR:Marlin
;TIME:7870
;Filament used: 3.94207m
;Layer height: 0.1
;MINX:58
;MINY:75.5
;MINZ:0.3
;MAXX:142
;MAXY:166.5
;MAXZ:12
;Generated with Cura_SteamEngine 4.1.0
M140 S60
M105
M190 S60
M104 S200
M105
M109 S200
M82 ;absolute extrusion mode
G21 ;metric values
 G90 ;absolute positioning
 M82 ;set extruder to absolute mode
 M107 ;start with the fan off
 G28 X0 Y0 ;move X/Y to min endstops
 G28 Z0 ;move Z to min endstops
 G1 Z15.0 F120 ;move the platform down 15mm
 G92 E0 ;zero the extruded length
 G1 F200 E6 ;extrude 6 mm of feed stock
 G92 E0 ;zero the extruded length again
 G1 F120 
 ;Put printing message on LCD screen
 M117 Printing...
G92 E0
G92 E0
G1 F1500 E-6.5
;LAYER_COUNT:118
;LAYER:0
M107
G0 F3600 X61.933 Y77.895 Z0.3
;TYPE:SKIRT
G1 F1500 E0
G1 F1800 X62.532 Y77.452 E0.03717
G1 X63.01 Y77.133 E0.06584
G1 X63.688 Y76.729 E0.10521
G1 X64.336 Y76.423 E0.14097
G1 X64.832 Y76.216 E0.16778
G1 X65.575 Y75.949 E0.20717
G1 X66.314 Y75.764 E0.24518
G1 X66.887 Y75.65 E0.27432
G1 X67.668 Y75.535 E0.31371
G1 X68.409 Y75.5 E0.35072
G1 X131.444 Y75.5 E3.49555
G1 X132.233 Y75.54 E3.53496
G1 X132.664 Y75.596 E3.55664
G1 X133.384 Y75.71 E3.59301
G1 X134.157 Y75.873 E3.63243
G1 X135.147 Y76.207 E3.68455
G1 X135.635 Y76.409 E3.7109
G1 X136.349 Y76.748 E3.75034
G1 X136.979 Y77.126 E3.78699
G1 X137.465 Y77.45 E3.81613
G1 X138.099 Y77.921 E3.85553
G1 X138.653 Y78.425 E3.8929
G1 X139.075 Y78.847 E3.92267
G1 X139.605 Y79.433 E3.96209
G1 X140.048 Y80.032 E3.99926
G1 X140.367 Y80.51 E4.02793
G1 X140.771 Y81.188 E4.06731
G1 X141.077 Y81.836 E4.10306
G1 X141.284 Y82.332 E4.12987
G1 X141.551 Y83.075 E4.16926
G1 X141.736 Y83.814 E4.20727
G1 X141.85 Y84.387 E4.23642
G1 X141.965 Y85.168 E4.2758
G1 X142 Y85.909 E4.31281
G1 X142 Y113.944 E5.71148
G1 X141.96 Y114.733 E5.7509
G1 X141.904 Y115.164 E5.77258
G1 X141.79 Y115.884 E5.80895
G1 X141.627 Y116.657 E5.84836
G1 X141.293 Y117.647 E5.90049
G1 X141.091 Y118.135 E5.92684
G1 X140.752 Y118.849 E5.96627
G1 X140.374 Y119.479 E6.00293
G1 X140.05 Y119.965 E6.03207
G1 X139.579 Y120.599 E6.07147
G1 X139.214 Y121 E6.09852
G1 X139.605 Y121.433 E6.12763
G1 X140.05 Y122.035 E6.16498
G1 X140.374 Y122.521 E6.19412
G1 X140.778 Y123.2 E6.23354
G1 X141.091 Y123.865 E6.27021
G1 X141.293 Y124.353 E6.29656
G1 X141.558 Y125.097 E6.33596
G1 X141.739 Y125.828 E6.37353
G1 X141.844 Y126.361 E6.40063
G1 X141.957 Y127.143 E6.44005
G1 X141.991 Y127.86 E6.47586
G1 X142 Y135.898 E6.87688
G1 X142 Y156.091 E7.88431
G1 X141.96 Y156.88 E7.92373
G1 X141.85 Y157.613 E7.96071
G1 X141.736 Y158.186 E7.98985
G1 X141.543 Y158.952 E8.02926
G1 X141.293 Y159.647 E8.06611
G1 X141.091 Y160.135 E8.09246
G1 X140.752 Y160.849 E8.13189
G1 X140.374 Y161.479 E8.16855
G1 X140.05 Y161.965 E8.19769
G1 X139.579 Y162.599 E8.23709
G1 X139.075 Y163.153 E8.27446
G1 X138.653 Y163.575 E8.30423
G1 X138.067 Y164.105 E8.34365
G1 X137.465 Y164.55 E8.381
G1 X136.979 Y164.874 E8.41014
G1 X136.3 Y165.278 E8.44956
G1 X135.635 Y165.591 E8.48623
G1 X135.147 Y165.793 E8.51258
G1 X134.403 Y166.058 E8.55198
G1 X133.686 Y166.236 E8.58884
G1 X133.113 Y166.35 E8.61799
G1 X132.332 Y166.465 E8.65737
G1 X131.591 Y166.5 E8.69438
G1 X68.409 Y166.5 E11.84654
G1 X67.62 Y166.46 E11.88596
G1 X66.887 Y166.35 E11.92294
G1 X66.314 Y166.236 E11.95208
G1 X65.548 Y166.043 E11.99149
G1 X64.853 Y165.793 E12.02834
G1 X64.365 Y165.591 E12.05469
G1 X63.651 Y165.252 E12.09412
G1 X63.021 Y164.874 E12.13078
G1 X62.535 Y164.55 E12.15992
G1 X61.901 Y164.079 E12.19932
G1 X61.347 Y163.575 E12.23669
G1 X60.925 Y163.153 E12.26646
G1 X60.395 Y162.567 E12.30588
G1 X59.95 Y161.965 E12.34323
G1 X59.626 Y161.479 E12.37237
G1 X59.222 Y160.8 E12.41179
G1 X58.909 Y160.135 E12.44846
G1 X58.707 Y159.647 E12.47481
G1 X58.442 Y158.903 E12.51421
G1 X58.261 Y158.172 E12.55178
G1 X58.156 Y157.639 E12.57888
G1 X58.043 Y156.857 E12.6183
G1 X58.009 Y156.146 E12.65382
G1 X58 Y151.363 E12.89244
G1 X58 Y127.909 E14.06257
G1 X58.04 Y127.12 E14.10198
G1 X58.15 Y126.387 E14.13896
G1 X58.264 Y125.814 E14.16811
G1 X58.457 Y125.048 E14.20752
G1 X58.707 Y124.353 E14.24437
G1 X58.909 Y123.865 E14.27072
G1 X59.248 Y123.151 E14.31015
G1 X59.626 Y122.521 E14.3468
G1 X59.95 Y122.035 E14.37594
G1 X60.421 Y121.401 E14.41535
G1 X60.786 Y121 E14.4424
G1 X60.395 Y120.567 E14.47151
G1 X59.95 Y119.965 E14.50885
G1 X59.626 Y119.479 E14.538
G1 X59.222 Y118.8 E14.57741
G1 X58.909 Y118.135 E14.61408
G1 X58.707 Y117.647 E14.64043
G1 X58.442 Y116.903 E14.67983
G1 X58.264 Y116.186 E14.71669
G1 X58.15 Y115.613 E14.74584
G1 X58.035 Y114.832 E14.78522
G1 X58 Y114.091 E14.82223
G1 X58.001 Y85.902 E16.22859
G1 X58.041 Y85.113 E16.268
G1 X58.152 Y84.375 E16.30524
G1 X58.265 Y83.809 E16.33403
G1 X58.459 Y83.043 E16.37345
G1 X58.707 Y82.353 E16.41003
G1 X58.909 Y81.865 E16.43638
G1 X59.248 Y81.151 E16.47582
G1 X59.626 Y80.521 E16.51247
G1 X59.95 Y80.035 E16.54161
G1 X60.421 Y79.401 E16.58101
G1 X60.925 Y78.847 E16.61838
G1 X61.347 Y78.425 E16.64815
G1 X61.933 Y77.895 E16.68757
G0 F3600 X62.201 Y78.193
G1 F1800 X62.754 Y77.785 E16.72186
G1 X63.232 Y77.466 E16.75053
G1 X63.893 Y77.073 E16.7889
G1 X64.49 Y76.792 E16.82181
G1 X64.986 Y76.585 E16.84863
G1 X65.71 Y76.326 E16.88699
G1 X66.392 Y76.156 E16.92206
G1 X66.965 Y76.042 E16.9512
G1 X67.726 Y75.932 E16.98957
G1 X68.409 Y75.9 E17.02368
G1 X131.444 Y75.9 E20.16851
G1 X132.212 Y75.94 E20.20687
G1 X132.601 Y75.991 E20.22645
G1 X133.321 Y76.105 E20.26282
G1 X134.074 Y76.265 E20.30122
G1 X134.994 Y76.577 E20.34969
G1 X135.482 Y76.779 E20.37604
G1 X136.177 Y77.109 E20.41442
G1 X136.757 Y77.459 E20.44822
G1 X137.243 Y77.783 E20.47736
G1 X137.86 Y78.242 E20.51573
G1 X138.371 Y78.707 E20.55019
G1 X138.793 Y79.129 E20.57997
G1 X139.307 Y79.701 E20.61834
G1 X139.715 Y80.254 E20.65262
G1 X140.034 Y80.732 E20.68129
G1 X140.427 Y81.393 E20.71966
G1 X140.708 Y81.99 E20.75258
G1 X140.915 Y82.486 E20.77939
G1 X141.174 Y83.21 E20.81775
G1 X141.344 Y83.892 E20.85282
G1 X141.458 Y84.465 E20.88197
G1 X141.568 Y85.226 E20.92033
G1 X141.6 Y85.909 E20.95444
G1 X141.6 Y113.944 E22.35311
G1 X141.56 Y114.712 E22.39148
G1 X141.509 Y115.101 E22.41105
G1 X141.395 Y115.821 E22.44742
G1 X141.235 Y116.574 E22.48583
G1 X140.923 Y117.494 E22.53429
G1 X140.721 Y117.982 E22.56064
G1 X140.391 Y118.677 E22.59903
G1 X140.041 Y119.257 E22.63282
G1 X139.717 Y119.743 E22.66196
G1 X139.258 Y120.36 E22.70033
G1 X138.793 Y120.871 E22.7348
G1 X138.664 Y121 E22.7439
G1 X138.793 Y121.129 E22.753
G1 X139.307 Y121.701 E22.79137
G1 X139.717 Y122.257 E22.82583
G1 X140.041 Y122.743 E22.85498
G1 X140.434 Y123.405 E22.89338
G1 X140.721 Y124.018 E22.92715
G1 X140.923 Y124.506 E22.9535
G1 X141.18 Y125.231 E22.99188
G1 X141.346 Y125.906 E23.02656
G1 X141.451 Y126.439 E23.05366
G1 X141.561 Y127.2 E23.09202
G1 X141.591 Y127.861 E23.12503
G1 X141.6 Y135.899 E23.52605
G1 X141.6 Y156.091 E24.53343
G1 X141.56 Y156.859 E24.5718
G1 X141.458 Y157.535 E24.60591
G1 X141.344 Y158.108 E24.63506
G1 X141.155 Y158.854 E24.67345
G1 X140.923 Y159.494 E24.70741
G1 X140.721 Y159.982 E24.73376
G1 X140.391 Y160.677 E24.77215
G1 X140.041 Y161.257 E24.80594
G1 X139.717 Y161.743 E24.83508
G1 X139.258 Y162.36 E24.87345
G1 X138.793 Y162.871 E24.90792
G1 X138.371 Y163.293 E24.93769
G1 X137.799 Y163.807 E24.97606
G1 X137.243 Y164.217 E25.01052
G1 X136.757 Y164.541 E25.03967
G1 X136.095 Y164.934 E25.07807
G1 X135.482 Y165.221 E25.11184
G1 X134.994 Y165.423 E25.13819
G1 X134.269 Y165.68 E25.17657
G1 X133.608 Y165.844 E25.21055
G1 X133.035 Y165.958 E25.23969
G1 X132.274 Y166.068 E25.27805
G1 X131.591 Y166.1 E25.31217
G1 X68.409 Y166.1 E28.46433
G1 X67.641 Y166.06 E28.5027
G1 X66.965 Y165.958 E28.5368
G1 X66.392 Y165.844 E28.56595
G1 X65.646 Y165.655 E28.60435
G1 X65.006 Y165.423 E28.63831
G1 X64.518 Y165.221 E28.66466
G1 X63.823 Y164.891 E28.70304
G1 X63.243 Y164.541 E28.73684
G1 X62.757 Y164.217 E28.76598
G1 X62.14 Y163.758 E28.80435
G1 X61.629 Y163.293 E28.83881
G1 X61.207 Y162.871 E28.86859
G1 X60.693 Y162.299 E28.90696
G1 X60.283 Y161.743 E28.94142
G1 X59.959 Y161.257 E28.97056
G1 X59.566 Y160.595 E29.00897
G1 X59.279 Y159.982 E29.04274
G1 X59.077 Y159.494 E29.06909
G1 X58.82 Y158.769 E29.10746
G1 X58.654 Y158.094 E29.14214
G1 X58.549 Y157.561 E29.16925
G1 X58.439 Y156.8 E29.20761
G1 X58.409 Y156.145 E29.24032
G1 X58.4 Y151.362 E29.47894
G1 X58.4 Y127.909 E30.64902
G1 X58.44 Y127.141 E30.68739
G1 X58.542 Y126.465 E30.72149
G1 X58.656 Y125.892 E30.75064
G1 X58.845 Y125.146 E30.78904
G1 X59.077 Y124.506 E30.823
G1 X59.279 Y124.018 E30.84935
G1 X59.609 Y123.323 E30.88773
G1 X59.959 Y122.743 E30.92153
G1 X60.283 Y122.257 E30.95067
G1 X60.742 Y121.64 E30.98904
G1 X61.207 Y121.129 E31.02351
G1 X61.336 Y121 E31.03261
G1 X61.207 Y120.871 E31.04171
G1 X60.693 Y120.299 E31.08007
G1 X60.283 Y119.743 E31.11454
G1 X59.959 Y119.257 E31.14368
G1 X59.566 Y118.595 E31.18209
G1 X59.279 Y117.982 E31.21586
G1 X59.077 Y117.494 E31.24221
G1 X58.82 Y116.769 E31.28058
G1 X58.656 Y116.108 E31.31456
G1 X58.542 Y115.535 E31.34371
G1 X58.432 Y114.774 E31.38207
G1 X58.4 Y114.091 E31.41618
G1 X58.401 Y85.902 E32.82254
G1 X58.441 Y85.134 E32.8609
G1 X58.544 Y84.453 E32.89527
G1 X58.657 Y83.887 E32.92406
G1 X58.847 Y83.142 E32.96242
G1 X59.077 Y82.506 E32.99616
G1 X59.279 Y82.018 E33.02251
G1 X59.609 Y81.323 E33.06089
G1 X59.959 Y80.743 E33.09469
G1 X60.283 Y80.257 E33.12383
G1 X60.742 Y79.64 E33.1622
G1 X61.207 Y79.129 E33.19667
G1 X61.629 Y78.707 E33.22644
G1 X62.201 Y78.193 E33.26481
G0 F3600 X62.469 Y78.49
G1 F1800 X62.976 Y78.118 E33.29618
G1 X63.454 Y77.799 E33.32485
G1 X64.098 Y77.417 E33.36221
G1 X64.644 Y77.161 E33.39229
G1 X65.14 Y76.954 E33.41911
G1 X65.845 Y76.703 E33.45644
G1 X66.47 Y76.549 E33.48856
G1 X67.043 Y76.435 E33.5177
G1 X67.784 Y76.328 E33.55505
G1 X68.409 Y76.3 E33.58627
G1 X131.444 Y76.3 E36.7311
G1 X132.539 Y76.386 E36.78589
G1 X133.259 Y76.5 E36.82226
G1 X133.99 Y76.656 E36.85955
G1 X134.841 Y76.946 E36.90441
G1 X135.329 Y77.148 E36.93076
G1 X136.004 Y77.471 E36.96809
G1 X136.535 Y77.792 E36.99905
G1 X137.021 Y78.116 E37.02819
G1 X137.62 Y78.563 E37.06548
G1 X138.088 Y78.99 E37.09708
G1 X138.51 Y79.412 E37.12686
G1 X139.01 Y79.969 E37.1642
G1 X139.382 Y80.476 E37.19557
G1 X139.701 Y80.954 E37.22424
G1 X140.083 Y81.598 E37.2616
G1 X140.339 Y82.144 E37.29168
G1 X140.546 Y82.64 E37.3185
G1 X140.797 Y83.345 E37.35583
G1 X140.951 Y83.97 E37.38795
G1 X141.065 Y84.543 E37.41709
G1 X141.172 Y85.284 E37.45445
G1 X141.2 Y85.909 E37.48566
G1 X141.2 Y113.944 E38.88433
G1 X141.114 Y115.039 E38.93913
G1 X141 Y115.759 E38.9755
G1 X140.844 Y116.49 E39.01279
G1 X140.554 Y117.341 E39.05764
G1 X140.352 Y117.829 E39.08399
G1 X140.029 Y118.504 E39.12133
G1 X139.708 Y119.035 E39.15228
G1 X139.384 Y119.521 E39.18142
G1 X138.937 Y120.12 E39.21871
G1 X138.51 Y120.588 E39.25032
G1 X138.098 Y121 E39.27939
G1 X138.51 Y121.412 E39.30845
G1 X139.01 Y121.969 E39.3458
G1 X139.384 Y122.479 E39.37735
G1 X139.708 Y122.965 E39.40649
G1 X140.089 Y123.609 E39.44382
G1 X140.352 Y124.171 E39.47478
G1 X140.554 Y124.659 E39.50113
G1 X140.803 Y125.364 E39.53843
G1 X140.954 Y125.983 E39.57022
G1 X141.059 Y126.516 E39.59732
G1 X141.164 Y127.257 E39.63466
G1 X141.191 Y127.861 E39.66482
G1 X141.2 Y135.899 E40.06584
G1 X141.2 Y156.091 E41.07322
G1 X141.16 Y156.838 E41.11054
G1 X141.065 Y157.457 E41.14179
G1 X140.951 Y158.03 E41.17093
G1 X140.766 Y158.755 E41.20826
G1 X140.554 Y159.341 E41.23935
G1 X140.352 Y159.829 E41.2657
G1 X140.029 Y160.504 E41.30304
G1 X139.708 Y161.035 E41.33399
G1 X139.384 Y161.521 E41.36313
G1 X138.937 Y162.12 E41.40042
G1 X138.51 Y162.588 E41.43203
G1 X138.088 Y163.01 E41.4618
G1 X137.531 Y163.51 E41.49915
G1 X137.021 Y163.884 E41.5307
G1 X136.535 Y164.208 E41.55984
G1 X135.891 Y164.589 E41.59717
G1 X135.329 Y164.852 E41.62813
G1 X134.841 Y165.054 E41.65448
G1 X134.136 Y165.303 E41.69178
G1 X133.53 Y165.451 E41.7229
G1 X132.957 Y165.565 E41.75205
G1 X132.216 Y165.672 E41.7894
G1 X131.591 Y165.7 E41.82061
G1 X68.409 Y165.7 E44.97278
G1 X67.662 Y165.66 E45.0101
G1 X67.043 Y165.565 E45.04134
G1 X66.47 Y165.451 E45.07049
G1 X65.745 Y165.266 E45.10782
G1 X65.159 Y165.054 E45.13891
G1 X64.671 Y164.852 E45.16526
G1 X63.996 Y164.529 E45.20259
G1 X63.465 Y164.208 E45.23355
G1 X62.979 Y163.884 E45.26269
G1 X62.38 Y163.437 E45.29997
G1 X61.912 Y163.01 E45.33158
G1 X61.49 Y162.588 E45.36136
G1 X60.99 Y162.031 E45.3987
G1 X60.616 Y161.521 E45.43025
G1 X60.292 Y161.035 E45.45939
G1 X59.911 Y160.391 E45.49672
G1 X59.648 Y159.829 E45.52768
G1 X59.446 Y159.341 E45.55403
G1 X59.197 Y158.636 E45.59133
G1 X59.046 Y158.017 E45.62312
G1 X58.941 Y157.484 E45.65022
G1 X58.836 Y156.743 E45.68756
G1 X58.809 Y156.144 E45.71747
G1 X58.8 Y151.361 E45.9561
G1 X58.8 Y127.909 E47.12612
G1 X58.84 Y127.162 E47.16345
G1 X58.935 Y126.543 E47.19469
G1 X59.049 Y125.97 E47.22384
G1 X59.234 Y125.245 E47.26117
G1 X59.446 Y124.659 E47.29226
G1 X59.648 Y124.171 E47.31861
G1 X59.971 Y123.496 E47.35594
G1 X60.292 Y122.965 E47.38689
G1 X60.616 Y122.479 E47.41604
G1 X61.063 Y121.88 E47.45332
G1 X61.49 Y121.412 E47.48493
G1 X61.902 Y121 E47.514
G1 X61.49 Y120.588 E47.54307
G1 X60.99 Y120.031 E47.58041
G1 X60.616 Y119.521 E47.61196
G1 X60.292 Y119.035 E47.6411
G1 X59.911 Y118.391 E47.67843
G1 X59.648 Y117.829 E47.70939
G1 X59.446 Y117.341 E47.73574
G1 X59.197 Y116.636 E47.77304
G1 X59.049 Y116.03 E47.80416
G1 X58.935 Y115.457 E47.83331
G1 X58.828 Y114.716 E47.87066
G1 X58.8 Y114.091 E47.90188
G1 X58.801 Y85.902 E49.30823
G1 X58.841 Y85.155 E49.34555
G1 X58.936 Y84.532 E49.37699
G1 X59.049 Y83.966 E49.40579
G1 X59.235 Y83.241 E49.44313
G1 X59.446 Y82.659 E49.47402
G1 X59.648 Y82.171 E49.50037
G1 X59.971 Y81.496 E49.5377
G1 X60.292 Y80.965 E49.56866
G1 X60.616 Y80.479 E49.5978
G1 X61.063 Y79.88 E49.63508
G1 X61.49 Y79.412 E49.66669
G1 X61.912 Y78.99 E49.69647
G1 X62.469 Y78.49 E49.73381
G0 F3600 X62.736 Y78.789
G1 F1800 X63.198 Y78.45 E49.7624
G1 X63.676 Y78.131 E49.79107
G1 X64.302 Y77.762 E49.82732
G1 X64.798 Y77.53 E49.85464
G1 X65.294 Y77.323 E49.88145
G1 X65.979 Y77.081 E49.9177
G1 X66.548 Y76.941 E49.94693
G1 X67.121 Y76.827 E49.97608
G1 X67.84 Y76.725 E50.01231
G1 X68.409 Y76.7 E50.04072
G1 X131.444 Y76.7 E53.18555
G1 X132.476 Y76.781 E53.2372
G1 X133.196 Y76.895 E53.27357
G1 X133.906 Y77.048 E53.3098
G1 X134.688 Y77.316 E53.35104
G1 X135.176 Y77.518 E53.37739
G1 X135.831 Y77.832 E53.41363
G1 X136.313 Y78.124 E53.44175
G1 X136.799 Y78.448 E53.47089
G1 X137.38 Y78.884 E53.50713
G1 X137.805 Y79.273 E53.53587
G1 X138.227 Y79.695 E53.56565
G1 X138.711 Y80.236 E53.60186
G1 X139.05 Y80.698 E53.63045
G1 X139.369 Y81.176 E53.65912
G1 X139.738 Y81.802 E53.69538
G1 X139.97 Y82.298 E53.72269
G1 X140.177 Y82.794 E53.74951
G1 X140.419 Y83.479 E53.78575
G1 X140.559 Y84.048 E53.81499
G1 X140.673 Y84.621 E53.84413
G1 X140.775 Y85.34 E53.88036
G1 X140.8 Y85.909 E53.90878
G1 X140.8 Y113.944 E55.30745
G1 X140.719 Y114.976 E55.3591
G1 X140.605 Y115.696 E55.39546
G1 X140.452 Y116.406 E55.4317
G1 X140.184 Y117.188 E55.47294
G1 X139.982 Y117.676 E55.49929
G1 X139.668 Y118.331 E55.53553
G1 X139.376 Y118.813 E55.56365
G1 X139.052 Y119.299 E55.59279
G1 X138.616 Y119.88 E55.62903
G1 X138.227 Y120.305 E55.65777
G1 X137.805 Y120.727 E55.68755
G1 X137.503 Y120.997 E55.70776
G1 X137.805 Y121.273 E55.72817
G1 X138.227 Y121.695 E55.75794
G1 X138.711 Y122.236 E55.79416
G1 X139.052 Y122.701 E55.82293
G1 X139.376 Y123.187 E55.85207
G1 X139.745 Y123.813 E55.88832
G1 X139.982 Y124.324 E55.91642
G1 X140.184 Y124.812 E55.94277
G1 X140.425 Y125.497 E55.979
G1 X140.562 Y126.06 E56.00791
G1 X140.667 Y126.593 E56.03501
G1 X140.768 Y127.313 E56.07128
G1 X140.791 Y127.862 E56.0987
G1 X140.8 Y135.9 E56.49971
G1 X140.8 Y156.091 E57.50705
G1 X140.76 Y156.816 E57.54327
G1 X140.673 Y157.379 E57.57169
G1 X140.559 Y157.952 E57.60084
G1 X140.378 Y158.655 E57.63706
G1 X140.184 Y159.188 E57.66536
G1 X139.982 Y159.676 E57.69171
G1 X139.668 Y160.331 E57.72795
G1 X139.376 Y160.813 E57.75606
G1 X139.052 Y161.299 E57.7852
G1 X138.616 Y161.88 E57.82144
G1 X138.227 Y162.305 E57.85019
G1 X137.805 Y162.727 E57.87996
G1 X137.264 Y163.211 E57.91618
G1 X136.799 Y163.552 E57.94494
