;FLAVOR:Marlin
;TIME:9803
;Filament used: 5.62394m
;Layer height: 0.1
;MINX:50.7
;MINY:50.7
;MINZ:0.3
;MAXX:149.3
;MAXY:149.3
;MAXZ:7
;Generated with Cura_SteamEngine 4.1.0
M140 S60
M105
M190 S60
M104 S200
M105
M109 S200
M82 ;absolute extrusion mode
G21 ;metric values
 G90 ;absolute positioning
 M82 ;set extruder to absolute mode
 M107 ;start with the fan off
 G28 X0 Y0 ;move X/Y to min endstops
 G28 Z0 ;move Z to min endstops
 G1 Z15.0 F120 ;move the platform down 15mm
 G92 E0 ;zero the extruded length
 G1 F200 E6 ;extrude 6 mm of feed stock
 G92 E0 ;zero the extruded length again
 G1 F120 
 ;Put printing message on LCD screen
 M117 Printing...
G92 E0
G92 E0
G1 F1500 E-6.5
;LAYER_COUNT:68
;LAYER:0
M107
G0 F3600 X55.791 Y57.273 Z0.3
;TYPE:SKIRT
G1 F1500 E0
G1 F1800 X57.273 Y55.791 E0.10456
G1 X57.859 Y55.261 E0.14398
G1 X58.315 Y54.916 E0.17251
G1 X60.025 Y53.719 E0.27665
G1 X60.694 Y53.299 E0.31606
G1 X61.199 Y53.041 E0.34435
G1 X63.097 Y52.155 E0.44885
G1 X63.828 Y51.858 E0.48821
G1 X64.377 Y51.689 E0.51687
G1 X66.396 Y51.148 E0.62115
G1 X67.168 Y50.982 E0.66055
G1 X67.74 Y50.911 E0.68931
G1 X69.617 Y50.748 E0.7833
G1 X70.289 Y50.719 E0.81686
G1 X123.596 Y50.7 E3.47636
G1 X129.499 Y50.7 E3.77086
G1 X130.177 Y50.73 E3.80472
G1 X132.263 Y50.912 E3.90918
G1 X133.045 Y51.02 E3.94857
G1 X133.604 Y51.148 E3.97718
G1 X135.623 Y51.689 E4.08146
G1 X136.374 Y51.932 E4.12084
G1 X136.903 Y52.155 E4.14948
G1 X138.801 Y53.041 E4.25398
G1 X139.499 Y53.411 E4.29339
G1 X139.975 Y53.719 E4.32168
G1 X141.685 Y54.916 E4.42582
G1 X142.308 Y55.401 E4.46521
G1 X142.727 Y55.791 E4.49376
G1 X144.209 Y57.273 E4.59833
G1 X144.739 Y57.859 E4.63775
G1 X145.084 Y58.315 E4.66627
G1 X146.281 Y60.025 E4.77041
G1 X146.701 Y60.694 E4.80982
G1 X146.959 Y61.199 E4.83811
G1 X147.844 Y63.095 E4.9425
G1 X148.141 Y63.826 E4.98187
G1 X148.31 Y64.374 E5.01048
G1 X148.852 Y66.395 E5.11487
G1 X149.017 Y67.167 E5.15425
G1 X149.089 Y67.739 E5.18302
G1 X149.252 Y69.614 E5.27691
G1 X149.281 Y70.287 E5.31052
G1 X149.3 Y123.596 E7.97012
G1 X149.3 Y129.499 E8.26462
G1 X149.27 Y130.177 E8.29848
G1 X149.088 Y132.263 E8.40294
G1 X148.98 Y133.045 E8.44233
G1 X148.852 Y133.605 E8.47099
G1 X148.311 Y135.623 E8.57522
G1 X148.068 Y136.374 E8.6146
G1 X147.846 Y136.901 E8.64313
G1 X146.96 Y138.8 E8.74768
G1 X146.59 Y139.498 E8.78709
G1 X146.281 Y139.975 E8.81544
G1 X145.084 Y141.685 E8.91958
G1 X144.599 Y142.308 E8.95897
G1 X144.209 Y142.727 E8.98753
G1 X142.727 Y144.209 E9.09209
G1 X142.141 Y144.739 E9.13151
G1 X141.685 Y145.084 E9.16004
G1 X139.975 Y146.281 E9.26418
G1 X139.306 Y146.701 E9.30358
G1 X138.801 Y146.959 E9.33188
G1 X136.903 Y147.845 E9.43638
G1 X136.172 Y148.142 E9.47574
G1 X135.623 Y148.311 E9.5044
G1 X133.604 Y148.852 E9.60868
G1 X132.832 Y149.018 E9.64808
G1 X132.26 Y149.089 E9.67683
G1 X130.383 Y149.252 E9.77083
G1 X129.711 Y149.281 E9.80439
G1 X76.404 Y149.3 E12.46389
G1 X70.501 Y149.3 E12.75839
G1 X69.826 Y149.271 E12.79209
G1 X67.95 Y149.108 E12.88604
G1 X67.922 Y149.105 E12.88745
G1 X67.712 Y149.086 E12.89797
G1 X66.93 Y148.975 E12.93737
G1 X66.396 Y148.852 E12.96471
G1 X64.377 Y148.311 E13.06899
G1 X63.626 Y148.068 E13.10837
G1 X63.097 Y147.845 E13.13701
G1 X61.199 Y146.959 E13.24151
G1 X60.501 Y146.589 E13.28093
G1 X60.025 Y146.281 E13.30921
G1 X58.315 Y145.084 E13.41335
G1 X57.692 Y144.599 E13.45274
G1 X57.273 Y144.209 E13.4813
G1 X55.791 Y142.727 E13.58586
G1 X55.261 Y142.141 E13.62528
G1 X54.916 Y141.685 E13.65381
G1 X53.719 Y139.975 E13.75794
G1 X53.299 Y139.306 E13.79735
G1 X53.04 Y138.8 E13.82571
G1 X52.154 Y136.901 E13.93026
G1 X51.857 Y136.169 E13.96967
G1 X51.689 Y135.623 E13.99817
G1 X51.148 Y133.605 E14.1024
G1 X50.982 Y132.833 E14.1418
G1 X50.911 Y132.261 E14.17055
G1 X50.748 Y130.386 E14.26445
G1 X50.719 Y129.713 E14.29806
G1 X50.7 Y76.404 E16.95766
G1 X50.7 Y70.501 E17.25216
G1 X50.73 Y69.823 E17.28602
G1 X50.912 Y67.737 E17.39048
G1 X51.02 Y66.955 E17.42987
G1 X51.148 Y66.395 E17.45853
G1 X51.689 Y64.377 E17.56276
G1 X51.932 Y63.626 E17.60214
G1 X52.154 Y63.099 E17.63067
G1 X53.04 Y61.2 E17.73521
G1 X53.41 Y60.502 E17.77463
G1 X53.719 Y60.025 E17.80298
G1 X54.916 Y58.315 E17.90712
G1 X55.401 Y57.692 E17.94651
G1 X55.791 Y57.273 E17.97507
G0 F3600 X56.073 Y57.555
G1 F1800 X57.555 Y56.073 E18.07963
G1 X58.127 Y55.559 E18.118
G1 X58.544 Y55.244 E18.14407
G1 X60.254 Y54.047 E18.24821
G1 X60.907 Y53.639 E18.28662
G1 X61.368 Y53.404 E18.31244
G1 X63.266 Y52.518 E18.41694
G1 X63.979 Y52.229 E18.45532
G1 X64.481 Y52.075 E18.48152
G1 X66.5 Y51.534 E18.5858
G1 X67.252 Y51.374 E18.62416
G1 X67.775 Y51.31 E18.65044
G1 X69.652 Y51.147 E18.74444
G1 X70.289 Y51.119 E18.77625
G1 X123.596 Y51.1 E21.43575
G1 X129.499 Y51.1 E21.73025
G1 X130.142 Y51.128 E21.76236
G1 X132.228 Y51.31 E21.86682
G1 X132.99 Y51.417 E21.90521
G1 X133.5 Y51.534 E21.93132
G1 X135.519 Y52.075 E22.0356
G1 X136.251 Y52.313 E22.074
G1 X136.734 Y52.518 E22.10018
G1 X138.632 Y53.404 E22.20468
G1 X139.311 Y53.765 E22.24305
G1 X139.746 Y54.047 E22.26891
G1 X141.456 Y55.244 E22.37305
G1 X142.062 Y55.717 E22.4114
G1 X142.445 Y56.073 E22.43749
G1 X143.927 Y57.555 E22.54205
G1 X144.441 Y58.127 E22.58042
G1 X144.756 Y58.544 E22.60649
G1 X145.953 Y60.254 E22.71063
G1 X146.361 Y60.907 E22.74904
G1 X146.596 Y61.368 E22.77486
G1 X147.481 Y63.264 E22.87924
G1 X147.77 Y63.977 E22.91763
G1 X147.923 Y64.477 E22.94371
G1 X148.465 Y66.498 E23.04811
G1 X148.626 Y67.25 E23.08647
G1 X148.69 Y67.774 E23.11281
G1 X148.853 Y69.649 E23.20671
G1 X148.881 Y70.287 E23.23857
G1 X148.9 Y123.596 E25.89816
G1 X148.9 Y129.499 E26.19267
G1 X148.872 Y130.142 E26.22478
G1 X148.69 Y132.228 E26.32924
G1 X148.583 Y132.99 E26.36763
G1 X148.466 Y133.501 E26.39379
G1 X147.925 Y135.519 E26.49802
G1 X147.687 Y136.251 E26.53642
G1 X147.483 Y136.732 E26.56249
G1 X146.597 Y138.631 E26.66703
G1 X146.236 Y139.31 E26.7054
G1 X145.953 Y139.746 E26.73133
G1 X144.756 Y141.456 E26.83547
G1 X144.283 Y142.062 E26.87382
G1 X143.927 Y142.445 E26.89991
G1 X142.445 Y143.927 E27.00447
G1 X141.873 Y144.441 E27.04284
G1 X141.456 Y144.756 E27.06891
G1 X139.746 Y145.953 E27.17305
G1 X139.093 Y146.361 E27.21146
G1 X138.632 Y146.596 E27.23728
G1 X136.734 Y147.482 E27.34178
G1 X136.021 Y147.771 E27.38016
G1 X135.519 Y147.925 E27.40636
G1 X133.5 Y148.466 E27.51064
G1 X132.748 Y148.626 E27.549
G1 X132.225 Y148.69 E27.57528
G1 X130.348 Y148.853 E27.66928
G1 X129.711 Y148.881 E27.70109
G1 X76.404 Y148.9 E30.36059
G1 X70.501 Y148.9 E30.65509
G1 X69.86 Y148.872 E30.6871
G1 X67.984 Y148.709 E30.78105
G1 X67.958 Y148.707 E30.78235
G1 X67.748 Y148.688 E30.79287
G1 X66.987 Y148.579 E30.83122
G1 X66.5 Y148.466 E30.85616
G1 X64.481 Y147.925 E30.96044
G1 X63.749 Y147.687 E30.99885
G1 X63.266 Y147.482 E31.02502
G1 X61.368 Y146.596 E31.12952
G1 X60.689 Y146.235 E31.16789
G1 X60.254 Y145.953 E31.19375
G1 X58.544 Y144.756 E31.29789
G1 X57.938 Y144.283 E31.33624
G1 X57.555 Y143.927 E31.36233
G1 X56.073 Y142.445 E31.46689
G1 X55.559 Y141.873 E31.50526
G1 X55.244 Y141.456 E31.53133
G1 X54.047 Y139.746 E31.63547
G1 X53.639 Y139.093 E31.67388
G1 X53.403 Y138.631 E31.69977
G1 X52.517 Y136.732 E31.80431
G1 X52.228 Y136.019 E31.84269
G1 X52.075 Y135.519 E31.86878
G1 X51.534 Y133.501 E31.97302
G1 X51.374 Y132.749 E32.01137
G1 X51.31 Y132.226 E32.03766
G1 X51.147 Y130.351 E32.13156
G1 X51.119 Y129.713 E32.16342
G1 X51.1 Y76.404 E34.82301
G1 X51.1 Y70.501 E35.11752
G1 X51.128 Y69.858 E35.14963
G1 X51.31 Y67.772 E35.25409
G1 X51.417 Y67.01 E35.29248
G1 X51.534 Y66.499 E35.31864
G1 X52.075 Y64.481 E35.42287
G1 X52.313 Y63.749 E35.46127
G1 X52.517 Y63.268 E35.48734
G1 X53.403 Y61.369 E35.59188
G1 X53.764 Y60.69 E35.63025
G1 X54.047 Y60.254 E35.65618
G1 X55.244 Y58.544 E35.76032
G1 X55.717 Y57.938 E35.79867
G1 X56.073 Y57.555 E35.82476
G0 F3600 X56.356 Y57.838
G1 F1800 X57.838 Y56.356 E35.92932
G1 X58.395 Y55.856 E35.96666
G1 X58.774 Y55.571 E35.99032
G1 X60.484 Y54.374 E36.09446
G1 X61.119 Y53.979 E36.13177
G1 X61.537 Y53.766 E36.15517
G1 X63.435 Y52.88 E36.25967
G1 X64.129 Y52.6 E36.29701
G1 X64.584 Y52.462 E36.32073
G1 X66.603 Y51.921 E36.42501
G1 X67.335 Y51.766 E36.46234
G1 X67.809 Y51.708 E36.48617
G1 X69.686 Y51.545 E36.58016
G1 X70.29 Y51.519 E36.61032
G1 X123.597 Y51.5 E39.26982
G1 X129.499 Y51.5 E39.56427
G1 X130.107 Y51.526 E39.59463
G1 X132.193 Y51.708 E39.6991
G1 X132.934 Y51.813 E39.73644
G1 X133.397 Y51.921 E39.76016
G1 X135.416 Y52.462 E39.86444
G1 X136.127 Y52.693 E39.90174
G1 X136.565 Y52.88 E39.9255
G1 X138.463 Y53.766 E40.03
G1 X139.123 Y54.118 E40.06732
G1 X139.516 Y54.374 E40.09071
G1 X141.226 Y55.571 E40.19485
G1 X141.815 Y56.032 E40.23217
G1 X142.162 Y56.356 E40.25585
G1 X143.644 Y57.838 E40.36042
G1 X144.144 Y58.395 E40.39776
G1 X144.429 Y58.774 E40.42142
G1 X145.626 Y60.484 E40.52555
G1 X146.021 Y61.119 E40.56286
G1 X146.234 Y61.537 E40.58627
G1 X147.119 Y63.433 E40.69066
G1 X147.399 Y64.127 E40.72799
G1 X147.537 Y64.581 E40.75167
G1 X148.079 Y66.602 E40.85606
G1 X148.234 Y67.334 E40.89339
G1 X148.292 Y67.809 E40.91726
G1 X148.455 Y69.684 E41.01116
G1 X148.481 Y70.288 E41.04132
G1 X148.5 Y123.597 E43.70092
G1 X148.5 Y129.499 E43.99537
G1 X148.474 Y130.107 E44.02573
G1 X148.292 Y132.193 E44.1302
G1 X148.187 Y132.934 E44.16753
G1 X148.079 Y133.398 E44.1913
G1 X147.538 Y135.416 E44.29553
G1 X147.306 Y136.127 E44.33285
G1 X147.121 Y136.563 E44.35648
G1 X146.235 Y138.462 E44.46102
G1 X145.882 Y139.122 E44.49836
G1 X145.626 Y139.516 E44.52181
G1 X144.429 Y141.226 E44.62594
G1 X143.968 Y141.815 E44.66326
G1 X143.644 Y142.162 E44.68694
G1 X142.162 Y143.644 E44.79151
G1 X141.605 Y144.144 E44.82885
G1 X141.226 Y144.429 E44.85251
G1 X139.516 Y145.626 E44.95664
G1 X138.881 Y146.021 E44.99395
G1 X138.463 Y146.234 E45.01736
G1 X136.565 Y147.12 E45.12186
G1 X135.871 Y147.4 E45.1592
G1 X135.416 Y147.538 E45.18292
G1 X133.397 Y148.079 E45.2872
G1 X132.665 Y148.234 E45.32453
G1 X132.191 Y148.292 E45.34835
G1 X130.314 Y148.455 E45.44235
G1 X129.71 Y148.481 E45.47251
G1 X76.403 Y148.5 E48.13201
G1 X70.501 Y148.5 E48.42646
G1 X69.895 Y148.474 E48.45672
G1 X68.019 Y148.311 E48.55067
G1 X67.994 Y148.309 E48.55192
G1 X67.784 Y148.29 E48.56244
G1 X67.044 Y148.182 E48.59975
G1 X66.603 Y148.079 E48.62234
G1 X64.584 Y147.538 E48.72662
G1 X63.873 Y147.307 E48.76392
G1 X63.435 Y147.12 E48.78768
G1 X61.537 Y146.234 E48.89218
G1 X60.877 Y145.882 E48.9295
G1 X60.484 Y145.626 E48.9529
G1 X58.774 Y144.429 E49.05704
G1 X58.185 Y143.968 E49.09435
G1 X57.838 Y143.644 E49.11804
G1 X56.356 Y142.162 E49.2226
G1 X55.856 Y141.605 E49.25994
G1 X55.571 Y141.226 E49.2836
G1 X54.374 Y139.516 E49.38774
G1 X53.979 Y138.881 E49.42505
G1 X53.765 Y138.462 E49.44852
G1 X52.879 Y136.563 E49.55307
G1 X52.6 Y135.869 E49.59038
G1 X52.462 Y135.416 E49.61401
G1 X51.921 Y133.398 E49.71824
G1 X51.766 Y132.666 E49.75557
G1 X51.708 Y132.191 E49.77944
G1 X51.545 Y130.316 E49.87334
G1 X51.519 Y129.712 E49.9035
G1 X51.5 Y76.403 E52.5631
G1 X51.5 Y70.501 E52.85755
G1 X51.526 Y69.893 E52.88791
G1 X51.708 Y67.807 E52.99238
G1 X51.813 Y67.066 E53.02972
G1 X51.921 Y66.602 E53.05349
G1 X52.462 Y64.584 E53.15772
G1 X52.694 Y63.873 E53.19503
G1 X52.879 Y63.437 E53.21866
G1 X53.765 Y61.538 E53.32321
G1 X54.118 Y60.878 E53.36055
G1 X54.374 Y60.484 E53.38399
G1 X55.571 Y58.774 E53.48813
G1 X56.032 Y58.185 E53.52544
G1 X56.356 Y57.838 E53.54913
G0 F3600 X56.639 Y58.121
G1 F1800 X58.121 Y56.639 E53.65369
G1 X58.662 Y56.155 E53.68991
G1 X59.003 Y55.899 E53.71118
G1 X60.713 Y54.702 E53.81532
G1 X61.33 Y54.319 E53.85155
G1 X61.706 Y54.129 E53.87256
G1 X63.604 Y53.243 E53.97706
G1 X64.278 Y52.972 E54.01331
G1 X64.688 Y52.848 E54.03468
G1 X66.707 Y52.307 E54.13896
G1 X67.418 Y52.158 E54.1752
G1 X67.844 Y52.107 E54.19661
G1 X69.721 Y51.944 E54.2906
G1 X70.29 Y51.919 E54.31902
G1 X123.597 Y51.9 E56.97852
G1 X129.499 Y51.9 E57.27297
G1 X130.073 Y51.925 E57.30163
G1 X132.159 Y52.107 E57.4061
G1 X132.878 Y52.21 E57.44233
G1 X133.293 Y52.307 E57.4636
G1 X135.312 Y52.848 E57.56788
G1 X136.002 Y53.074 E57.6041
G1 X136.396 Y53.243 E57.62549
G1 X138.294 Y54.129 E57.72999
G1 X138.934 Y54.472 E57.76622
G1 X139.287 Y54.702 E57.78724
G1 X140.997 Y55.899 E57.89137
G1 X141.568 Y56.348 E57.92761
G1 X141.879 Y56.639 E57.94886
G1 X143.361 Y58.121 E58.05343
G1 X143.845 Y58.662 E58.08964
G1 X144.101 Y59.003 E58.11092
G1 X145.298 Y60.713 E58.21505
G1 X145.681 Y61.33 E58.25128
G1 X145.872 Y61.706 E58.27232
G1 X146.757 Y63.602 E58.37671
G1 X147.027 Y64.277 E58.41298
G1 X147.151 Y64.684 E58.43421
G1 X147.693 Y66.705 E58.5386
G1 X147.842 Y67.416 E58.57484
G1 X147.893 Y67.843 E58.5963
G1 X148.056 Y69.718 E58.69019
G1 X148.081 Y70.288 E58.71866
G1 X148.1 Y123.597 E61.37826
G1 X148.1 Y129.499 E61.67271
G1 X148.075 Y130.073 E61.70137
G1 X147.893 Y132.159 E61.80584
G1 X147.79 Y132.878 E61.84208
G1 X147.693 Y133.294 E61.86339
G1 X147.152 Y135.312 E61.96762
G1 X146.925 Y136.002 E62.00386
G1 X146.758 Y136.394 E62.02512
G1 X145.872 Y138.293 E62.12966
G1 X145.529 Y138.933 E62.16589
G1 X145.298 Y139.287 E62.18698
G1 X144.101 Y140.997 E62.29111
G1 X143.652 Y141.568 E62.32735
G1 X143.361 Y141.879 E62.3486
G1 X141.879 Y143.361 E62.45317
G1 X141.338 Y143.845 E62.48938
G1 X140.997 Y144.101 E62.51065
G1 X139.287 Y145.298 E62.61479
G1 X138.67 Y145.681 E62.65102
G1 X138.294 Y145.871 E62.67204
G1 X136.396 Y146.757 E62.77654
G1 X135.722 Y147.028 E62.81278
G1 X135.312 Y147.152 E62.83415
G1 X133.293 Y147.693 E62.93843
G1 X132.582 Y147.842 E62.97468
G1 X132.156 Y147.893 E62.99608
G1 X130.279 Y148.056 E63.09008
G1 X129.71 Y148.081 E63.11849
G1 X76.403 Y148.1 E65.77799
G1 X70.501 Y148.1 E66.07244
G1 X69.93 Y148.075 E66.10096
G1 X68.054 Y147.912 E66.1949
G1 X68.03 Y147.91 E66.19611
G1 X67.82 Y147.891 E66.20663
G1 X67.102 Y147.786 E66.24283
G1 X66.707 Y147.693 E66.26307
G1 X64.688 Y147.152 E66.36735
G1 X63.998 Y146.926 E66.40358
G1 X63.604 Y146.757 E66.42497
G1 X61.706 Y145.871 E66.52947
G1 X61.066 Y145.528 E66.56569
G1 X60.713 Y145.298 E66.58671
G1 X59.003 Y144.101 E66.69085
G1 X58.432 Y143.652 E66.72709
G1 X58.121 Y143.361 E66.74834
G1 X56.639 Y141.879 E66.8529
G1 X56.155 Y141.338 E66.88912
G1 X55.899 Y140.997 E66.91039
G1 X54.702 Y139.287 E67.01453
G1 X54.319 Y138.67 E67.05076
G1 X54.128 Y138.293 E67.07184
G1 X53.242 Y136.394 E67.17639
G1 X52.972 Y135.719 E67.21266
G1 X52.848 Y135.312 E67.23389
G1 X52.307 Y133.294 E67.33812
G1 X52.158 Y132.583 E67.37436
G1 X52.107 Y132.157 E67.39577
G1 X51.944 Y130.282 E67.48966
G1 X51.919 Y129.712 E67.51813
G1 X51.9 Y76.403 E70.17773
G1 X51.9 Y70.501 E70.47218
G1 X51.925 Y69.927 E70.50084
G1 X52.107 Y67.841 E70.60531
G1 X52.21 Y67.122 E70.64155
G1 X52.307 Y66.706 E70.66286
G1 X52.848 Y64.688 E70.76709
G1 X53.075 Y63.998 E70.80333
G1 X53.242 Y63.606 E70.82459
G1 X54.128 Y61.707 E70.92913
G1 X54.471 Y61.067 E70.96536
G1 X54.702 Y60.713 E70.98645
G1 X55.899 Y59.003 E71.09058
G1 X56.348 Y58.432 E71.12682
G1 X56.639 Y58.121 E71.14807
G0 F3600 X56.922 Y58.404
G1 F1800 X58.404 Y56.922 E71.25264
G1 X58.929 Y56.453 E71.28776
G1 X59.233 Y56.227 E71.30666
G1 X60.943 Y55.03 E71.41079
G1 X61.541 Y54.659 E71.4459
G1 X61.875 Y54.491 E71.46456
G1 X63.773 Y53.605 E71.56906
G1 X64.427 Y53.344 E71.60419
G1 X64.791 Y53.234 E71.62316
G1 X66.81 Y52.693 E71.72744
G1 X67.5 Y52.55 E71.7626
G1 X67.879 Y52.505 E71.78164
G1 X69.756 Y52.342 E71.87563
G1 X70.29 Y52.319 E71.9023
G1 X123.597 Y52.3 E74.5618
G1 X129.499 Y52.3 E74.85625
G1 X130.038 Y52.323 E74.88316
G1 X132.124 Y52.505 E74.98763
G1 X132.821 Y52.606 E75.02277
G1 X133.19 Y52.693 E75.04168
G1 X135.209 Y53.234 E75.14596
G1 X135.877 Y53.455 E75.18107
G1 X136.227 Y53.605 E75.20006
G1 X138.125 Y54.491 E75.30456
G1 X138.745 Y54.824 E75.33967
G1 X139.057 Y55.03 E75.35833
G1 X140.767 Y56.227 E75.46246
G1 X141.32 Y56.663 E75.4976
G1 X141.596 Y56.922 E75.51648
G1 X143.078 Y58.404 E75.62104
G1 X143.547 Y58.929 E75.65617
G1 X143.773 Y59.233 E75.67506
G1 X144.97 Y60.943 E75.7792
G1 X145.341 Y61.541 E75.81431
G1 X145.509 Y61.876 E75.83301
G1 X146.394 Y63.772 E75.9374
G1 X146.655 Y64.425 E75.97248
G1 X146.764 Y64.788 E75.99139
G1 X147.306 Y66.809 E76.09578
G1 X147.45 Y67.498 E76.1309
G1 X147.495 Y67.878 E76.14999
