;FLAVOR:Marlin
;TIME:11996
;Filament used: 6.45557m
;Layer height: 0.1
;MINX:37.199
;MINY:74.199
;MINZ:0.3
;MAXX:162.801
;MAXY:125.801
;MAXZ:26
;Generated with Cura_SteamEngine 4.1.0
M140 S60
M105
M190 S60
M104 S200
M105
M109 S200
M82 ;absolute extrusion mode
G21 ;metric values
 G90 ;absolute positioning
 M82 ;set extruder to absolute mode
 M107 ;start with the fan off
 G28 X0 Y0 ;move X/Y to min endstops
 G28 Z0 ;move Z to min endstops
 G1 Z15.0 F120 ;move the platform down 15mm
 G92 E0 ;zero the extruded length
 G1 F200 E6 ;extrude 6 mm of feed stock
 G92 E0 ;zero the extruded length again
 G1 F120 
 ;Put printing message on LCD screen
 M117 Printing...
G92 E0
G92 E0
G1 F1500 E-6.5
;LAYER_COUNT:258
;LAYER:0
M107
G0 F3600 X41.56 Y74.998 Z0.3
;TYPE:SKIRT
G1 F1500 E0
G1 F1800 X42.285 Y74.686 E0.03938
G1 X43.038 Y74.449 E0.07876
G1 X43.812 Y74.29 E0.11818
G1 X44.597 Y74.209 E0.15755
G1 X44.999 Y74.199 E0.17762
G1 X155.001 Y74.199 E5.66564
G1 X155.79 Y74.239 E5.70505
G1 X156.57 Y74.358 E5.74442
G1 X157.335 Y74.556 E5.78384
G1 X158.075 Y74.83 E5.82321
G1 X158.784 Y75.178 E5.86261
G1 X159.455 Y75.596 E5.90205
G1 X160.079 Y76.079 E5.94142
G1 X160.652 Y76.622 E5.98081
G1 X161.167 Y77.221 E6.02022
G1 X161.618 Y77.869 E6.0596
G1 X162.002 Y78.56 E6.09904
G1 X162.314 Y79.285 E6.13842
G1 X162.551 Y80.038 E6.17781
G1 X162.71 Y80.812 E6.21723
G1 X162.791 Y81.597 E6.2566
G1 X162.801 Y81.999 E6.27666
G1 X162.801 Y118.001 E8.07281
G1 X162.761 Y118.79 E8.11222
G1 X162.642 Y119.57 E8.15159
G1 X162.444 Y120.335 E8.19101
G1 X162.17 Y121.075 E8.23038
G1 X161.822 Y121.784 E8.26978
G1 X161.404 Y122.455 E8.30922
G1 X160.921 Y123.079 E8.34859
G1 X160.378 Y123.652 E8.38797
G1 X159.779 Y124.167 E8.42739
G1 X159.131 Y124.618 E8.46677
G1 X158.44 Y125.002 E8.50621
G1 X157.715 Y125.314 E8.54559
G1 X156.962 Y125.551 E8.58497
G1 X156.188 Y125.71 E8.6244
G1 X155.403 Y125.791 E8.66377
G1 X155.001 Y125.801 E8.68383
G1 X44.999 Y125.801 E14.17185
G1 X44.21 Y125.761 E14.21127
G1 X43.43 Y125.642 E14.25063
G1 X42.665 Y125.444 E14.29005
G1 X41.925 Y125.17 E14.32942
G1 X41.216 Y124.822 E14.36883
G1 X40.545 Y124.404 E14.40827
G1 X39.921 Y123.921 E14.44763
G1 X39.348 Y123.378 E14.48702
G1 X38.833 Y122.779 E14.52643
G1 X38.382 Y122.131 E14.56582
G1 X37.998 Y121.44 E14.60526
G1 X37.686 Y120.715 E14.64463
G1 X37.449 Y119.962 E14.68402
G1 X37.29 Y119.188 E14.72344
G1 X37.209 Y118.403 E14.76281
G1 X37.199 Y118.001 E14.78287
G1 X37.199 Y81.999 E16.57902
G1 X37.239 Y81.21 E16.61844
G1 X37.358 Y80.43 E16.6578
G1 X37.556 Y79.665 E16.69722
G1 X37.83 Y78.925 E16.73659
G1 X38.178 Y78.216 E16.77599
G1 X38.596 Y77.545 E16.81544
G1 X39.079 Y76.921 E16.8548
G1 X39.622 Y76.348 E16.89419
G1 X40.221 Y75.833 E16.9336
G1 X40.869 Y75.382 E16.97299
G1 X41.56 Y74.998 E17.01243
G0 F3600 X41.935 Y75.263
G1 F1800 X42.65 Y74.982 E17.05075
G1 X43.392 Y74.776 E17.08917
G1 X44.15 Y74.648 E17.12752
G1 X44.999 Y74.599 E17.16995
G1 X155.001 Y74.599 E22.65797
G1 X155.769 Y74.639 E22.69634
G1 X156.529 Y74.758 E22.73472
G1 X157.272 Y74.956 E22.77308
G1 X157.991 Y75.23 E22.81147
G1 X158.677 Y75.577 E22.84982
G1 X159.324 Y75.993 E22.8882
G1 X159.924 Y76.474 E22.92656
G1 X160.471 Y77.015 E22.96495
G1 X160.959 Y77.61 E23.00334
G1 X161.382 Y78.252 E23.0417
G1 X161.737 Y78.935 E23.0801
G1 X162.018 Y79.65 E23.11843
G1 X162.224 Y80.392 E23.15685
G1 X162.352 Y81.15 E23.1952
G1 X162.401 Y81.999 E23.23762
G1 X162.401 Y118.001 E25.03377
G1 X162.361 Y118.769 E25.07214
G1 X162.242 Y119.529 E25.11052
G1 X162.044 Y120.272 E25.14888
G1 X161.77 Y120.991 E25.18727
G1 X161.423 Y121.677 E25.22562
G1 X161.007 Y122.324 E25.264
G1 X160.526 Y122.924 E25.30236
G1 X159.985 Y123.471 E25.34075
G1 X159.39 Y123.959 E25.37914
G1 X158.748 Y124.382 E25.41749
G1 X158.065 Y124.737 E25.4559
G1 X157.35 Y125.018 E25.49422
G1 X156.608 Y125.224 E25.53264
G1 X155.85 Y125.352 E25.57099
G1 X155.001 Y125.401 E25.61342
G1 X44.999 Y125.401 E31.10144
G1 X44.231 Y125.361 E31.13981
G1 X43.471 Y125.242 E31.17819
G1 X42.728 Y125.044 E31.21655
G1 X42.009 Y124.77 E31.25494
G1 X41.323 Y124.423 E31.29329
G1 X40.676 Y124.007 E31.33167
G1 X40.076 Y123.526 E31.37003
G1 X39.529 Y122.985 E31.40842
G1 X39.041 Y122.39 E31.44681
G1 X38.618 Y121.748 E31.48517
G1 X38.263 Y121.065 E31.52357
G1 X37.982 Y120.35 E31.5619
G1 X37.776 Y119.608 E31.60032
G1 X37.648 Y118.85 E31.63867
G1 X37.599 Y118.001 E31.68109
G1 X37.599 Y81.999 E33.47724
G1 X37.639 Y81.231 E33.51561
G1 X37.758 Y80.471 E33.55399
G1 X37.956 Y79.728 E33.59235
G1 X38.23 Y79.009 E33.63074
G1 X38.577 Y78.323 E33.66909
G1 X38.993 Y77.676 E33.70747
G1 X39.474 Y77.076 E33.74583
G1 X40.015 Y76.529 E33.78422
G1 X40.61 Y76.041 E33.82261
G1 X41.252 Y75.618 E33.86096
G1 X41.935 Y75.263 E33.89937
G0 F3600 X41.633 Y75.861
G1 F1800 X42.307 Y75.537 E33.93668
G1 X43.012 Y75.287 E33.97399
G1 X43.74 Y75.113 E34.01134
G1 X44.482 Y75.018 E34.04866
G1 X44.999 Y74.999 E34.07447
G1 X155.001 Y74.999 E39.56249
G1 X155.748 Y75.039 E39.59981
G1 X156.486 Y75.158 E39.63711
G1 X157.208 Y75.356 E39.67446
G1 X157.904 Y75.629 E39.71176
G1 X158.567 Y75.976 E39.74909
G1 X159.19 Y76.391 E39.78644
G1 X159.764 Y76.87 E39.82374
G1 X160.285 Y77.407 E39.86106
G1 X160.744 Y77.997 E39.89836
G1 X161.139 Y78.633 E39.93571
G1 X161.463 Y79.307 E39.97302
G1 X161.713 Y80.012 E40.01034
G1 X161.887 Y80.74 E40.04768
G1 X161.982 Y81.482 E40.085
G1 X162.001 Y81.999 E40.11081
G1 X162.001 Y118.001 E41.90696
G1 X161.961 Y118.748 E41.94428
G1 X161.842 Y119.486 E41.98157
G1 X161.644 Y120.208 E42.01893
G1 X161.371 Y120.904 E42.05622
G1 X161.024 Y121.567 E42.09356
G1 X160.609 Y122.19 E42.1309
G1 X160.13 Y122.764 E42.1682
G1 X159.593 Y123.285 E42.20553
G1 X159.003 Y123.744 E42.24282
G1 X158.367 Y124.139 E42.28018
G1 X157.693 Y124.463 E42.31749
G1 X156.988 Y124.713 E42.3548
G1 X156.26 Y124.887 E42.39215
G1 X155.518 Y124.982 E42.42947
G1 X155.001 Y125.001 E42.45528
G1 X44.999 Y125.001 E47.9433
G1 X44.252 Y124.961 E47.98062
G1 X43.514 Y124.842 E48.01792
G1 X42.792 Y124.644 E48.05527
G1 X42.096 Y124.371 E48.09257
G1 X41.433 Y124.024 E48.1299
G1 X40.81 Y123.609 E48.16725
G1 X40.236 Y123.13 E48.20454
G1 X39.715 Y122.593 E48.24187
G1 X39.256 Y122.003 E48.27917
G1 X38.861 Y121.367 E48.31652
G1 X38.537 Y120.693 E48.35383
G1 X38.287 Y119.988 E48.39115
G1 X38.113 Y119.26 E48.42849
G1 X38.018 Y118.518 E48.46581
G1 X37.999 Y118.001 E48.49162
G1 X37.999 Y81.999 E50.28777
G1 X38.039 Y81.252 E50.32509
G1 X38.158 Y80.514 E50.36238
G1 X38.356 Y79.792 E50.39973
G1 X38.629 Y79.096 E50.43703
G1 X38.976 Y78.433 E50.47437
G1 X39.391 Y77.81 E50.51171
G1 X39.87 Y77.236 E50.54901
G1 X40.407 Y76.715 E50.58634
G1 X40.997 Y76.256 E50.62363
G1 X41.633 Y75.861 E50.66099
G0 F3600 X42.012 Y76.114
G1 F1800 X42.677 Y75.821 E50.69724
G1 X43.37 Y75.603 E50.73348
G1 X44.082 Y75.463 E50.76969
G1 X44.999 Y75.399 E50.81555
G1 X155.001 Y75.399 E56.30357
G1 X155.726 Y75.439 E56.33979
G1 X156.443 Y75.558 E56.37605
G1 X157.142 Y75.756 E56.4123
G1 X157.815 Y76.029 E56.44853
G1 X158.454 Y76.374 E56.48476
G1 X159.051 Y76.788 E56.52101
G1 X159.599 Y77.264 E56.55722
G1 X160.092 Y77.798 E56.59348
G1 X160.522 Y78.383 E56.6297
G1 X160.886 Y79.012 E56.66596
G1 X161.179 Y79.677 E56.70221
G1 X161.397 Y80.37 E56.73846
G1 X161.537 Y81.082 E56.77466
G1 X161.601 Y81.999 E56.82052
G1 X161.601 Y118.001 E58.61667
G1 X161.561 Y118.726 E58.65289
G1 X161.442 Y119.443 E58.68915
G1 X161.244 Y120.142 E58.7254
G1 X160.971 Y120.815 E58.76163
G1 X160.626 Y121.454 E58.79786
G1 X160.212 Y122.051 E58.83411
G1 X159.736 Y122.599 E58.87032
G1 X159.202 Y123.092 E58.90658
G1 X158.617 Y123.522 E58.9428
G1 X157.988 Y123.886 E58.97906
G1 X157.323 Y124.179 E59.01531
G1 X156.63 Y124.397 E59.05156
G1 X155.918 Y124.537 E59.08776
G1 X155.001 Y124.601 E59.13362
G1 X44.999 Y124.601 E64.62164
G1 X44.274 Y124.561 E64.65787
G1 X43.557 Y124.442 E64.69413
G1 X42.858 Y124.244 E64.73037
G1 X42.185 Y123.971 E64.76661
G1 X41.546 Y123.626 E64.80284
G1 X40.949 Y123.212 E64.83908
G1 X40.401 Y122.736 E64.8753
G1 X39.908 Y122.202 E64.91155
G1 X39.478 Y121.617 E64.94778
G1 X39.114 Y120.988 E64.98403
G1 X38.821 Y120.323 E65.02029
G1 X38.603 Y119.63 E65.05653
G1 X38.463 Y118.918 E65.09273
G1 X38.399 Y118.001 E65.1386
G1 X38.399 Y81.999 E66.93474
G1 X38.439 Y81.274 E66.97097
G1 X38.558 Y80.557 E67.00723
G1 X38.756 Y79.858 E67.04347
G1 X39.029 Y79.185 E67.07971
G1 X39.374 Y78.546 E67.11594
G1 X39.788 Y77.949 E67.15218
G1 X40.264 Y77.401 E67.1884
G1 X40.798 Y76.908 E67.22465
G1 X41.383 Y76.478 E67.26088
G1 X42.012 Y76.114 E67.29713
G0 F3600 X42.388 Y76.376
G1 F1800 X43.042 Y76.116 E67.33225
G1 X43.722 Y75.932 E67.36739
G1 X44.418 Y75.826 E67.40251
G1 X44.999 Y75.799 E67.43153
G1 X155.001 Y75.799 E72.91955
G1 X155.704 Y75.839 E72.95468
G1 X156.398 Y75.958 E72.98981
G1 X157.073 Y76.156 E73.02491
G1 X157.722 Y76.428 E73.06001
G1 X158.336 Y76.773 E73.09515
G1 X158.907 Y77.184 E73.13025
G1 X159.428 Y77.658 E73.16539
G1 X159.892 Y78.188 E73.20054
G1 X160.292 Y78.767 E73.23564
G1 X160.624 Y79.388 E73.27078
G1 X160.884 Y80.042 E73.30589
G1 X161.068 Y80.722 E73.34103
G1 X161.174 Y81.418 E73.37616
G1 X161.201 Y81.999 E73.40518
G1 X161.201 Y118.001 E75.20132
G1 X161.161 Y118.704 E75.23645
G1 X161.042 Y119.398 E75.27158
G1 X160.844 Y120.073 E75.30668
G1 X160.572 Y120.722 E75.34178
G1 X160.227 Y121.336 E75.37692
G1 X159.816 Y121.907 E75.41202
G1 X159.342 Y122.428 E75.44716
G1 X158.812 Y122.892 E75.4823
G1 X158.233 Y123.292 E75.51741
G1 X157.612 Y123.624 E75.55254
G1 X156.958 Y123.884 E75.58766
G1 X156.278 Y124.068 E75.6228
G1 X155.582 Y124.174 E75.65793
G1 X155.001 Y124.201 E75.68694
G1 X44.999 Y124.201 E81.17497
G1 X44.296 Y124.161 E81.21009
G1 X43.602 Y124.042 E81.24522
G1 X42.927 Y123.844 E81.28032
G1 X42.278 Y123.572 E81.31543
G1 X41.664 Y123.227 E81.35056
G1 X41.093 Y122.816 E81.38566
G1 X40.572 Y122.342 E81.4208
G1 X40.108 Y121.812 E81.45595
G1 X39.708 Y121.233 E81.49106
G1 X39.376 Y120.612 E81.52619
G1 X39.116 Y119.958 E81.5613
G1 X38.932 Y119.278 E81.59644
G1 X38.826 Y118.582 E81.63157
G1 X38.799 Y118.001 E81.66059
G1 X38.799 Y81.999 E83.45673
G1 X38.839 Y81.296 E83.49186
G1 X38.958 Y80.602 E83.52699
G1 X39.156 Y79.927 E83.56209
G1 X39.428 Y79.278 E83.59719
G1 X39.773 Y78.664 E83.63233
G1 X40.184 Y78.093 E83.66743
G1 X40.658 Y77.572 E83.70257
G1 X41.188 Y77.108 E83.73771
G1 X41.767 Y76.708 E83.77282
G1 X42.388 Y76.376 E83.80796
G0 F3600 X42.149 Y76.947
G1 F1800 X42.761 Y76.648 E83.84194
G1 X43.403 Y76.423 E83.87588
G1 X44.068 Y76.274 E83.90988
G1 X44.999 Y76.199 E83.95647
G1 X155.001 Y76.199 E89.4445
G1 X155.681 Y76.239 E89.47848
G1 X156.351 Y76.358 E89.51243
G1 X157.003 Y76.555 E89.54641
G1 X157.627 Y76.827 E89.58037
G1 X158.215 Y77.171 E89.61436
G1 X158.759 Y77.581 E89.64834
G1 X159.25 Y78.052 E89.68229
G1 X159.684 Y78.577 E89.71627
G1 X160.053 Y79.149 E89.75023
G1 X160.352 Y79.761 E89.78421
G1 X160.577 Y80.403 E89.81815
G1 X160.726 Y81.068 E89.85215
G1 X160.801 Y81.999 E89.89875
G1 X160.801 Y118.001 E91.6949
G1 X160.761 Y118.681 E91.72888
G1 X160.642 Y119.351 E91.76283
G1 X160.445 Y120.003 E91.79681
G1 X160.173 Y120.627 E91.83077
G1 X159.829 Y121.215 E91.86476
G1 X159.419 Y121.759 E91.89875
G1 X158.948 Y122.25 E91.93269
G1 X158.423 Y122.684 E91.96667
G1 X157.851 Y123.053 E92.00063
G1 X157.239 Y123.352 E92.03461
G1 X156.597 Y123.577 E92.06855
G1 X155.932 Y123.726 E92.10255
G1 X155.001 Y123.801 E92.14915
G1 X44.999 Y123.801 E97.63717
G1 X44.319 Y123.761 E97.67116
G1 X43.649 Y123.642 E97.70511
G1 X42.997 Y123.445 E97.73909
G1 X42.373 Y123.173 E97.77305
G1 X41.785 Y122.829 E97.80704
G1 X41.241 Y122.419 E97.84102
G1 X40.75 Y121.948 E97.87497
G1 X40.316 Y121.423 E97.90895
G1 X39.947 Y120.851 E97.94291
G1 X39.648 Y120.239 E97.97689
G1 X39.423 Y119.597 E98.01083
G1 X39.274 Y118.932 E98.04483
G1 X39.199 Y118.001 E98.09143
G1 X39.199 Y81.999 E99.88758
G1 X39.239 Y81.319 E99.92156
G1 X39.358 Y80.649 E99.95551
G1 X39.555 Y79.997 E99.98949
G1 X39.827 Y79.373 E100.02345
G1 X40.171 Y78.785 E100.05744
G1 X40.581 Y78.241 E100.09142
G1 X41.052 Y77.75 E100.12537
G1 X41.577 Y77.316 E100.15935
G1 X42.149 Y76.947 E100.19331
G0 F3600 X42.528 Y77.197
G1 F1800 X43.13 Y76.933 E100.22611
G1 X43.759 Y76.743 E100.25889
G1 X44.406 Y76.632 E100.29164
G1 X44.999 Y76.599 E100.32127
G1 X155.001 Y76.599 E105.80929
G1 X155.657 Y76.639 E105.84208
G1 X156.303 Y76.758 E105.87485
G1 X156.93 Y76.955 E105.90764
G1 X157.528 Y77.227 E105.94041
G1 X158.089 Y77.569 E105.97319
G1 X158.604 Y77.977 E106.00597
G1 X159.066 Y78.444 E106.03875
G1 X159.467 Y78.964 E106.07151
G1 X159.803 Y79.528 E106.10426
G1 X160.067 Y80.13 E106.13706
G1 X160.257 Y80.759 E106.16984
G1 X160.368 Y81.406 E106.20259
G1 X160.401 Y81.999 E106.23222
G1 X160.401 Y118.001 E108.02837
G1 X160.361 Y118.657 E108.06115
G1 X160.242 Y119.303 E108.09393
G1 X160.045 Y119.93 E108.12671
G1 X159.773 Y120.528 E108.15949
G1 X159.431 Y121.089 E108.19227
G1 X159.023 Y121.604 E108.22505
G1 X158.556 Y122.066 E108.25782
G1 X158.036 Y122.467 E108.29058
G1 X157.472 Y122.803 E108.32334
G1 X156.87 Y123.067 E108.35613
G1 X156.241 Y123.257 E108.38891
G1 X155.594 Y123.368 E108.42166
G1 X155.001 Y123.401 E108.45129
G1 X44.999 Y123.401 E113.93932
G1 X44.343 Y123.361 E113.9721
G1 X43.697 Y123.242 E114.00488
G1 X43.07 Y123.045 E114.03766
G1 X42.472 Y122.773 E114.07044
G1 X41.911 Y122.431 E114.10322
G1 X41.396 Y122.023 E114.136
G1 X40.934 Y121.556 E114.16877
G1 X40.533 Y121.036 E114.20153
G1 X40.197 Y120.472 E114.23429
G1 X39.933 Y119.87 E114.26708
G1 X39.743 Y119.241 E114.29986
G1 X39.632 Y118.594 E114.33261
G1 X39.599 Y118.001 E114.36224
G1 X39.599 Y81.999 E116.15839
G1 X39.639 Y81.343 E116.19118
G1 X39.758 Y80.697 E116.22395
G1 X39.955 Y80.07 E116.25674
G1 X40.227 Y79.472 E116.28951
G1 X40.569 Y78.911 E116.32229
G1 X40.977 Y78.396 E116.35507
G1 X41.444 Y77.934 E116.38785
G1 X41.964 Y77.533 E116.42061
G1 X42.528 Y77.197 E116.45336
G0 F3600 X42.905 Y77.459
G1 F1800 X43.494 Y77.231 E116.48487
G1 X44.108 Y77.079 E116.51643
G1 X44.999 Y76.999 E116.56106
G1 X155.001 Y76.999 E122.04908
G1 X155.632 Y77.039 E122.08062
G1 X156.253 Y77.158 E122.11217
G1 X156.853 Y77.355 E122.14368
G1 X157.425 Y77.626 E122.17525
G1 X157.957 Y77.966 E122.20675
G1 X158.442 Y78.372 E122.23831
G1 X158.872 Y78.835 E122.26983
G1 X159.241 Y79.349 E122.3014
G1 X159.541 Y79.905 E122.33292
G1 X159.769 Y80.494 E122.36443
G1 X159.921 Y81.108 E122.39599
G1 X160.001 Y81.999 E122.44062
G1 X160.001 Y118.001 E124.23677
G1 X159.961 Y118.632 E124.26831
G1 X159.842 Y119.253 E124.29986
G1 X159.645 Y119.853 E124.33136
G1 X159.374 Y120.425 E124.36294
G1 X159.034 Y120.957 E124.39444
G1 X158.628 Y121.442 E124.42599
G1 X158.165 Y121.872 E124.45752
G1 X157.651 Y122.241 E124.48909
G1 X157.095 Y122.541 E124.52061
G1 X156.506 Y122.769 E124.55212
G1 X155.892 Y122.921 E124.58367
G1 X155.001 Y123.001 E124.6283
G1 X44.999 Y123.001 E130.11633
G1 X44.368 Y122.961 E130.14787
G1 X43.747 Y122.842 E130.17942
G1 X43.147 Y122.645 E130.21092
G1 X42.575 Y122.374 E130.2425
G1 X42.043 Y122.034 E130.274
G1 X41.558 Y121.628 E130.30555
G1 X41.128 Y121.165 E130.33708
G1 X40.759 Y120.651 E130.36865
G1 X40.459 Y120.095 E130.40017
G1 X40.231 Y119.506 E130.43168
G1 X40.079 Y118.892 E130.46323
G1 X39.999 Y118.001 E130.50786
G1 X39.999 Y81.999 E132.30401
G1 X40.039 Y81.368 E132.33555
G1 X40.158 Y80.747 E132.3671
G1 X40.355 Y80.147 E132.39861
G1 X40.626 Y79.575 E132.43018
G1 X40.966 Y79.043 E132.46168
G1 X41.372 Y78.558 E132.49324
G1 X41.835 Y78.128 E132.52476
G1 X42.349 Y77.759 E132.55633
G1 X42.905 Y77.459 E132.58785
G0 F3600 X42.731 Y77.997
G1 F1800 X43.277 Y77.733 E132.61811
G1 X43.853 Y77.544 E132.64835
G1 X44.449 Y77.432 E132.67861
G1 X44.999 Y77.399 E132.7061
G1 X155.001 Y77.399 E138.19412
G1 X155.606 Y77.439 E138.22437
G1 X156.2 Y77.558 E138.25459
G1 X156.774 Y77.754 E138.28485
G1 X157.317 Y78.025 E138.31513
G1 X157.82 Y78.364 E138.34539
G1 X158.273 Y78.766 E138.37561
G1 X158.67 Y79.224 E138.40585
G1 X159.003 Y79.731 E138.43611
G1 X159.267 Y80.277 E138.46637
G1 X159.456 Y80.853 E138.49661
G1 X159.568 Y81.449 E138.52686
G1 X159.601 Y81.999 E138.55435
G1 X159.601 Y118.001 E140.3505
G1 X159.561 Y118.606 E140.38075
