;FLAVOR:Marlin
;TIME:2351
;Filament used: 1.49792m
;Layer height: 0.1
;MINX:43.825
;MINY:69.702
;MINZ:0.3
;MAXX:156.175
;MAXY:130.298
;MAXZ:1.2
;Generated with Cura_SteamEngine 4.1.0
M140 S60
M105
M190 S60
M104 S200
M105
M109 S200
M82 ;absolute extrusion mode
G21 ;metric values
 G90 ;absolute positioning
 M82 ;set extruder to absolute mode
 M107 ;start with the fan off
 G28 X0 Y0 ;move X/Y to min endstops
 G28 Z0 ;move Z to min endstops
 G1 Z15.0 F120 ;move the platform down 15mm
 G92 E0 ;zero the extruded length
 G1 F200 E6 ;extrude 6 mm of feed stock
 G92 E0 ;zero the extruded length again
 G1 F120 
 ;Put printing message on LCD screen
 M117 Printing...
G92 E0
G92 E0
G1 F1500 E-6.5
;LAYER_COUNT:10
;LAYER:0
M107
G0 F3600 X53.927 Y72.191 Z0.3
;TYPE:SKIRT
G1 F1500 E0
G1 F1800 X54.29 Y71.945 E0.02188
G1 X54.954 Y71.521 E0.06118
G1 X55.64 Y71.13 E0.10058
G1 X56.036 Y70.944 E0.1224
G1 X56.752 Y70.632 E0.16137
G1 X57.491 Y70.354 E0.20076
G1 X57.913 Y70.232 E0.22268
G1 X58.67 Y70.036 E0.26169
G1 X59.443 Y69.877 E0.30106
G1 X59.862 Y69.824 E0.32213
G1 X60.645 Y69.747 E0.36138
G1 X61.407 Y69.71 E0.39944
G1 X129.404 Y69.702 E3.79183
G1 X138.498 Y69.702 E4.24553
G1 X139.108 Y69.726 E4.27599
G1 X139.797 Y69.78 E4.31047
G1 X140.864 Y69.938 E4.36428
G1 X141.632 Y70.107 E4.40351
G1 X142.394 Y70.316 E4.44293
G1 X142.813 Y70.467 E4.46515
G1 X143.542 Y70.754 E4.50424
G1 X144.262 Y71.08 E4.54367
G1 X144.638 Y71.288 E4.56511
G1 X145.31 Y71.683 E4.604
G1 X145.969 Y72.117 E4.64336
G1 X146.309 Y72.381 E4.66484
G1 X146.915 Y72.879 E4.70397
G1 X147.499 Y73.41 E4.74335
G1 X147.797 Y73.728 E4.76509
G1 X148.317 Y74.314 E4.80418
G1 X148.811 Y74.93 E4.84357
G1 X149.054 Y75.289 E4.8652
G1 X149.478 Y75.952 E4.90447
G1 X149.869 Y76.638 E4.94386
G1 X150.054 Y77.031 E4.96553
G1 X150.366 Y77.745 E5.0044
G1 X150.646 Y78.483 E5.04378
G1 X150.771 Y78.918 E5.06636
G1 X150.967 Y79.677 E5.10547
G1 X151.126 Y80.45 E5.14485
G1 X151.177 Y80.862 E5.16556
G1 X151.254 Y81.643 E5.20471
G1 X151.292 Y82.355 E5.24028
G1 X151.3 Y83.538 E5.2993
G1 X151.3 Y89.347 E5.58912
G1 X151.46 Y89.457 E5.5988
G1 X152.089 Y89.936 E5.63825
G1 X152.605 Y90.413 E5.67331
G1 X153.003 Y90.816 E5.70156
G1 X153.528 Y91.405 E5.74093
G1 X153.772 Y91.724 E5.76096
G1 X154.152 Y92.249 E5.7933
G1 X154.582 Y92.911 E5.83268
G1 X154.833 Y93.382 E5.85931
G1 X155.119 Y93.964 E5.89166
G1 X155.431 Y94.689 E5.93104
G1 X155.615 Y95.247 E5.96035
G1 X155.794 Y95.869 E5.99264
G1 X155.973 Y96.638 E6.03203
G1 X156.054 Y97.198 E6.06026
G1 X156.123 Y97.844 E6.09267
G1 X156.167 Y98.625 E6.1317
G1 X156.175 Y99.953 E6.19796
G1 X156.175 Y101.249 E6.26261
G1 X156.148 Y101.901 E6.29517
G1 X156.1 Y102.473 E6.32381
G1 X155.994 Y103.256 E6.36323
G1 X155.904 Y103.673 E6.38451
G1 X155.751 Y104.299 E6.41666
G1 X155.525 Y105.056 E6.45608
G1 X155.315 Y105.585 E6.48447
G1 X155.054 Y106.179 E6.51684
G1 X154.7 Y106.885 E6.55624
G1 X154.414 Y107.351 E6.58352
G1 X154.054 Y107.894 E6.61602
G1 X153.585 Y108.529 E6.65541
G1 X153.206 Y108.958 E6.68397
G1 X152.762 Y109.425 E6.71612
G1 X152.189 Y109.97 E6.75557
G1 X151.748 Y110.322 E6.78372
G1 X151.3 Y110.653 E6.81151
G1 X151.3 Y117.497 E7.15296
G1 X151.276 Y118.106 E7.18336
G1 X151.222 Y118.795 E7.21784
G1 X151.064 Y119.859 E7.27151
G1 X150.896 Y120.624 E7.31059
G1 X150.688 Y121.386 E7.34999
G1 X150.536 Y121.807 E7.37232
G1 X150.248 Y122.539 E7.41157
G1 X149.922 Y123.258 E7.45095
G1 X149.714 Y123.636 E7.47248
G1 X149.319 Y124.308 E7.51137
G1 X148.885 Y124.967 E7.55073
G1 X148.626 Y125.301 E7.57182
G1 X148.129 Y125.907 E7.61092
G1 X147.598 Y126.492 E7.65034
G1 X147.275 Y126.795 E7.67243
G1 X146.689 Y127.315 E7.71152
G1 X146.073 Y127.809 E7.75091
G1 X145.71 Y128.055 E7.77279
G1 X145.046 Y128.479 E7.8121
G1 X144.36 Y128.87 E7.85149
G1 X143.964 Y129.056 E7.87332
G1 X143.248 Y129.368 E7.91228
G1 X142.509 Y129.646 E7.95167
G1 X142.087 Y129.768 E7.97359
G1 X141.33 Y129.964 E8.0126
G1 X140.557 Y130.123 E8.05197
G1 X140.138 Y130.176 E8.07304
G1 X139.355 Y130.253 E8.1123
G1 X138.593 Y130.29 E8.15036
G1 X70.596 Y130.298 E11.54274
G1 X61.502 Y130.298 E11.99644
G1 X60.892 Y130.274 E12.0269
G1 X60.203 Y130.22 E12.06138
G1 X59.136 Y130.062 E12.11519
G1 X58.368 Y129.893 E12.15443
G1 X57.606 Y129.684 E12.19385
G1 X57.187 Y129.533 E12.21607
G1 X56.458 Y129.246 E12.25515
G1 X55.738 Y128.92 E12.29458
G1 X55.359 Y128.711 E12.31618
G1 X54.686 Y128.315 E12.35513
G1 X54.027 Y127.88 E12.39453
G1 X53.689 Y127.617 E12.4159
G1 X53.082 Y127.118 E12.4551
G1 X52.498 Y126.587 E12.49448
G1 X52.2 Y126.269 E12.51622
G1 X51.682 Y125.685 E12.55517
G1 X51.188 Y125.068 E12.5946
G1 X50.946 Y124.711 E12.61612
G1 X50.522 Y124.048 E12.65538
G1 X50.131 Y123.362 E12.69477
G1 X49.944 Y122.967 E12.71658
G1 X49.631 Y122.25 E12.75561
G1 X49.353 Y121.511 E12.795
G1 X49.227 Y121.077 E12.81754
G1 X49.032 Y120.321 E12.8565
G1 X48.874 Y119.547 E12.89591
G1 X48.823 Y119.138 E12.91647
G1 X48.746 Y118.357 E12.95562
G1 X48.708 Y117.645 E12.9912
G1 X48.7 Y116.462 E13.05022
G1 X48.7 Y110.653 E13.34003
G1 X48.54 Y110.543 E13.34972
G1 X47.911 Y110.064 E13.38916
G1 X47.395 Y109.587 E13.42422
G1 X46.997 Y109.184 E13.45248
G1 X46.472 Y108.595 E13.49184
G1 X46.224 Y108.271 E13.5122
G1 X45.844 Y107.745 E13.54457
G1 X45.415 Y107.082 E13.58397
G1 X45.167 Y106.617 E13.61026
G1 X44.88 Y106.033 E13.64272
G1 X44.568 Y105.308 E13.6821
G1 X44.383 Y104.745 E13.71167
G1 X44.205 Y104.125 E13.74385
G1 X44.026 Y103.356 E13.78324
G1 X43.946 Y102.803 E13.81112
G1 X43.877 Y102.158 E13.84348
G1 X43.833 Y101.375 E13.88261
G1 X43.825 Y100.047 E13.94886
G1 X43.825 Y98.751 E14.01352
G1 X43.852 Y98.099 E14.04608
G1 X43.9 Y97.527 E14.07471
G1 X44.006 Y96.744 E14.11413
G1 X44.096 Y96.327 E14.13542
G1 X44.249 Y95.701 E14.16757
G1 X44.475 Y94.944 E14.20698
G1 X44.685 Y94.415 E14.23538
G1 X44.946 Y93.821 E14.26775
G1 X45.3 Y93.115 E14.30715
G1 X45.586 Y92.649 E14.33443
G1 X45.946 Y92.106 E14.36693
G1 X46.415 Y91.471 E14.40631
G1 X46.794 Y91.042 E14.43487
G1 X47.238 Y90.575 E14.46702
G1 X47.811 Y90.03 E14.50647
G1 X48.252 Y89.678 E14.53462
G1 X48.7 Y89.347 E14.56241
G1 X48.7 Y82.503 E14.90386
G1 X48.724 Y81.894 E14.93427
G1 X48.778 Y81.205 E14.96875
G1 X48.936 Y80.141 E15.02241
G1 X49.104 Y79.376 E15.06149
G1 X49.312 Y78.614 E15.1009
G1 X49.464 Y78.193 E15.12323
G1 X49.752 Y77.461 E15.16247
G1 X50.078 Y76.742 E15.20186
G1 X50.286 Y76.364 E15.22338
G1 X50.681 Y75.692 E15.26227
G1 X51.115 Y75.033 E15.30164
G1 X51.374 Y74.699 E15.32273
G1 X51.871 Y74.093 E15.36183
G1 X52.402 Y73.508 E15.40124
G1 X52.725 Y73.205 E15.42334
G1 X53.311 Y72.685 E15.46242
G1 X53.927 Y72.191 E15.50182
G0 F3600 X54.177 Y72.504
G1 F1800 X54.505 Y72.282 E15.52158
G1 X55.169 Y71.858 E15.56088
G1 X55.838 Y71.478 E15.59927
G1 X56.196 Y71.311 E15.61898
G1 X56.912 Y70.999 E15.65794
G1 X57.632 Y70.729 E15.69631
G1 X58.013 Y70.619 E15.71609
G1 X58.77 Y70.423 E15.7551
G1 X59.901 Y70.223 E15.8124
G1 X60.684 Y70.146 E15.85166
G1 X61.407 Y70.11 E15.88777
G1 X129.404 Y70.102 E19.28016
G1 X138.498 Y70.102 E19.73386
G1 X139.077 Y70.125 E19.76277
G1 X139.766 Y70.179 E19.79725
G1 X140.778 Y70.329 E19.84829
G1 X141.546 Y70.498 E19.88752
G1 X142.288 Y70.702 E19.92591
G1 X142.667 Y70.839 E19.94602
G1 X143.396 Y71.126 E19.9851
G1 X144.096 Y71.445 E20.02348
G1 X144.435 Y71.632 E20.0428
G1 X145.107 Y72.027 E20.08169
G1 X145.749 Y72.451 E20.12007
G1 X146.055 Y72.69 E20.13944
G1 X146.661 Y73.188 E20.17857
G1 X147.229 Y73.706 E20.21693
G1 X147.498 Y73.993 E20.23655
G1 X148.018 Y74.579 E20.27564
G1 X148.498 Y75.18 E20.31401
G1 X148.717 Y75.504 E20.33352
G1 X149.141 Y76.167 E20.37279
G1 X149.521 Y76.836 E20.41117
G1 X149.688 Y77.191 E20.43074
G1 X150 Y77.905 E20.46962
G1 X150.271 Y78.625 E20.508
G1 X150.384 Y79.018 E20.5284
G1 X150.58 Y79.777 E20.56751
G1 X150.779 Y80.901 E20.62446
G1 X150.856 Y81.682 E20.66361
G1 X150.892 Y82.358 E20.69738
G1 X150.9 Y83.541 E20.75641
G1 X150.9 Y89.558 E21.05659
G1 X151.234 Y89.787 E21.0768
G1 X151.846 Y90.254 E21.1152
G1 X152.32 Y90.694 E21.14747
G1 X152.718 Y91.097 E21.17573
G1 X153.448 Y91.958 E21.23205
G1 X153.828 Y92.483 E21.26438
G1 X154.245 Y93.129 E21.30274
G1 X154.474 Y93.558 E21.327
G1 X154.76 Y94.14 E21.35935
G1 X155.063 Y94.847 E21.39773
G1 X155.23 Y95.357 E21.4245
G1 X155.409 Y95.979 E21.45679
G1 X155.583 Y96.729 E21.4952
G1 X155.656 Y97.24 E21.52096
G1 X155.725 Y97.886 E21.55337
G1 X155.767 Y98.627 E21.5904
G1 X155.775 Y99.955 E21.65665
G1 X155.775 Y101.249 E21.72121
G1 X155.749 Y101.868 E21.75212
G1 X155.701 Y102.44 E21.78076
G1 X155.597 Y103.202 E21.81913
G1 X155.515 Y103.578 E21.83833
G1 X155.362 Y104.204 E21.87048
G1 X155.141 Y104.941 E21.90886
G1 X154.949 Y105.424 E21.93479
G1 X154.688 Y106.018 E21.96716
G1 X154.342 Y106.705 E22.00554
G1 X154.081 Y107.13 E22.03042
G1 X153.721 Y107.673 E22.06293
G1 X153.263 Y108.291 E22.1013
G1 X152.916 Y108.683 E22.12742
G1 X152.472 Y109.15 E22.15957
G1 X151.914 Y109.679 E22.19793
G1 X151.51 Y110 E22.22367
G1 X150.926 Y110.432 E22.25991
G1 X150.9 Y110.449 E22.26146
G1 X150.9 Y117.497 E22.61309
G1 X150.877 Y118.075 E22.64195
G1 X150.823 Y118.764 E22.67643
G1 X150.674 Y119.773 E22.72731
G1 X150.506 Y120.538 E22.76639
G1 X150.302 Y121.28 E22.80478
G1 X150.164 Y121.66 E22.82495
G1 X149.876 Y122.392 E22.8642
G1 X149.558 Y123.092 E22.90255
G1 X149.37 Y123.433 E22.92198
G1 X148.975 Y124.105 E22.96087
G1 X148.317 Y125.048 E23.01824
G1 X147.82 Y125.654 E23.05734
G1 X147.302 Y126.222 E23.09569
G1 X147.01 Y126.496 E23.11567
G1 X146.424 Y127.016 E23.15475
G1 X145.823 Y127.496 E23.19313
G1 X145.495 Y127.718 E23.21289
G1 X144.831 Y128.142 E23.25219
G1 X144.162 Y128.522 E23.29058
G1 X143.804 Y128.689 E23.31029
G1 X143.088 Y129.001 E23.34925
G1 X142.368 Y129.271 E23.38761
G1 X141.987 Y129.381 E23.4074
G1 X141.23 Y129.577 E23.44641
G1 X140.099 Y129.777 E23.50371
G1 X139.316 Y129.854 E23.54296
G1 X138.593 Y129.89 E23.57908
G1 X70.596 Y129.898 E26.97146
G1 X61.502 Y129.898 E27.42517
G1 X60.923 Y129.875 E27.45408
G1 X60.234 Y129.821 E27.48855
G1 X59.222 Y129.671 E27.5396
G1 X58.454 Y129.502 E27.57883
G1 X57.712 Y129.298 E27.61722
G1 X57.333 Y129.161 E27.63733
G1 X56.604 Y128.874 E27.67641
G1 X55.904 Y128.555 E27.71479
G1 X55.562 Y128.366 E27.73429
G1 X54.889 Y127.97 E27.77324
G1 X54.247 Y127.546 E27.81163
G1 X53.943 Y127.308 E27.83089
G1 X53.336 Y126.809 E27.87009
G1 X52.768 Y126.291 E27.90844
G1 X52.499 Y126.003 E27.92811
G1 X51.981 Y125.419 E27.96705
G1 X51.501 Y124.818 E28.00542
G1 X51.283 Y124.496 E28.02482
G1 X50.859 Y123.833 E28.06409
G1 X50.479 Y123.164 E28.10247
G1 X50.311 Y122.807 E28.12216
G1 X49.998 Y122.09 E28.16119
G1 X49.727 Y121.37 E28.19957
G1 X49.615 Y120.977 E28.21996
G1 X49.42 Y120.221 E28.25891
G1 X49.221 Y119.099 E28.31576
G1 X49.144 Y118.318 E28.35491
G1 X49.108 Y117.642 E28.38868
G1 X49.1 Y116.459 E28.44771
G1 X49.1 Y110.442 E28.7479
G1 X48.766 Y110.213 E28.7681
G1 X48.154 Y109.746 E28.80651
G1 X47.68 Y109.306 E28.83877
G1 X47.282 Y108.903 E28.86703
G1 X46.549 Y108.036 E28.92367
G1 X46.169 Y107.51 E28.95605
G1 X45.751 Y106.864 E28.99443
G1 X45.526 Y106.441 E29.01834
G1 X45.239 Y105.857 E29.0508
G1 X44.936 Y105.15 E29.08918
G1 X44.767 Y104.635 E29.11622
G1 X44.589 Y104.015 E29.1484
G1 X44.416 Y103.266 E29.18675
G1 X44.344 Y102.76 E29.21225
G1 X44.275 Y102.115 E29.24461
G1 X44.233 Y101.373 E29.28169
G1 X44.225 Y100.045 E29.34795
G1 X44.225 Y98.751 E29.4125
G1 X44.251 Y98.132 E29.44341
G1 X44.299 Y97.56 E29.47205
G1 X44.403 Y96.798 E29.51042
G1 X44.485 Y96.422 E29.52962
G1 X44.638 Y95.796 E29.56177
G1 X44.859 Y95.059 E29.60016
G1 X45.051 Y94.576 E29.62609
G1 X45.312 Y93.982 E29.65846
G1 X45.658 Y93.295 E29.69683
G1 X45.919 Y92.87 E29.72171
G1 X46.279 Y92.327 E29.75422
G1 X46.737 Y91.709 E29.79259
G1 X47.084 Y91.317 E29.81871
G1 X47.528 Y90.85 E29.85086
G1 X48.086 Y90.321 E29.88922
G1 X48.49 Y90 E29.91497
G1 X49.074 Y89.568 E29.95121
G1 X49.1 Y89.551 E29.95276
G1 X49.1 Y82.503 E30.30438
G1 X49.123 Y81.925 E30.33324
G1 X49.177 Y81.236 E30.36772
G1 X49.326 Y80.227 E30.41861
G1 X49.494 Y79.462 E30.45768
G1 X49.698 Y78.72 E30.49607
G1 X49.836 Y78.34 E30.51624
G1 X50.124 Y77.608 E30.55549
G1 X50.442 Y76.908 E30.59385
G1 X50.63 Y76.567 E30.61327
G1 X51.025 Y75.895 E30.65216
G1 X51.683 Y74.952 E30.70953
G1 X52.18 Y74.346 E30.74863
G1 X52.698 Y73.778 E30.78698
G1 X52.99 Y73.504 E30.80696
G1 X53.576 Y72.984 E30.84605
G1 X54.177 Y72.504 E30.88442
G0 F3600 X54.721 Y72.619
G1 F1800 X55.385 Y72.195 E30.92372
G1 X56.356 Y71.678 E30.97861
G1 X57.072 Y71.366 E31.01757
G1 X58.113 Y71.006 E31.07253
G1 X58.87 Y70.81 E31.11154
G1 X59.94 Y70.621 E31.16575
G1 X60.723 Y70.544 E31.205
G1 X61.407 Y70.51 E31.23917
G1 X129.404 Y70.502 E34.63155
G1 X138.498 Y70.502 E35.08525
G1 X139.046 Y70.523 E35.11261
G1 X139.735 Y70.577 E35.14709
G1 X140.692 Y70.72 E35.19537
G1 X141.46 Y70.889 E35.2346
G1 X142.52 Y71.212 E35.28988
G1 X143.249 Y71.499 E35.32897
G1 X144.232 Y71.977 E35.3835
G1 X144.904 Y72.372 E35.42239
G1 X145.801 Y72.999 E35.47699
G1 X146.407 Y73.497 E35.51613
G1 X147.199 Y74.259 E35.57096
G1 X147.719 Y74.845 E35.61004
G1 X148.38 Y75.72 E35.66475
G1 X148.804 Y76.383 E35.70402
G1 X149.321 Y77.351 E35.75877
G1 X149.633 Y78.065 E35.79764
G1 X149.997 Y79.118 E35.85322
G1 X150.193 Y79.877 E35.89233
G1 X150.381 Y80.94 E35.94619
G1 X150.458 Y81.721 E35.98534
G1 X150.492 Y82.361 E36.01732
G1 X150.5 Y83.544 E36.07634
G1 X150.5 Y89.769 E36.38691
G1 X151.008 Y90.117 E36.41763
G1 X151.602 Y90.572 E36.45496
G1 X152.036 Y90.975 E36.4845
G1 X152.434 Y91.378 E36.51276
G1 X153.123 Y92.193 E36.56601
G1 X153.503 Y92.718 E36.59834
G1 X153.909 Y93.346 E36.63565
G1 X154.115 Y93.735 E36.65761
G1 X154.401 Y94.317 E36.68996
G1 X154.695 Y95.005 E36.72729
G1 X154.846 Y95.468 E36.75158
G1 X155.025 Y96.09 E36.78388
G1 X155.193 Y96.819 E36.8212
G1 X155.258 Y97.283 E36.84457
G1 X155.327 Y97.929 E36.87699
G1 X155.367 Y98.63 E36.91202
G1 X155.375 Y99.958 E36.97827
G1 X155.375 Y101.249 E37.04268
G1 X155.35 Y101.834 E37.07189
G1 X155.302 Y102.406 E37.10053
G1 X155.127 Y103.483 E37.15497
G1 X154.974 Y104.109 E37.18712
G1 X154.758 Y104.825 E37.22443
G1 X154.583 Y105.263 E37.24796
G1 X154.322 Y105.857 E37.28033
G1 X153.985 Y106.525 E37.31766
G1 X153.747 Y106.909 E37.3402
G1 X153.387 Y107.452 E37.3727
G1 X152.941 Y108.053 E37.41004
G1 X152.626 Y108.407 E37.43368
G1 X152.182 Y108.874 E37.46583
G1 X151.638 Y109.388 E37.50317
G1 X151.272 Y109.679 E37.52649
G1 X150.688 Y110.111 E37.56273
G1 X150.5 Y110.235 E37.57397
G1 X150.5 Y117.497 E37.93627
G1 X150.479 Y118.044 E37.96358
G1 X150.425 Y118.733 E37.99806
G1 X150.283 Y119.687 E38.04618
G1 X150.115 Y120.452 E38.08526
G1 X149.792 Y121.514 E38.14064
G1 X149.504 Y122.246 E38.17988
G1 X149.025 Y123.23 E38.23448
G1 X148.63 Y123.902 E38.27337
G1 X148.008 Y124.794 E38.32762
G1 X147.511 Y125.4 E38.36672
G1 X146.744 Y126.197 E38.42191
G1 X146.158 Y126.717 E38.461
G1 X145.279 Y127.381 E38.51595
G1 X144.615 Y127.805 E38.55526
G1 X143.644 Y128.322 E38.61014
G1 X142.928 Y128.634 E38.64911
G1 X141.887 Y128.994 E38.70406
G1 X141.13 Y129.19 E38.74307
G1 X140.06 Y129.379 E38.79728
G1 X139.277 Y129.456 E38.83653
G1 X138.593 Y129.49 E38.8707
G1 X70.596 Y129.498 E42.26309
G1 X61.502 Y129.498 E42.71679
G1 X60.954 Y129.477 E42.74415
G1 X60.265 Y129.423 E42.77863
G1 X59.308 Y129.28 E42.8269
G1 X58.54 Y129.111 E42.86613
G1 X57.48 Y128.788 E42.92142
G1 X56.751 Y128.501 E42.96051
G1 X55.765 Y128.021 E43.01522
G1 X55.092 Y127.625 E43.05417
G1 X54.197 Y126.999 E43.10866
G1 X53.59 Y126.5 E43.14787
G1 X52.798 Y125.738 E43.2027
G1 X52.28 Y125.154 E43.24164
G1 X51.62 Y124.28 E43.29628
G1 X51.196 Y123.617 E43.33555
G1 X50.678 Y122.647 E43.39041
G1 X50.365 Y121.93 E43.42944
G1 X50.002 Y120.877 E43.48501
G1 X49.807 Y120.121 E43.52396
G1 X49.619 Y119.06 E43.57772
G1 X49.542 Y118.279 E43.61687
G1 X49.508 Y117.639 E43.64885
G1 X49.5 Y116.456 E43.70787
G1 X49.5 Y110.231 E44.01843
G1 X48.992 Y109.883 E44.04915
G1 X48.398 Y109.428 E44.08648
G1 X47.964 Y109.025 E44.11603
G1 X47.566 Y108.622 E44.14429
G1 X46.873 Y107.802 E44.19785
G1 X46.493 Y107.276 E44.23023
G1 X46.088 Y106.647 E44.26755
G1 X45.885 Y106.264 E44.28918
G1 X45.598 Y105.68 E44.32164
G1 X45.304 Y104.992 E44.35897
