;FLAVOR:Marlin
;TIME:1970
;Filament used: 1.26339m
;Layer height: 0.1
;MINX:59.423
;MINY:61.673
;MINZ:0.3
;MAXX:140.577
;MAXY:138.327
;MAXZ:2
;Generated with Cura_SteamEngine 4.5.0
M140 S60
M105
M190 S60
M104 S200
M105
M109 S200
M82 ;absolute extrusion mode
G21 ;metric values
 G90 ;absolute positioning
 M82 ;set extruder to absolute mode
 M107 ;start with the fan off
 G28 X0 Y0 ;move X/Y to min endstops
 G28 Z0 ;move Z to min endstops
 G1 Z15.0 F120 ;move the platform down 15mm
 G92 E0 ;zero the extruded length
 G1 F200 E6 ;extrude 6 mm of feed stock
 G92 E0 ;zero the extruded length again
 G1 F120 
 ;Put printing message on LCD screen
 M117 Printing...
G92 E0
G92 E0
G1 F1500 E-6.5
;LAYER_COUNT:18
;LAYER:0
M107
G0 F3600 X61.882 Y64.115 Z0.3
;TYPE:SKIRT
G1 F1500 E0
G1 F1800 X62.675 Y63.406 E0.05307
G1 X63.319 Y62.95 E0.09244
G1 X64.007 Y62.562 E0.13184
G1 X64.73 Y62.245 E0.17123
G1 X65.56 Y61.983 E0.21465
G1 X66.588 Y61.761 E0.26712
G1 X67.748 Y61.674 E0.32516
G1 X84.252 Y61.673 E1.14855
G1 X85.04 Y61.713 E1.18791
G1 X85.821 Y61.832 E1.22732
G1 X86.321 Y61.952 E1.25298
G1 X87.34 Y62.274 E1.30629
G1 X88.061 Y62.596 E1.34569
G1 X88.745 Y62.99 E1.38507
G1 X89.387 Y63.451 E1.4245
G1 X90.135 Y64.132 E1.47497
G1 X90.844 Y64.925 E1.52804
G1 X91.3 Y65.569 E1.56741
G1 X91.688 Y66.257 E1.60681
G1 X92.005 Y66.979 E1.64615
G1 X92.994 Y66.52 E1.70055
G1 X93.747 Y66.283 E1.73993
G1 X94.521 Y66.124 E1.77935
G1 X95.306 Y66.043 E1.81873
G1 X104.292 Y66.033 E2.26704
G1 X105.081 Y66.073 E2.30645
G1 X105.861 Y66.192 E2.34582
G1 X106.626 Y66.39 E2.38524
G1 X107.366 Y66.664 E2.42461
G1 X108.075 Y67.012 E2.46401
G1 X108.746 Y67.43 E2.50345
G1 X109.37 Y67.913 E2.54282
G1 X109.943 Y68.456 E2.58221
G1 X110.458 Y69.055 E2.62162
G1 X110.693 Y69.393 E2.64216
G1 X111.319 Y68.95 E2.68042
G1 X112.007 Y68.562 E2.71982
G1 X112.73 Y68.245 E2.75921
G1 X113.56 Y67.983 E2.80263
G1 X114.588 Y67.761 E2.8551
G1 X115.748 Y67.674 E2.91314
G1 X132.252 Y67.673 E3.73652
G1 X133.04 Y67.713 E3.77589
G1 X133.821 Y67.832 E3.8153
G1 X134.321 Y67.952 E3.84095
G1 X135.34 Y68.274 E3.89427
G1 X136.061 Y68.596 E3.93367
G1 X136.745 Y68.99 E3.97305
G1 X137.387 Y69.451 E4.01248
G1 X138.135 Y70.132 E4.06295
G1 X138.844 Y70.925 E4.11602
G1 X139.3 Y71.569 E4.15538
G1 X139.688 Y72.257 E4.19479
G1 X140.005 Y72.98 E4.23418
G1 X140.266 Y73.803 E4.27725
G1 X140.488 Y74.83 E4.32967
G1 X140.576 Y75.996 E4.38801
G1 X140.577 Y81.999 E4.6875
G1 X140.537 Y82.787 E4.72686
G1 X140.418 Y83.568 E4.76628
G1 X140.553 Y84.914 E4.83377
G1 X140.576 Y86.988 E4.93725
G1 X140.577 Y92.001 E5.18735
G1 X140.537 Y92.79 E5.22676
G1 X140.418 Y93.571 E5.26617
G1 X140.294 Y94.086 E5.2926
G1 X139.97 Y95.103 E5.34585
G1 X139.647 Y95.823 E5.38522
G1 X139.252 Y96.507 E5.42463
G1 X138.79 Y97.147 E5.46401
G1 X138.174 Y97.829 E5.50986
G1 X137.394 Y98.541 E5.56255
G1 X136.754 Y99.003 E5.60193
G1 X136.07 Y99.399 E5.64136
G1 X135.35 Y99.723 E5.68075
G1 X134.507 Y99.998 E5.72499
G1 X133.473 Y100.23 E5.77786
G1 X132.688 Y100.314 E5.81724
G1 X129.935 Y100.326 E5.95459
G1 X130.082 Y101.431 E6.01021
G1 X130.092 Y104.75 E6.17579
G1 X130.052 Y105.539 E6.21521
G1 X130.001 Y106.064 E6.24152
G1 X130.082 Y106.849 E6.28089
G1 X130.092 Y110.167 E6.44643
G1 X130.052 Y110.956 E6.48584
G1 X129.933 Y111.736 E6.52521
G1 X129.735 Y112.501 E6.56463
G1 X129.461 Y113.241 E6.604
G1 X129.113 Y113.95 E6.6434
G1 X128.695 Y114.621 E6.68285
G1 X128.212 Y115.245 E6.72221
G1 X127.669 Y115.818 E6.7616
G1 X127.07 Y116.333 E6.80101
G1 X126.422 Y116.784 E6.8404
G1 X125.731 Y117.168 E6.87984
G1 X125.006 Y117.48 E6.91921
G1 X124.253 Y117.717 E6.9586
G1 X123.479 Y117.876 E6.99802
G1 X122.694 Y117.957 E7.03739
G1 X113.708 Y117.967 E7.4857
G1 X112.919 Y117.927 E7.52512
G1 X112.139 Y117.808 E7.56448
G1 X112.091 Y117.796 E7.56695
G1 X112.092 Y120.75 E7.71433
G1 X112.052 Y121.539 E7.75374
G1 X112.001 Y122.064 E7.78006
G1 X112.082 Y122.849 E7.81943
G1 X112.092 Y126.167 E7.98496
G1 X112.052 Y126.956 E8.02438
G1 X111.933 Y127.736 E8.06374
G1 X111.735 Y128.501 E8.10317
G1 X111.461 Y129.241 E8.14254
G1 X111.113 Y129.95 E8.18194
G1 X110.695 Y130.621 E8.22138
G1 X110.212 Y131.245 E8.26075
G1 X109.669 Y131.818 E8.30013
G1 X109.07 Y132.333 E8.33954
G1 X108.422 Y132.784 E8.37893
G1 X107.731 Y133.168 E8.41837
G1 X107.006 Y133.48 E8.45775
G1 X106.253 Y133.717 E8.49713
G1 X105.479 Y133.876 E8.53655
G1 X104.694 Y133.957 E8.57592
G1 X95.708 Y133.967 E9.02424
G1 X94.919 Y133.927 E9.06365
G1 X94.139 Y133.808 E9.10302
G1 X93.704 Y133.696 E9.12543
G1 X93.256 Y134.502 E9.17143
G1 X92.795 Y135.142 E9.21078
G1 X92.144 Y135.859 E9.2591
G1 X91.361 Y136.566 E9.31173
G1 X90.719 Y137.025 E9.35111
G1 X90.033 Y137.417 E9.39052
G1 X89.311 Y137.737 E9.42992
G1 X88.593 Y137.974 E9.46765
G1 X87.569 Y138.215 E9.52013
G1 X86.785 Y138.308 E9.55952
G1 X86.26 Y138.326 E9.58573
G1 X69.748 Y138.327 E10.40951
G1 X68.96 Y138.287 E10.44888
G1 X68.179 Y138.168 E10.48829
G1 X67.672 Y138.046 E10.51431
G1 X66.654 Y137.723 E10.56759
G1 X65.934 Y137.4 E10.60696
G1 X65.249 Y137.006 E10.64638
G1 X64.609 Y136.545 E10.68574
G1 X63.921 Y135.924 E10.73197
G1 X63.209 Y135.144 E10.78466
G1 X62.747 Y134.504 E10.82404
G1 X62.351 Y133.82 E10.86347
G1 X62.027 Y133.1 E10.90286
G1 X61.754 Y132.264 E10.94674
G1 X61.521 Y131.231 E10.99957
G1 X61.437 Y130.446 E11.03896
G1 X61.423 Y113.997 E11.8596
G1 X61.463 Y113.209 E11.89897
G1 X61.582 Y112.428 E11.93838
G1 X61.704 Y111.921 E11.9644
G1 X62.027 Y110.903 E12.01768
G1 X62.35 Y110.183 E12.05705
G1 X62.744 Y109.498 E12.09648
G1 X63.205 Y108.858 E12.13583
G1 X63.882 Y108.115 E12.18598
G1 X64.675 Y107.406 E12.23904
G1 X65.319 Y106.95 E12.27841
G1 X66.007 Y106.562 E12.31782
G1 X66.73 Y106.245 E12.35721
G1 X67.56 Y105.983 E12.40063
G1 X68.103 Y105.859 E12.42842
G1 X67.999 Y105.354 E12.45414
G1 X67.918 Y104.569 E12.49351
G1 X67.908 Y95.833 E12.92935
G1 X67.948 Y95.044 E12.96877
G1 X68.057 Y94.327 E13.00495
G1 X66.96 Y94.287 E13.05971
G1 X66.179 Y94.168 E13.09913
G1 X65.679 Y94.048 E13.12478
G1 X64.66 Y93.726 E13.1781
G1 X63.939 Y93.404 E13.21749
G1 X63.255 Y93.01 E13.25687
G1 X62.613 Y92.549 E13.29631
G1 X61.865 Y91.868 E13.34677
G1 X61.156 Y91.075 E13.39984
G1 X60.7 Y90.431 E13.43921
G1 X60.312 Y89.743 E13.47862
G1 X59.995 Y89.02 E13.518
G1 X59.734 Y88.197 E13.56108
G1 X59.512 Y87.17 E13.6135
G1 X59.424 Y86.003 E13.67189
G1 X59.423 Y69.997 E14.47043
G1 X59.463 Y69.209 E14.50979
G1 X59.582 Y68.428 E14.54921
G1 X59.704 Y67.921 E14.57522
G1 X60.027 Y66.903 E14.62851
G1 X60.35 Y66.183 E14.66788
G1 X60.744 Y65.498 E14.7073
G1 X61.205 Y64.858 E14.74665
G1 X61.882 Y64.115 E14.7968
G0 F3600 X62.16 Y64.403
G1 F1800 X62.938 Y63.708 E14.84885
G1 X63.567 Y63.267 E14.88717
G1 X64.24 Y62.893 E14.92558
G1 X64.947 Y62.591 E14.96394
G1 X65.659 Y62.37 E15.00113
G1 X66.667 Y62.153 E15.05257
G1 X67.748 Y62.074 E15.10665
G1 X84.252 Y62.073 E15.93004
G1 X85.02 Y62.113 E15.96841
G1 X85.779 Y62.232 E16.00673
G1 X86.484 Y62.412 E16.04304
G1 X87.214 Y62.654 E16.0814
G1 X87.915 Y62.971 E16.11979
G1 X88.579 Y63.359 E16.15816
G1 X89.199 Y63.813 E16.19649
G1 X89.847 Y64.41 E16.24045
G1 X90.542 Y65.188 E16.2925
G1 X90.983 Y65.817 E16.33082
G1 X91.357 Y66.49 E16.36924
G1 X91.659 Y67.197 E16.40759
G1 X91.776 Y67.574 E16.42728
G1 X92.644 Y67.097 E16.4767
G1 X93.359 Y66.816 E16.51502
G1 X94.101 Y66.61 E16.55344
G1 X94.859 Y66.482 E16.5918
G1 X95.708 Y66.433 E16.63422
G1 X104.292 Y66.433 E17.06248
G1 X105.06 Y66.473 E17.10085
G1 X105.82 Y66.592 E17.13923
G1 X106.563 Y66.79 E17.17759
G1 X107.282 Y67.064 E17.21598
G1 X107.968 Y67.411 E17.25433
G1 X108.615 Y67.827 E17.29271
G1 X109.215 Y68.308 E17.33107
G1 X109.762 Y68.849 E17.36945
G1 X110.25 Y69.444 E17.40785
G1 X110.611 Y69.992 E17.44058
G1 X110.938 Y69.708 E17.46219
G1 X111.567 Y69.267 E17.50052
G1 X112.24 Y68.893 E17.53893
G1 X112.947 Y68.591 E17.57729
G1 X113.659 Y68.37 E17.61448
G1 X114.667 Y68.153 E17.66592
G1 X115.748 Y68.074 E17.72
G1 X132.252 Y68.073 E18.54338
G1 X133.02 Y68.113 E18.58175
G1 X133.779 Y68.232 E18.62008
G1 X134.484 Y68.412 E18.65638
G1 X135.214 Y68.654 E18.69475
G1 X135.915 Y68.971 E18.73313
G1 X136.579 Y69.359 E18.7715
G1 X137.199 Y69.813 E18.80984
G1 X137.847 Y70.41 E18.8538
G1 X138.542 Y71.188 E18.90584
G1 X138.983 Y71.817 E18.94417
G1 X139.357 Y72.49 E18.98258
G1 X139.659 Y73.197 E19.02094
G1 X139.878 Y73.903 E19.05781
G1 X140.096 Y74.91 E19.10922
G1 X140.176 Y75.996 E19.16355
G1 X140.177 Y81.999 E19.46304
G1 X140.137 Y82.767 E19.5014
G1 X140.018 Y83.527 E19.53978
G1 X140.104 Y84.151 E19.57121
G1 X140.153 Y84.918 E19.60955
G1 X140.176 Y86.992 E19.71303
G1 X140.177 Y92.001 E19.96293
G1 X140.137 Y92.77 E20.00135
G1 X140.018 Y93.529 E20.03968
G1 X139.834 Y94.246 E20.07661
G1 X139.591 Y94.976 E20.11499
G1 X139.272 Y95.676 E20.15337
G1 X138.883 Y96.34 E20.19176
G1 X138.428 Y96.959 E20.23009
G1 X137.894 Y97.544 E20.26961
G1 X137.128 Y98.241 E20.32128
G1 X136.503 Y98.689 E20.35964
G1 X135.835 Y99.07 E20.39801
G1 X135.13 Y99.379 E20.43641
G1 X134.404 Y99.611 E20.47444
G1 X133.391 Y99.838 E20.52623
G1 X132.252 Y99.926 E20.58322
G1 X129.432 Y99.926 E20.72391
G1 X129.643 Y100.984 E20.77774
G1 X129.692 Y101.833 E20.82016
G1 X129.692 Y104.75 E20.96569
G1 X129.652 Y105.518 E21.00406
G1 X129.576 Y106.004 E21.0286
G1 X129.643 Y106.402 E21.04874
G1 X129.692 Y107.251 E21.09116
G1 X129.692 Y110.167 E21.23664
G1 X129.652 Y110.935 E21.27501
G1 X129.533 Y111.695 E21.31339
G1 X129.335 Y112.438 E21.35175
G1 X129.061 Y113.157 E21.39014
G1 X128.714 Y113.843 E21.42849
G1 X128.298 Y114.49 E21.46687
G1 X127.817 Y115.09 E21.50523
G1 X127.276 Y115.637 E21.54362
G1 X126.681 Y116.125 E21.58201
G1 X126.039 Y116.548 E21.62037
G1 X125.356 Y116.903 E21.65877
G1 X124.641 Y117.184 E21.6971
G1 X123.899 Y117.39 E21.73552
G1 X123.141 Y117.518 E21.77387
G1 X122.292 Y117.567 E21.81629
G1 X113.708 Y117.567 E22.24455
G1 X112.94 Y117.527 E22.28292
G1 X112.18 Y117.408 E22.3213
G1 X111.659 Y117.269 E22.3482
G1 X111.692 Y117.833 E22.37639
G1 X111.692 Y120.75 E22.52192
G1 X111.652 Y121.518 E22.56028
G1 X111.576 Y122.004 E22.58483
G1 X111.643 Y122.402 E22.60496
G1 X111.692 Y123.251 E22.64739
G1 X111.692 Y126.167 E22.79287
G1 X111.652 Y126.935 E22.83124
G1 X111.533 Y127.695 E22.86961
G1 X111.335 Y128.438 E22.90798
G1 X111.061 Y129.157 E22.94636
G1 X110.714 Y129.843 E22.98472
G1 X110.298 Y130.49 E23.02309
G1 X109.817 Y131.09 E23.06146
G1 X109.276 Y131.637 E23.09984
G1 X108.681 Y132.125 E23.13823
G1 X108.039 Y132.548 E23.17659
G1 X107.356 Y132.903 E23.21499
G1 X106.641 Y133.184 E23.25332
G1 X105.899 Y133.39 E23.29174
G1 X105.141 Y133.518 E23.33009
G1 X104.292 Y133.567 E23.37252
G1 X95.708 Y133.567 E23.80078
G1 X94.94 Y133.527 E23.83914
G1 X94.18 Y133.408 E23.87752
G1 X93.479 Y133.221 E23.91372
G1 X93.276 Y133.671 E23.93835
G1 X92.887 Y134.335 E23.97674
G1 X92.432 Y134.955 E24.01511
G1 X91.865 Y135.573 E24.05695
G1 X91.097 Y136.265 E24.10853
G1 X90.469 Y136.71 E24.14693
G1 X89.799 Y137.086 E24.18526
G1 X89.093 Y137.392 E24.22365
G1 X88.486 Y137.588 E24.25547
G1 X87.482 Y137.824 E24.30692
G1 X86.718 Y137.912 E24.34529
G1 X69.748 Y137.927 E25.19193
G1 X68.98 Y137.887 E25.2303
G1 X68.221 Y137.768 E25.26863
G1 X67.51 Y137.586 E25.30524
G1 X66.781 Y137.343 E25.34358
G1 X66.08 Y137.026 E25.38196
G1 X65.416 Y136.637 E25.42035
G1 X64.796 Y136.182 E25.45872
G1 X64.206 Y135.644 E25.49856
G1 X63.509 Y134.878 E25.55023
G1 X63.061 Y134.253 E25.58859
G1 X62.68 Y133.585 E25.62696
G1 X62.371 Y132.88 E25.66536
G1 X62.141 Y132.161 E25.70302
G1 X61.913 Y131.148 E25.75482
G1 X61.824 Y130.003 E25.81212
G1 X61.823 Y113.997 E26.61066
G1 X61.863 Y113.229 E26.64903
G1 X61.982 Y112.47 E26.68736
G1 X62.164 Y111.759 E26.72398
G1 X62.407 Y111.03 E26.76231
G1 X62.724 Y110.329 E26.8007
G1 X63.113 Y109.665 E26.83909
G1 X63.568 Y109.045 E26.87746
G1 X64.16 Y108.403 E26.92103
G1 X64.938 Y107.708 E26.97307
G1 X65.567 Y107.267 E27.0114
G1 X66.24 Y106.893 E27.04981
G1 X66.947 Y106.591 E27.08816
G1 X67.659 Y106.37 E27.12536
G1 X68.594 Y106.168 E27.17308
G1 X68.485 Y105.774 E27.19348
G1 X68.357 Y105.016 E27.23183
G1 X68.308 Y104.167 E27.27426
G1 X68.308 Y95.833 E27.69004
G1 X68.348 Y95.065 E27.72841
G1 X68.467 Y94.305 E27.76679
G1 X68.568 Y93.927 E27.78631
G1 X67.748 Y93.927 E27.82722
G1 X66.98 Y93.887 E27.86559
G1 X66.221 Y93.768 E27.90391
G1 X65.516 Y93.588 E27.94022
G1 X64.786 Y93.346 E27.97858
G1 X64.085 Y93.029 E28.01697
G1 X63.421 Y92.641 E28.05534
G1 X62.801 Y92.187 E28.09367
G1 X62.153 Y91.59 E28.13763
G1 X61.458 Y90.812 E28.18968
G1 X61.017 Y90.183 E28.228
G1 X60.643 Y89.51 E28.26642
G1 X60.341 Y88.803 E28.30477
G1 X60.122 Y88.097 E28.34165
G1 X59.904 Y87.09 E28.39305
G1 X59.824 Y86.003 E28.44743
G1 X59.823 Y69.997 E29.24597
G1 X59.863 Y69.229 E29.28434
G1 X59.982 Y68.47 E29.32267
G1 X60.164 Y67.759 E29.35928
G1 X60.407 Y67.03 E29.39762
G1 X60.724 Y66.329 E29.436
G1 X61.113 Y65.665 E29.4744
G1 X61.568 Y65.045 E29.51277
G1 X62.16 Y64.403 E29.55633
G0 F3600 X62.438 Y64.691
G1 F1800 X63.2 Y64.011 E29.60729
G1 X63.814 Y63.584 E29.6446
G1 X64.471 Y63.225 E29.68195
G1 X65.162 Y62.939 E29.71926
G1 X65.759 Y62.758 E29.75038
G1 X66.746 Y62.546 E29.80075
G1 X67.748 Y62.474 E29.85087
G1 X84.252 Y62.473 E30.67426
G1 X84.999 Y62.513 E30.71158
G1 X85.737 Y62.632 E30.74887
G1 X86.378 Y62.798 E30.78191
G1 X87.087 Y63.034 E30.81919
G1 X87.768 Y63.345 E30.85654
G1 X88.411 Y63.727 E30.89385
G1 X89.01 Y64.176 E30.9312
G1 X89.559 Y64.688 E30.96865
G1 X90.239 Y65.45 E31.0196
G1 X90.666 Y66.064 E31.05692
G1 X91.025 Y66.721 E31.09427
G1 X91.311 Y67.412 E31.13158
G1 X91.491 Y68.002 E31.16235
G1 X91.546 Y68.215 E31.17333
G1 X92.342 Y67.695 E31.22076
G1 X93.016 Y67.371 E31.25807
G1 X93.721 Y67.121 E31.29539
G1 X94.449 Y66.947 E31.33273
G1 X95.191 Y66.852 E31.37005
G1 X95.708 Y66.833 E31.39587
G1 X104.292 Y66.833 E31.82412
G1 X105.039 Y66.873 E31.86144
G1 X105.777 Y66.992 E31.89874
G1 X106.499 Y67.19 E31.93609
G1 X107.195 Y67.463 E31.97339
G1 X107.858 Y67.81 E32.01072
G1 X108.481 Y68.225 E32.04807
G1 X109.055 Y68.704 E32.08537
G1 X109.576 Y69.241 E32.12269
G1 X110.035 Y69.831 E32.15999
G1 X110.43 Y70.467 E32.19734
G1 X110.506 Y70.625 E32.20609
G1 X111.2 Y70.011 E32.25232
G1 X111.814 Y69.584 E32.28963
G1 X112.471 Y69.225 E32.32698
G1 X113.162 Y68.939 E32.36429
G1 X113.759 Y68.758 E32.39541
G1 X114.746 Y68.546 E32.44578
G1 X115.748 Y68.474 E32.4959
G1 X132.252 Y68.473 E33.31929
G1 X132.999 Y68.513 E33.35661
G1 X133.737 Y68.632 E33.3939
G1 X134.378 Y68.798 E33.42694
G1 X135.087 Y69.034 E33.46422
G1 X135.768 Y69.345 E33.50157
G1 X136.411 Y69.727 E33.53888
G1 X137.01 Y70.176 E33.57623
G1 X137.559 Y70.688 E33.61368
G1 X138.239 Y71.45 E33.66463
G1 X138.666 Y72.064 E33.70195
G1 X139.025 Y72.721 E33.7393
G1 X139.311 Y73.412 E33.77661
G1 X139.491 Y74.002 E33.80738
G1 X139.703 Y74.989 E33.85775
G1 X139.776 Y75.996 E33.90812
G1 X139.777 Y81.999 E34.20761
G1 X139.737 Y82.746 E34.24493
G1 X139.618 Y83.484 E34.28223
G1 X139.596 Y83.563 E34.28632
G1 X139.734 Y84.483 E34.33273
G1 X139.776 Y86.996 E34.45812
G1 X139.777 Y92.002 E34.70787
G1 X139.737 Y92.749 E34.74519
G1 X139.618 Y93.487 E34.78249
G1 X139.449 Y94.14 E34.81614
G1 X139.211 Y94.849 E34.85345
G1 X138.898 Y95.529 E34.8908
G1 X138.515 Y96.171 E34.92809
G1 X138.066 Y96.769 E34.9654
G1 X137.613 Y97.259 E34.99869
G1 X136.863 Y97.941 E35.04927
G1 X136.253 Y98.374 E35.08659
G1 X135.6 Y98.74 E35.12394
G1 X134.912 Y99.033 E35.16124
G1 X134.302 Y99.225 E35.19315
G1 X133.309 Y99.446 E35.2439
G1 X132.252 Y99.526 E35.29679
G1 X128.891 Y99.526 E35.46447
G1 X129.178 Y100.574 E35.51868
G1 X129.273 Y101.316 E35.556
G1 X129.292 Y101.833 E35.58181
G1 X129.292 Y104.75 E35.72734
G1 X129.252 Y105.497 E35.76466
G1 X129.178 Y105.992 E35.78963
G1 X129.273 Y106.734 E35.82695
G1 X129.292 Y107.251 E35.85276
G1 X129.292 Y110.167 E35.99824
G1 X129.252 Y110.914 E36.03556
G1 X129.133 Y111.652 E36.07286
G1 X128.935 Y112.374 E36.11021
G1 X128.662 Y113.07 E36.14751
G1 X128.315 Y113.733 E36.18484
G1 X127.9 Y114.356 E36.22219
G1 X127.421 Y114.93 E36.25948
G1 X126.884 Y115.451 E36.29681
G1 X126.294 Y115.91 E36.33411
G1 X125.658 Y116.305 E36.37146
G1 X124.984 Y116.629 E36.40877
G1 X124.279 Y116.879 E36.44609
