;FLAVOR:Marlin
;TIME:3578
;Filament used: 1.99161m
;Layer height: 0.1
;MINX:59.286
;MINY:57.285
;MINZ:0.3
;MAXX:140.715
;MAXY:142.716
;MAXZ:5.6
;Generated with Cura_SteamEngine 4.1.0
M140 S60
M105
M190 S60
M104 S200
M105
M109 S200
M82 ;absolute extrusion mode
G21 ;metric values
 G90 ;absolute positioning
 M82 ;set extruder to absolute mode
 M107 ;start with the fan off
 G28 X0 Y0 ;move X/Y to min endstops
 G28 Z0 ;move Z to min endstops
 G1 Z15.0 F120 ;move the platform down 15mm
 G92 E0 ;zero the extruded length
 G1 F200 E6 ;extrude 6 mm of feed stock
 G92 E0 ;zero the extruded length again
 G1 F120 
 ;Put printing message on LCD screen
 M117 Printing...
G92 E0
G92 E0
G1 F1500 E-6.5
;LAYER_COUNT:54
;LAYER:0
M107
G0 F3600 X61.501 Y59.791 Z0.3
;TYPE:SKIRT
G1 F1500 E0
G1 F1800 X62.076 Y59.25 E0.03939
G1 X62.703 Y58.77 E0.07878
G1 X63.375 Y58.355 E0.11819
G1 X63.793 Y58.142 E0.14159
G1 X64.015 Y58.037 E0.15384
G1 X64.745 Y57.736 E0.19324
G1 X65.502 Y57.51 E0.23265
G1 X66.277 Y57.362 E0.27202
G1 X67.347 Y57.288 E0.32553
G1 X75.404 Y57.285 E0.72749
G1 X75.447 Y57.285 E0.72964
G1 X84.853 Y57.333 E1.19891
G1 X85.641 Y57.377 E1.23829
G1 X86.421 Y57.501 E1.27769
G1 X87.185 Y57.702 E1.3171
G1 X87.924 Y57.98 E1.35649
G1 X88.028 Y58.032 E1.36229
G1 X88.745 Y57.736 E1.40099
G1 X89.502 Y57.51 E1.44041
G1 X90.277 Y57.362 E1.47977
G1 X91.347 Y57.288 E1.53328
G1 X99.404 Y57.285 E1.93525
G1 X99.447 Y57.285 E1.93739
G1 X108.853 Y57.333 E2.40667
G1 X109.641 Y57.377 E2.44604
G1 X110.421 Y57.501 E2.48544
G1 X111.185 Y57.702 E2.52486
G1 X111.924 Y57.98 E2.56425
G1 X112.028 Y58.032 E2.57005
G1 X112.745 Y57.736 E2.60875
G1 X113.502 Y57.51 E2.64816
G1 X114.277 Y57.362 E2.68753
G1 X115.347 Y57.288 E2.74104
G1 X123.404 Y57.285 E3.143
G1 X123.447 Y57.285 E3.14515
G1 X132.853 Y57.333 E3.61442
G1 X133.641 Y57.377 E3.65379
G1 X134.421 Y57.501 E3.6932
G1 X135.185 Y57.702 E3.73261
G1 X135.924 Y57.98 E3.772
G1 X136.631 Y58.331 E3.81138
G1 X137.299 Y58.752 E3.85078
G1 X137.921 Y59.239 E3.89019
G1 X138.491 Y59.785 E3.92957
G1 X139.003 Y60.387 E3.96899
G1 X139.401 Y60.957 E4.00368
G1 X139.491 Y61.099 E4.01207
G1 X139.88 Y61.787 E4.0515
G1 X140.197 Y62.51 E4.09088
G1 X140.439 Y63.262 E4.13029
G1 X140.604 Y64.034 E4.16968
G1 X140.69 Y64.819 E4.20908
G1 X140.703 Y65.233 E4.22974
G1 X140.715 Y67.452 E4.34045
G1 X140.715 Y67.496 E4.34265
G1 X140.712 Y82.652 E5.09878
G1 X140.672 Y83.44 E5.13815
G1 X140.552 Y84.221 E5.17757
G1 X140.354 Y84.985 E5.21694
G1 X140.08 Y85.726 E5.25636
G1 X139.732 Y86.435 E5.29576
G1 X139.442 Y86.916 E5.32378
G1 X139.408 Y86.968 E5.32688
G1 X139.491 Y87.099 E5.33462
G1 X139.88 Y87.787 E5.37405
G1 X140.197 Y88.51 E5.41343
G1 X140.439 Y89.262 E5.45285
G1 X140.604 Y90.034 E5.49223
G1 X140.69 Y90.819 E5.53163
G1 X140.703 Y91.233 E5.55229
G1 X140.715 Y93.452 E5.663
G1 X140.715 Y93.496 E5.6652
G1 X140.712 Y108.652 E6.42133
G1 X140.672 Y109.44 E6.4607
G1 X140.552 Y110.221 E6.50012
G1 X140.354 Y110.985 E6.53949
G1 X140.08 Y111.726 E6.57891
G1 X139.732 Y112.435 E6.61831
G1 X139.442 Y112.916 E6.64633
G1 X139.408 Y112.968 E6.64943
G1 X139.491 Y113.099 E6.65717
G1 X139.88 Y113.787 E6.6966
G1 X140.197 Y114.51 E6.73599
G1 X140.439 Y115.262 E6.7754
G1 X140.604 Y116.034 E6.81479
G1 X140.69 Y116.819 E6.85418
G1 X140.703 Y117.233 E6.87485
G1 X140.715 Y119.452 E6.98556
G1 X140.715 Y119.496 E6.98775
G1 X140.712 Y134.652 E7.74389
G1 X140.672 Y135.44 E7.78325
G1 X140.552 Y136.221 E7.82267
G1 X140.354 Y136.985 E7.86205
G1 X140.08 Y137.726 E7.90146
G1 X139.732 Y138.435 E7.94087
G1 X139.442 Y138.916 E7.96889
G1 X139.28 Y139.164 E7.98367
G1 X138.815 Y139.802 E8.02305
G1 X138.288 Y140.39 E8.06245
G1 X137.705 Y140.922 E8.10182
G1 X137.07 Y141.392 E8.14124
G1 X136.391 Y141.796 E8.18065
G1 X135.675 Y142.129 E8.22005
G1 X134.929 Y142.387 E8.25943
G1 X134.161 Y142.569 E8.29881
G1 X133.378 Y142.673 E8.33822
G1 X132.77 Y142.698 E8.36857
G1 X125.815 Y142.716 E8.71556
G1 X125.79 Y142.716 E8.71681
G1 X115.345 Y142.709 E9.23791
G1 X114.556 Y142.668 E9.27733
G1 X113.776 Y142.548 E9.3167
G1 X113.011 Y142.35 E9.35612
G1 X112.271 Y142.076 E9.39549
G1 X112.033 Y141.962 E9.40866
G1 X111.675 Y142.129 E9.42837
G1 X110.929 Y142.387 E9.46775
G1 X110.161 Y142.569 E9.50713
G1 X109.378 Y142.673 E9.54653
G1 X108.77 Y142.698 E9.57689
G1 X101.815 Y142.716 E9.92388
G1 X101.79 Y142.716 E9.92513
G1 X91.345 Y142.709 E10.44623
G1 X90.556 Y142.668 E10.48565
G1 X89.776 Y142.548 E10.52502
G1 X89.011 Y142.35 E10.56444
G1 X88.271 Y142.076 E10.60381
G1 X88.033 Y141.962 E10.61698
G1 X87.675 Y142.129 E10.63668
G1 X86.929 Y142.387 E10.67606
G1 X86.161 Y142.569 E10.71544
G1 X85.378 Y142.673 E10.75485
G1 X84.77 Y142.698 E10.78521
G1 X77.815 Y142.716 E11.1322
G1 X77.79 Y142.716 E11.13344
G1 X67.345 Y142.709 E11.65455
G1 X66.556 Y142.668 E11.69396
G1 X65.776 Y142.548 E11.73333
G1 X65.011 Y142.35 E11.77276
G1 X64.271 Y142.076 E11.81213
G1 X63.73 Y141.818 E11.84203
G1 X63.522 Y141.709 E11.85374
G1 X62.841 Y141.307 E11.8932
G1 X62.206 Y140.839 E11.93255
G1 X61.62 Y140.309 E11.97197
G1 X61.091 Y139.723 E12.01136
G1 X60.712 Y139.215 E12.04298
G1 X60.666 Y139.148 E12.04703
G1 X60.252 Y138.475 E12.08645
G1 X59.909 Y137.764 E12.12584
G1 X59.639 Y137.022 E12.16523
G1 X59.446 Y136.256 E12.20464
G1 X59.331 Y135.475 E12.24403
G1 X59.296 Y134.741 E12.28069
G1 X59.286 Y124.954 E12.76896
G1 X59.286 Y124.945 E12.76941
G1 X59.287 Y117.347 E13.14848
G1 X59.327 Y116.558 E13.18789
G1 X59.447 Y115.778 E13.22726
G1 X59.546 Y115.353 E13.24903
G1 X59.587 Y115.198 E13.25703
G1 X59.828 Y114.446 E13.29643
G1 X60.143 Y113.722 E13.33582
G1 X60.53 Y113.034 E13.3752
G1 X60.566 Y112.983 E13.37832
G1 X60.279 Y112.523 E13.40537
G1 X59.93 Y111.814 E13.44479
G1 X59.656 Y111.074 E13.48416
G1 X59.457 Y110.31 E13.52355
G1 X59.337 Y109.529 E13.56297
G1 X59.296 Y108.741 E13.60234
G1 X59.286 Y98.954 E14.09061
G1 X59.286 Y98.945 E14.09106
G1 X59.287 Y91.347 E14.47013
G1 X59.327 Y90.558 E14.50954
G1 X59.447 Y89.778 E14.54891
G1 X59.546 Y89.353 E14.57068
G1 X59.587 Y89.198 E14.57868
G1 X59.828 Y88.446 E14.61808
G1 X60.143 Y87.722 E14.65747
G1 X60.53 Y87.034 E14.69685
G1 X60.565 Y86.984 E14.6999
G1 X60.252 Y86.475 E14.72971
G1 X59.909 Y85.764 E14.76909
G1 X59.639 Y85.022 E14.80849
G1 X59.446 Y84.256 E14.8479
G1 X59.331 Y83.475 E14.88728
G1 X59.296 Y82.741 E14.92394
G1 X59.286 Y72.954 E15.41222
G1 X59.286 Y72.945 E15.41267
G1 X59.287 Y65.347 E15.79173
G1 X59.327 Y64.558 E15.83115
G1 X59.447 Y63.778 E15.87052
G1 X59.546 Y63.353 E15.89229
G1 X59.587 Y63.198 E15.90029
G1 X59.828 Y62.446 E15.93969
G1 X60.143 Y61.722 E15.97908
G1 X60.53 Y61.034 E16.01846
G1 X60.984 Y60.388 E16.05785
G1 X61.501 Y59.791 E16.09725
G0 F3600 X61.86 Y59.996
G1 F1800 X62.427 Y59.478 E16.13557
G1 X63.046 Y59.021 E16.17395
G1 X63.964 Y58.504 E16.22652
G1 X64.186 Y58.399 E16.23877
G1 X64.898 Y58.106 E16.27718
G1 X65.635 Y57.889 E16.31551
G1 X66.392 Y57.75 E16.35391
G1 X67.347 Y57.688 E16.40165
G1 X75.404 Y57.685 E16.80362
G1 X75.445 Y57.685 E16.80567
G1 X84.851 Y57.733 E17.27494
G1 X85.619 Y57.777 E17.31332
G1 X86.378 Y57.9 E17.35168
G1 X87.12 Y58.102 E17.39004
G1 X87.838 Y58.379 E17.42844
G1 X88.025 Y58.475 E17.43893
G1 X88.186 Y58.399 E17.44781
G1 X88.898 Y58.106 E17.48622
G1 X89.635 Y57.889 E17.52455
G1 X90.392 Y57.75 E17.56295
G1 X91.347 Y57.688 E17.61069
G1 X99.404 Y57.685 E18.01266
G1 X99.445 Y57.685 E18.0147
G1 X108.851 Y57.733 E18.48398
G1 X109.619 Y57.777 E18.52236
G1 X110.378 Y57.9 E18.56072
G1 X111.12 Y58.102 E18.59908
G1 X111.838 Y58.379 E18.63748
G1 X112.025 Y58.475 E18.64796
G1 X112.186 Y58.399 E18.65685
G1 X112.898 Y58.106 E18.69526
G1 X113.635 Y57.889 E18.73359
G1 X114.392 Y57.75 E18.77199
G1 X115.347 Y57.688 E18.81973
G1 X123.404 Y57.685 E19.2217
G1 X123.445 Y57.685 E19.22374
G1 X132.851 Y57.733 E19.69302
G1 X133.619 Y57.777 E19.73139
G1 X134.378 Y57.9 E19.76975
G1 X135.12 Y58.102 E19.80812
G1 X135.838 Y58.379 E19.84652
G1 X136.522 Y58.73 E19.88487
G1 X137.167 Y59.149 E19.92324
G1 X137.764 Y59.634 E19.96162
G1 X138.309 Y60.177 E20
G1 X138.793 Y60.774 E20.03834
G1 X139.063 Y61.172 E20.06234
G1 X139.153 Y61.314 E20.07073
G1 X139.531 Y61.984 E20.1091
G1 X139.837 Y62.689 E20.14745
G1 X140.068 Y63.423 E20.18584
G1 X140.221 Y64.177 E20.22422
G1 X140.303 Y65.235 E20.27716
G1 X140.315 Y67.454 E20.38787
G1 X140.315 Y67.495 E20.38992
G1 X140.312 Y82.651 E21.14605
G1 X140.272 Y83.42 E21.18447
G1 X140.152 Y84.179 E21.22281
G1 X139.954 Y84.923 E21.26122
G1 X139.68 Y85.641 E21.29956
G1 X139.333 Y86.328 E21.33796
G1 X139.107 Y86.697 E21.35954
G1 X138.945 Y86.945 E21.37432
G1 X138.926 Y86.971 E21.37593
G1 X139.063 Y87.172 E21.38807
G1 X139.153 Y87.314 E21.39645
G1 X139.531 Y87.984 E21.43483
G1 X139.837 Y88.689 E21.47318
G1 X140.068 Y89.423 E21.51157
G1 X140.221 Y90.177 E21.54995
G1 X140.303 Y91.235 E21.60289
G1 X140.315 Y93.454 E21.7136
G1 X140.315 Y93.495 E21.71564
G1 X140.312 Y108.651 E22.47178
G1 X140.272 Y109.42 E22.5102
G1 X140.152 Y110.179 E22.54854
G1 X139.954 Y110.923 E22.58695
G1 X139.68 Y111.641 E22.62529
G1 X139.333 Y112.328 E22.66368
G1 X139.107 Y112.697 E22.68527
G1 X138.945 Y112.945 E22.70005
G1 X138.926 Y112.971 E22.70166
G1 X139.063 Y113.172 E22.71379
G1 X139.153 Y113.314 E22.72218
G1 X139.531 Y113.984 E22.76056
G1 X139.837 Y114.689 E22.7989
G1 X140.068 Y115.423 E22.83729
G1 X140.221 Y116.177 E22.87568
G1 X140.303 Y117.235 E22.92862
G1 X140.315 Y119.454 E23.03933
G1 X140.315 Y119.495 E23.04137
G1 X140.312 Y134.651 E23.79751
G1 X140.272 Y135.42 E23.83593
G1 X140.152 Y136.179 E23.87426
G1 X139.954 Y136.923 E23.91267
G1 X139.68 Y137.641 E23.95101
G1 X139.333 Y138.328 E23.98941
G1 X139.107 Y138.697 E24.011
G1 X138.945 Y138.945 E24.02578
G1 X138.492 Y139.566 E24.06413
G1 X137.976 Y140.137 E24.10252
G1 X137.404 Y140.651 E24.14089
G1 X136.782 Y141.103 E24.17925
G1 X136.116 Y141.488 E24.21763
G1 X135.414 Y141.802 E24.256
G1 X134.683 Y142.041 E24.29437
G1 X133.931 Y142.203 E24.33274
G1 X133.166 Y142.286 E24.37113
G1 X132.769 Y142.298 E24.39095
G1 X125.814 Y142.316 E24.73794
G1 X125.79 Y142.316 E24.73913
G1 X115.345 Y142.309 E25.26024
G1 X114.577 Y142.269 E25.29861
G1 X113.817 Y142.149 E25.33699
G1 X113.074 Y141.95 E25.37537
G1 X112.355 Y141.676 E25.41375
G1 X112.038 Y141.523 E25.43132
G1 X111.414 Y141.802 E25.46542
G1 X110.683 Y142.041 E25.50379
G1 X109.931 Y142.203 E25.54216
G1 X109.166 Y142.286 E25.58055
G1 X108.769 Y142.298 E25.60037
G1 X101.814 Y142.316 E25.94736
G1 X101.79 Y142.316 E25.94855
G1 X91.345 Y142.309 E26.46966
G1 X90.577 Y142.269 E26.50803
G1 X89.817 Y142.149 E26.54641
G1 X89.074 Y141.95 E26.58479
G1 X88.355 Y141.676 E26.62317
G1 X88.038 Y141.523 E26.64074
G1 X87.414 Y141.802 E26.67484
G1 X86.683 Y142.041 E26.71321
G1 X85.931 Y142.203 E26.75158
G1 X85.166 Y142.286 E26.78997
G1 X84.769 Y142.298 E26.80979
G1 X77.814 Y142.316 E27.15678
G1 X77.79 Y142.316 E27.15797
G1 X67.345 Y142.309 E27.67908
G1 X66.577 Y142.269 E27.71745
G1 X65.817 Y142.149 E27.75583
G1 X65.074 Y141.95 E27.79421
G1 X64.355 Y141.676 E27.83259
G1 X63.915 Y141.464 E27.85696
G1 X63.707 Y141.355 E27.86868
G1 X63.045 Y140.963 E27.90706
G1 X62.428 Y140.504 E27.94543
G1 X61.861 Y139.984 E27.98381
G1 X61.352 Y139.408 E28.02216
G1 X61.041 Y138.988 E28.04823
G1 X60.995 Y138.921 E28.05229
G1 X60.594 Y138.266 E28.0906
G1 X60.262 Y137.572 E28.12898
G1 X60.004 Y136.847 E28.16738
G1 X59.823 Y136.099 E28.20577
G1 X59.721 Y135.337 E28.24413
G1 X59.696 Y134.741 E28.27389
G1 X59.686 Y124.954 E28.76216
G1 X59.686 Y124.945 E28.76261
G1 X59.687 Y117.347 E29.14168
G1 X59.727 Y116.579 E29.18004
G1 X59.933 Y115.456 E29.23701
G1 X59.974 Y115.301 E29.24501
G1 X60.209 Y114.568 E29.28341
G1 X60.519 Y113.864 E29.32179
G1 X60.9 Y113.196 E29.36015
G1 X61.046 Y112.993 E29.37263
G1 X61.025 Y112.964 E29.37441
G1 X60.619 Y112.311 E29.41277
G1 X60.282 Y111.62 E29.45113
G1 X60.019 Y110.897 E29.48951
G1 X59.833 Y110.15 E29.52792
G1 X59.725 Y109.389 E29.56627
G1 X59.696 Y108.741 E29.59863
G1 X59.686 Y98.954 E30.0869
G1 X59.686 Y98.945 E30.08735
G1 X59.687 Y91.347 E30.46642
G1 X59.727 Y90.579 E30.50479
G1 X59.933 Y89.456 E30.56175
G1 X59.974 Y89.301 E30.56975
G1 X60.209 Y88.568 E30.60815
G1 X60.519 Y87.864 E30.64653
G1 X60.9 Y87.196 E30.68489
G1 X61.045 Y86.994 E30.6973
G1 X61.041 Y86.988 E30.69766
G1 X60.995 Y86.921 E30.70171
G1 X60.594 Y86.266 E30.74003
G1 X60.262 Y85.572 E30.77841
G1 X60.004 Y84.847 E30.8168
G1 X59.823 Y84.099 E30.8552
G1 X59.721 Y83.337 E30.89355
G1 X59.696 Y82.741 E30.92331
G1 X59.686 Y72.954 E31.41159
G1 X59.686 Y72.945 E31.41204
G1 X59.687 Y65.347 E31.7911
G1 X59.727 Y64.579 E31.82947
G1 X59.933 Y63.456 E31.88643
G1 X59.974 Y63.301 E31.89443
G1 X60.209 Y62.568 E31.93283
G1 X60.519 Y61.864 E31.97121
G1 X60.9 Y61.196 E32.00958
G1 X61.349 Y60.571 E32.04797
G1 X61.86 Y59.996 E32.08635
G0 F3600 X62.217 Y60.205
G1 F1800 X62.777 Y59.709 E32.12367
G1 X63.387 Y59.276 E32.16099
G1 X64.135 Y58.865 E32.20357
G1 X64.357 Y58.76 E32.21582
G1 X65.049 Y58.477 E32.25312
G1 X65.768 Y58.269 E32.29047
G1 X66.505 Y58.139 E32.3278
G1 X67.347 Y58.088 E32.36989
G1 X75.404 Y58.085 E32.77185
G1 X75.443 Y58.085 E32.7738
G1 X84.849 Y58.133 E33.24307
G1 X85.596 Y58.177 E33.2804
G1 X86.333 Y58.3 E33.31768
G1 X87.054 Y58.501 E33.35502
G1 X87.749 Y58.778 E33.39235
G1 X88.026 Y58.925 E33.40799
G1 X88.135 Y58.865 E33.4142
G1 X88.357 Y58.76 E33.42645
G1 X89.049 Y58.477 E33.46375
G1 X89.768 Y58.269 E33.5011
G1 X90.505 Y58.139 E33.53843
G1 X91.347 Y58.088 E33.58052
G1 X99.404 Y58.085 E33.98248
G1 X99.443 Y58.085 E33.98443
G1 X108.849 Y58.133 E34.4537
G1 X109.596 Y58.177 E34.49103
G1 X110.333 Y58.3 E34.52831
G1 X111.054 Y58.501 E34.56565
G1 X111.749 Y58.778 E34.60298
G1 X112.026 Y58.925 E34.61863
G1 X112.135 Y58.865 E34.62483
G1 X112.357 Y58.76 E34.63708
G1 X113.049 Y58.477 E34.67438
G1 X113.768 Y58.269 E34.71173
G1 X114.505 Y58.139 E34.74906
G1 X115.347 Y58.088 E34.79115
G1 X123.404 Y58.085 E35.19311
G1 X123.443 Y58.085 E35.19506
G1 X132.849 Y58.133 E35.66433
G1 X133.596 Y58.177 E35.70166
G1 X134.333 Y58.3 E35.73894
G1 X135.054 Y58.501 E35.77628
G1 X135.749 Y58.778 E35.81361
G1 X136.41 Y59.128 E35.85093
G1 X137.03 Y59.546 E35.88823
G1 X137.602 Y60.028 E35.92555
G1 X138.12 Y60.568 E35.96288
G1 X138.725 Y61.386 E36.01364
G1 X138.815 Y61.528 E36.02203
G1 X139.182 Y62.18 E36.05936
G1 X139.476 Y62.868 E36.09668
G1 X139.695 Y63.583 E36.13399
G1 X139.837 Y64.317 E36.17129
G1 X139.903 Y65.237 E36.2173
G1 X139.915 Y67.456 E36.32801
G1 X139.915 Y67.495 E36.32996
G1 X139.912 Y82.651 E37.08609
G1 X139.872 Y83.398 E37.12342
G1 X139.752 Y84.137 E37.16077
G1 X139.555 Y84.858 E37.19806
G1 X139.281 Y85.555 E37.23542
G1 X138.772 Y86.478 E37.28801
G1 X138.61 Y86.726 E37.30279
G1 X138.424 Y86.98 E37.31849
G1 X138.725 Y87.386 E37.34371
G1 X138.815 Y87.528 E37.35209
G1 X139.182 Y88.18 E37.38942
G1 X139.476 Y88.868 E37.42675
G1 X139.695 Y89.583 E37.46406
G1 X139.837 Y90.317 E37.50136
G1 X139.903 Y91.237 E37.54737
G1 X139.915 Y93.456 E37.65808
G1 X139.915 Y93.495 E37.66003
G1 X139.912 Y108.651 E38.41616
G1 X139.872 Y109.398 E38.45348
G1 X139.752 Y110.137 E38.49083
G1 X139.555 Y110.858 E38.52812
G1 X139.281 Y111.555 E38.56549
G1 X138.772 Y112.478 E38.61807
G1 X138.61 Y112.726 E38.63285
G1 X138.424 Y112.98 E38.64856
G1 X138.725 Y113.386 E38.67377
G1 X138.815 Y113.528 E38.68216
G1 X139.182 Y114.18 E38.71949
G1 X139.476 Y114.868 E38.75682
G1 X139.695 Y115.583 E38.79412
G1 X139.837 Y116.317 E38.83142
G1 X139.903 Y117.237 E38.87744
G1 X139.915 Y119.456 E38.98815
G1 X139.915 Y119.495 E38.99009
G1 X139.912 Y134.651 E39.74623
G1 X139.872 Y135.398 E39.78355
G1 X139.752 Y136.137 E39.8209
G1 X139.555 Y136.858 E39.85819
G1 X139.281 Y137.555 E39.89556
G1 X138.772 Y138.478 E39.94814
G1 X138.61 Y138.726 E39.96292
G1 X138.168 Y139.33 E40.00026
G1 X137.665 Y139.883 E40.03756
G1 X137.105 Y140.379 E40.07488
G1 X136.495 Y140.812 E40.1122
G1 X135.842 Y141.178 E40.14954
G1 X135.155 Y141.472 E40.18683
G1 X134.439 Y141.691 E40.22418
G1 X133.705 Y141.833 E40.26148
G1 X132.768 Y141.898 E40.30834
G1 X125.813 Y141.916 E40.65533
G1 X125.79 Y141.916 E40.65647
G1 X115.345 Y141.909 E41.17758
G1 X114.598 Y141.869 E41.2149
G1 X113.86 Y141.749 E41.2522
