;FLAVOR:Marlin
;TIME:6890
;Filament used: 3.88194m
;Layer height: 0.1
;MINX:17.902
;MINY:73.284
;MINZ:0.3
;MAXX:182.107
;MAXY:126.719
;MAXZ:4.5
;Generated with Cura_SteamEngine 4.1.0
M140 S60
M105
M190 S60
M104 S200
M105
M109 S200
M82 ;absolute extrusion mode
G21 ;metric values
 G90 ;absolute positioning
 M82 ;set extruder to absolute mode
 M107 ;start with the fan off
 G28 X0 Y0 ;move X/Y to min endstops
 G28 Z0 ;move Z to min endstops
 G1 Z15.0 F120 ;move the platform down 15mm
 G92 E0 ;zero the extruded length
 G1 F200 E6 ;extrude 6 mm of feed stock
 G92 E0 ;zero the extruded length again
 G1 F120 
 ;Put printing message on LCD screen
 M117 Printing...
G92 E0
G92 E0
G1 F1500 E-6.5
;LAYER_COUNT:43
;LAYER:0
M107
G0 F3600 X26.756 Y88.107 Z0.3
;TYPE:SKIRT
G1 F1500 E0
G1 F1800 X27.699 Y87.865 E0.04857
G1 X28.27 Y87.756 E0.07757
G1 X29.235 Y87.634 E0.1261
G1 X29.813 Y87.597 E0.155
G1 X30.792 Y87.596 E0.20384
G1 X31.358 Y87.631 E0.23213
G1 X32.319 Y87.751 E0.28045
G1 X32.893 Y87.859 E0.30959
G1 X33.845 Y88.1 E0.35858
G1 X34.255 Y88.232 E0.38007
G1 X37.949 Y87.834 E0.56543
G1 X171.054 Y73.346 E7.24529
G1 X171.675 Y73.303 E7.27634
G1 X172.34 Y73.284 E7.30953
G1 X173.13 Y73.302 E7.34896
G1 X173.913 Y73.399 E7.38832
G1 X174.492 Y73.523 E7.41786
G1 X174.974 Y73.646 E7.44268
G1 X175.728 Y73.88 E7.48207
G1 X176.455 Y74.189 E7.52148
G1 X176.815 Y74.375 E7.54169
G1 X177.257 Y74.619 E7.56688
G1 X177.928 Y75.036 E7.60629
G1 X178.821 Y75.757 E7.66356
G1 X179.188 Y76.101 E7.68865
G1 X179.736 Y76.67 E7.72806
G1 X180.443 Y77.617 E7.78702
G1 X180.711 Y78.04 E7.81201
G1 X181.099 Y78.728 E7.85141
G1 X181.542 Y79.809 E7.9097
G1 X181.696 Y80.284 E7.93461
G1 X181.901 Y81.047 E7.97403
G1 X182.028 Y81.826 E8.0134
G1 X182.073 Y82.471 E8.04566
G1 X182.104 Y83.575 E8.10076
G1 X182.107 Y83.794 E8.11169
G1 X182.107 Y116.604 E9.74859
G1 X182.1 Y116.928 E9.76475
G1 X182.071 Y117.626 E9.79961
G1 X181.999 Y118.412 E9.83899
G1 X181.847 Y119.187 E9.87839
G1 X181.705 Y119.684 E9.90417
G1 X181.553 Y120.158 E9.92901
G1 X181.275 Y120.897 E9.9684
G1 X180.733 Y121.921 E10.0262
G1 X180.467 Y122.345 E10.05117
G1 X180.014 Y122.992 E10.09058
G1 X179.219 Y123.867 E10.14956
G1 X178.851 Y124.215 E10.17483
G1 X178.251 Y124.728 E10.21421
G1 X177.289 Y125.361 E10.27166
G1 X176.853 Y125.604 E10.29657
G1 X176.145 Y125.953 E10.33595
G1 X175.405 Y126.229 E10.37535
G1 X175.01 Y126.342 E10.39585
G1 X174.527 Y126.467 E10.42074
G1 X173.754 Y126.626 E10.46011
G1 X172.619 Y126.716 E10.51691
G1 X172.108 Y126.719 E10.54241
G1 X171.219 Y126.673 E10.58682
G1 X165.316 Y126.031 E10.88306
G1 X34.256 Y111.765 E17.46029
G1 X33.889 Y111.885 E17.47955
G1 X32.959 Y112.126 E17.52749
G1 X32.388 Y112.237 E17.55651
G1 X31.412 Y112.363 E17.6056
G1 X30.834 Y112.401 E17.6345
G1 X29.845 Y112.403 E17.68384
G1 X29.257 Y112.367 E17.71323
G1 X28.274 Y112.244 E17.76266
G1 X27.702 Y112.135 E17.79171
G1 X26.756 Y111.893 E17.84042
G1 X26.207 Y111.715 E17.86922
G1 X25.297 Y111.355 E17.91804
G1 X24.769 Y111.107 E17.94714
G1 X23.905 Y110.633 E17.99631
G1 X23.415 Y110.322 E18.02526
G1 X22.618 Y109.741 E18.07447
G1 X22.174 Y109.373 E18.10324
G1 X21.458 Y108.7 E18.15227
G1 X21.06 Y108.275 E18.18131
G1 X20.447 Y107.534 E18.22929
G1 X20.107 Y107.067 E18.25811
G1 X19.581 Y106.24 E18.30701
G1 X19.3 Y105.73 E18.33606
G1 X18.876 Y104.828 E18.38579
G1 X18.663 Y104.288 E18.41475
G1 X18.369 Y103.384 E18.46217
G1 X18.224 Y102.825 E18.49098
G1 X18.034 Y101.834 E18.54133
G1 X17.962 Y101.258 E18.57029
G1 X17.902 Y100.291 E18.61862
G1 X17.902 Y99.711 E18.64756
G1 X17.962 Y98.747 E18.69575
G1 X18.034 Y98.169 E18.72481
G1 X18.224 Y97.175 E18.77529
G1 X18.369 Y96.616 E18.80411
G1 X18.663 Y95.712 E18.85153
G1 X18.876 Y95.172 E18.88049
G1 X19.3 Y94.27 E18.93022
G1 X19.581 Y93.76 E18.95927
G1 X20.107 Y92.933 E19.00817
G1 X20.447 Y92.466 E19.03699
G1 X21.06 Y91.725 E19.08496
G1 X21.458 Y91.3 E19.11401
G1 X22.174 Y90.627 E19.16304
G1 X22.618 Y90.259 E19.19181
G1 X23.415 Y89.678 E19.24101
G1 X23.905 Y89.367 E19.26997
G1 X24.769 Y88.893 E19.31914
G1 X25.297 Y88.645 E19.34824
G1 X26.207 Y88.285 E19.39706
G1 X26.756 Y88.107 E19.42586
G0 F3600 X26.88 Y88.488
G1 F1800 X27.774 Y88.258 E19.47191
G1 X28.345 Y88.149 E19.50091
G1 X29.26 Y88.033 E19.54693
G1 X29.838 Y87.996 E19.57582
G1 X30.768 Y87.995 E19.62222
G1 X31.334 Y88.03 E19.65051
G1 X32.245 Y88.144 E19.69632
G1 X32.819 Y88.252 E19.72546
G1 X33.722 Y88.481 E19.77193
G1 X34.213 Y88.639 E19.79767
G1 X37.984 Y88.233 E19.98689
G1 X37.984 Y88.232 E19.98694
G1 X171.097 Y73.743 E26.6672
G1 X171.687 Y73.703 E26.6967
G1 X172.352 Y73.684 E26.72989
G1 X173.121 Y73.702 E26.76827
G1 X173.884 Y73.8 E26.80665
G1 X174.393 Y73.911 E26.83264
G1 X174.875 Y74.034 E26.85745
G1 X175.609 Y74.262 E26.8958
G1 X176.621 Y74.726 E26.95134
G1 X177.063 Y74.97 E26.97653
G1 X177.716 Y75.376 E27.01489
G1 X178.548 Y76.049 E27.06828
G1 X178.915 Y76.393 E27.09338
G1 X179.448 Y76.947 E27.13173
G1 X180.105 Y77.832 E27.18672
G1 X180.373 Y78.255 E27.2117
G1 X180.75 Y78.925 E27.25006
G1 X181.161 Y79.933 E27.30437
G1 X181.315 Y80.408 E27.32928
G1 X181.514 Y81.151 E27.36765
G1 X181.635 Y81.91 E27.406
G1 X181.673 Y82.482 E27.4346
G1 X181.704 Y83.586 E27.4897
G1 X181.707 Y83.794 E27.50008
G1 X181.707 Y116.604 E29.13698
G1 X181.701 Y116.911 E29.15229
G1 X181.672 Y117.609 E29.18715
G1 X181.6 Y118.375 E29.22553
G1 X181.449 Y119.129 E29.2639
G1 X181.325 Y119.562 E29.28637
G1 X181.173 Y120.036 E29.3112
G1 X180.9 Y120.755 E29.34957
G1 X180.395 Y121.709 E29.40342
G1 X180.129 Y122.133 E29.4284
G1 X179.686 Y122.762 E29.46678
G1 X178.944 Y123.577 E29.52177
G1 X178.576 Y123.925 E29.54703
G1 X177.991 Y124.423 E29.58536
G1 X177.095 Y125.012 E29.63886
G1 X176.659 Y125.255 E29.66376
G1 X175.968 Y125.594 E29.70216
G1 X174.91 Y125.955 E29.75793
G1 X174.427 Y126.08 E29.78282
G1 X173.673 Y126.234 E29.82122
G1 X172.616 Y126.316 E29.87411
G1 X172.105 Y126.319 E29.8996
G1 X171.262 Y126.276 E29.94172
G1 X165.359 Y125.634 E30.23795
G1 X34.211 Y111.359 E36.8196
G1 X33.765 Y111.504 E36.843
G1 X32.883 Y111.733 E36.88846
G1 X32.312 Y111.844 E36.91748
G1 X31.385 Y111.964 E36.96411
G1 X30.807 Y112.002 E36.99301
G1 X29.87 Y112.004 E37.03976
G1 X29.282 Y111.968 E37.06915
G1 X28.349 Y111.851 E37.11606
G1 X27.777 Y111.742 E37.14511
G1 X26.88 Y111.512 E37.19131
G1 X26.331 Y111.334 E37.22011
G1 X25.467 Y110.993 E37.26645
G1 X24.939 Y110.745 E37.29555
G1 X24.12 Y110.295 E37.34217
G1 X23.63 Y109.984 E37.37113
G1 X22.873 Y109.433 E37.41784
G1 X22.429 Y109.065 E37.44661
G1 X21.75 Y108.426 E37.49313
G1 X21.352 Y108.001 E37.52217
G1 X20.771 Y107.299 E37.56764
G1 X20.431 Y106.832 E37.59646
G1 X19.932 Y106.047 E37.64286
G1 X19.651 Y105.537 E37.67191
G1 X19.248 Y104.681 E37.71912
G1 X19.035 Y104.141 E37.74808
G1 X18.756 Y103.284 E37.79304
G1 X18.611 Y102.725 E37.82185
G1 X18.431 Y101.785 E37.8696
G1 X18.359 Y101.209 E37.89856
G1 X18.302 Y100.291 E37.94445
G1 X18.302 Y99.711 E37.97339
G1 X18.359 Y98.796 E38.01912
G1 X18.431 Y98.218 E38.04818
G1 X18.611 Y97.275 E38.09608
G1 X18.756 Y96.716 E38.12489
G1 X19.035 Y95.859 E38.16986
G1 X19.248 Y95.319 E38.19882
G1 X19.651 Y94.463 E38.24602
G1 X19.932 Y93.953 E38.27507
G1 X20.431 Y93.168 E38.32148
G1 X20.771 Y92.701 E38.35029
G1 X21.352 Y91.999 E38.39576
G1 X21.75 Y91.574 E38.42481
G1 X22.429 Y90.935 E38.47132
G1 X22.873 Y90.567 E38.50009
G1 X23.63 Y90.016 E38.54681
G1 X24.12 Y89.705 E38.57576
G1 X24.939 Y89.255 E38.62238
G1 X25.467 Y89.007 E38.65149
G1 X26.331 Y88.666 E38.69783
G1 X26.88 Y88.488 E38.72662
G0 F3600 X27.003 Y88.868
G1 F1800 X27.849 Y88.651 E38.77019
G1 X28.42 Y88.542 E38.79919
G1 X29.286 Y88.432 E38.84275
G1 X29.864 Y88.395 E38.87164
G1 X30.743 Y88.394 E38.9155
G1 X31.309 Y88.429 E38.94379
G1 X32.171 Y88.537 E38.98713
G1 X32.745 Y88.645 E39.01627
G1 X33.599 Y88.862 E39.06023
G1 X34.151 Y89.04 E39.08916
G1 X34.166 Y89.046 E39.08997
G1 X38.035 Y88.629 E39.28411
G1 X171.141 Y74.141 E45.96402
G1 X171.698 Y74.103 E45.99187
G1 X172.363 Y74.084 E46.02506
G1 X173.111 Y74.102 E46.06239
G1 X173.852 Y74.201 E46.09969
G1 X174.294 Y74.298 E46.12227
G1 X174.776 Y74.421 E46.14708
G1 X175.49 Y74.645 E46.18442
G1 X176.428 Y75.076 E46.23592
G1 X176.87 Y75.32 E46.26111
G1 X177.505 Y75.716 E46.29844
G1 X178.274 Y76.341 E46.34788
G1 X178.641 Y76.685 E46.37298
G1 X179.159 Y77.225 E46.41031
G1 X179.767 Y78.046 E46.46128
G1 X180.035 Y78.469 E46.48626
G1 X180.401 Y79.121 E46.52356
G1 X180.781 Y80.056 E46.57392
G1 X180.935 Y80.531 E46.59883
G1 X181.127 Y81.254 E46.63615
G1 X181.241 Y81.993 E46.67345
G1 X181.273 Y82.494 E46.6985
G1 X181.304 Y83.598 E46.7536
G1 X181.307 Y83.794 E46.76338
G1 X181.307 Y116.604 E48.40028
G1 X181.301 Y116.895 E48.4148
G1 X181.272 Y117.593 E48.44965
G1 X181.201 Y118.337 E48.48694
G1 X181.051 Y119.07 E48.52427
G1 X180.944 Y119.44 E48.54348
G1 X180.792 Y119.914 E48.56832
G1 X180.525 Y120.613 E48.60565
G1 X180.056 Y121.496 E48.65553
G1 X179.79 Y121.92 E48.6805
G1 X179.359 Y122.532 E48.71784
G1 X178.67 Y123.286 E48.7688
G1 X178.302 Y123.634 E48.79407
G1 X177.731 Y124.118 E48.83142
G1 X176.9 Y124.662 E48.88097
G1 X176.464 Y124.905 E48.90587
G1 X175.792 Y125.234 E48.9432
G1 X174.81 Y125.568 E48.99495
G1 X174.327 Y125.693 E49.01984
G1 X173.594 Y125.841 E49.05715
G1 X172.614 Y125.916 E49.10618
G1 X172.103 Y125.919 E49.13167
G1 X171.305 Y125.878 E49.17154
G1 X165.402 Y125.236 E49.46778
G1 X34.17 Y110.952 E56.05364
G1 X33.641 Y111.124 E56.08139
G1 X32.807 Y111.34 E56.12437
G1 X32.236 Y111.451 E56.15339
G1 X31.359 Y111.565 E56.19751
G1 X30.781 Y111.603 E56.22641
G1 X29.894 Y111.605 E56.27067
G1 X29.306 Y111.569 E56.30006
G1 X28.424 Y111.458 E56.34441
G1 X27.852 Y111.349 E56.37346
G1 X27.003 Y111.132 E56.41718
G1 X26.454 Y110.954 E56.44597
G1 X25.637 Y110.631 E56.4898
G1 X25.109 Y110.383 E56.5189
G1 X24.334 Y109.957 E56.56302
G1 X23.844 Y109.646 E56.59198
G1 X23.128 Y109.125 E56.63615
G1 X22.684 Y108.757 E56.66493
G1 X22.042 Y108.153 E56.7089
G1 X21.644 Y107.728 E56.73795
G1 X21.094 Y107.063 E56.78101
G1 X20.754 Y106.596 E56.80982
G1 X20.282 Y105.854 E56.8537
G1 X20.001 Y105.344 E56.88275
G1 X19.62 Y104.535 E56.92736
G1 X19.407 Y103.995 E56.95632
G1 X19.143 Y103.184 E56.99887
G1 X18.998 Y102.625 E57.02769
G1 X18.828 Y101.735 E57.07289
G1 X18.756 Y101.159 E57.10185
G1 X18.702 Y100.291 E57.14524
G1 X18.702 Y99.711 E57.17418
G1 X18.756 Y98.846 E57.21741
G1 X18.828 Y98.268 E57.24647
G1 X18.998 Y97.375 E57.29183
G1 X19.143 Y96.816 E57.32064
G1 X19.407 Y96.005 E57.36319
G1 X19.62 Y95.465 E57.39215
G1 X20.001 Y94.656 E57.43676
G1 X20.282 Y94.146 E57.46581
G1 X20.754 Y93.404 E57.50969
G1 X21.094 Y92.937 E57.53851
G1 X21.644 Y92.272 E57.58156
G1 X22.042 Y91.847 E57.61061
G1 X22.684 Y91.243 E57.65459
G1 X23.128 Y90.875 E57.68336
G1 X23.844 Y90.354 E57.72753
G1 X24.334 Y90.043 E57.75649
G1 X25.109 Y89.617 E57.80061
G1 X25.637 Y89.369 E57.82971
G1 X26.454 Y89.046 E57.87354
G1 X27.003 Y88.868 E57.90234
G0 F3600 X27.126 Y89.249
G1 F1800 X27.924 Y89.044 E57.94344
G1 X28.495 Y88.935 E57.97244
G1 X29.311 Y88.831 E58.01348
G1 X29.889 Y88.794 E58.04238
G1 X30.718 Y88.794 E58.08374
G1 X31.284 Y88.829 E58.11203
G1 X32.097 Y88.93 E58.1529
G1 X32.671 Y89.038 E58.18204
G1 X33.477 Y89.243 E58.22353
G1 X34.029 Y89.421 E58.25247
G1 X34.114 Y89.454 E58.25702
G1 X38.078 Y89.027 E58.45593
G1 X171.184 Y74.539 E65.13583
G1 X171.71 Y74.503 E65.16214
G1 X172.375 Y74.484 E65.19533
G1 X173.101 Y74.503 E65.23156
G1 X173.82 Y74.602 E65.26777
G1 X174.195 Y74.686 E65.28694
G1 X174.677 Y74.809 E65.31176
G1 X175.37 Y75.027 E65.348
G1 X176.235 Y75.426 E65.39553
G1 X176.677 Y75.67 E65.42072
G1 X177.292 Y76.055 E65.45692
G1 X178.001 Y76.633 E65.50255
G1 X178.368 Y76.977 E65.52765
G1 X178.869 Y77.502 E65.56385
G1 X179.429 Y78.26 E65.61087
G1 X179.697 Y78.683 E65.63585
G1 X180.052 Y79.317 E65.6721
G1 X180.4 Y80.18 E65.71853
G1 X180.554 Y80.655 E65.74344
G1 X180.74 Y81.357 E65.77967
G1 X180.847 Y82.075 E65.81589
G1 X180.873 Y82.505 E65.83738
G1 X180.904 Y83.609 E65.89248
G1 X180.907 Y83.794 E65.90171
G1 X180.907 Y116.604 E67.53861
G1 X180.901 Y116.878 E67.55228
G1 X180.872 Y117.576 E67.58714
G1 X180.802 Y118.299 E67.62338
G1 X180.563 Y119.317 E67.67554
G1 X180.411 Y119.791 E67.70038
G1 X180.151 Y120.47 E67.73665
G1 X179.717 Y121.283 E67.78263
G1 X179.451 Y121.707 E67.8076
G1 X179.032 Y122.301 E67.84387
G1 X178.395 Y122.995 E67.89087
G1 X178.027 Y123.343 E67.91613
G1 X177.472 Y123.813 E67.95242
G1 X176.705 Y124.313 E67.9981
G1 X176.269 Y124.556 E68.023
G1 X175.616 Y124.874 E68.05924
G1 X174.71 Y125.18 E68.10694
G1 X174.227 Y125.305 E68.13184
G1 X173.514 Y125.449 E68.16813
G1 X172.612 Y125.516 E68.21325
G1 X172.101 Y125.519 E68.23874
G1 X171.348 Y125.48 E68.27636
G1 X165.445 Y124.838 E68.5726
G1 X34.12 Y110.544 E75.16313
G1 X34.066 Y110.565 E75.16602
G1 X33.517 Y110.744 E75.19483
G1 X32.73 Y110.948 E75.23539
G1 X32.159 Y111.059 E75.26441
G1 X31.333 Y111.166 E75.30596
G1 X30.755 Y111.204 E75.33486
G1 X29.919 Y111.206 E75.37657
G1 X29.331 Y111.17 E75.40596
G1 X28.499 Y111.065 E75.4478
G1 X27.927 Y110.956 E75.47685
G1 X27.126 Y110.751 E75.5181
G1 X26.577 Y110.573 E75.54689
G1 X25.807 Y110.269 E75.58819
G1 X25.279 Y110.021 E75.6173
G1 X24.548 Y109.619 E75.65892
G1 X24.058 Y109.308 E75.68787
G1 X23.383 Y108.817 E75.72951
G1 X22.939 Y108.449 E75.75828
G1 X22.334 Y107.879 E75.79975
G1 X21.936 Y107.454 E75.8288
G1 X21.417 Y106.828 E75.86937
G1 X21.077 Y106.361 E75.89819
G1 X20.632 Y105.661 E75.93957
G1 X20.351 Y105.151 E75.96862
G1 X19.992 Y104.388 E76.01069
G1 X19.779 Y103.848 E76.03965
G1 X19.53 Y103.083 E76.07979
G1 X19.385 Y102.524 E76.1086
G1 X19.225 Y101.686 E76.15117
G1 X19.153 Y101.11 E76.18013
G1 X19.102 Y100.291 E76.22107
G1 X19.102 Y99.711 E76.25
G1 X19.153 Y98.895 E76.29079
G1 X19.225 Y98.317 E76.31985
G1 X19.385 Y97.476 E76.36256
G1 X19.53 Y96.917 E76.39137
G1 X19.779 Y96.152 E76.43151
G1 X19.992 Y95.612 E76.46047
G1 X20.351 Y94.849 E76.50254
G1 X20.632 Y94.339 E76.53159
G1 X21.077 Y93.639 E76.57297
G1 X21.417 Y93.172 E76.60179
G1 X21.936 Y92.546 E76.64236
G1 X22.334 Y92.121 E76.67141
G1 X22.939 Y91.551 E76.71288
G1 X23.383 Y91.183 E76.74165
G1 X24.058 Y90.692 E76.78329
G1 X24.548 Y90.381 E76.81225
G1 X25.279 Y89.979 E76.85387
G1 X25.807 Y89.731 E76.88297
G1 X26.577 Y89.427 E76.92427
G1 X27.126 Y89.249 E76.95307
G0 F3600 X27.25 Y89.629
G1 F1800 X27.999 Y89.437 E76.99164
G1 X28.57 Y89.328 E77.02064
G1 X29.337 Y89.231 E77.05921
G1 X29.915 Y89.194 E77.08811
G1 X30.694 Y89.193 E77.12698
G1 X31.26 Y89.228 E77.15527
G1 X32.023 Y89.323 E77.19363
G1 X32.597 Y89.431 E77.22277
G1 X33.354 Y89.623 E77.26173
G1 X33.906 Y89.801 E77.29066
G1 X34.062 Y89.863 E77.29904
G1 X38.114 Y89.426 E77.50237
G1 X38.114 Y89.425 E77.50242
G1 X171.227 Y74.936 E84.18268
G1 X171.721 Y74.903 E84.20738
G1 X172.386 Y74.884 E84.24057
G1 X173.09 Y74.903 E84.2757
G1 X174.096 Y75.074 E84.32661
G1 X174.578 Y75.197 E84.35143
G1 X175.249 Y75.409 E84.38654
G1 X176.041 Y75.776 E84.43009
G1 X176.483 Y76.02 E84.45528
G1 X177.079 Y76.395 E84.49041
G1 X177.727 Y76.924 E84.53214
G1 X178.094 Y77.268 E84.55724
G1 X178.579 Y77.778 E84.59235
G1 X179.091 Y78.474 E84.63545
G1 X179.359 Y78.897 E84.66044
G1 X179.702 Y79.512 E84.69557
G1 X180.02 Y80.303 E84.7381
G1 X180.174 Y80.778 E84.76301
G1 X180.353 Y81.459 E84.79814
G1 X180.453 Y82.156 E84.83327
G1 X180.474 Y82.516 E84.85126
G1 X180.505 Y83.62 E84.90636
G1 X180.507 Y83.794 E84.91505
G1 X180.507 Y116.604 E86.55194
G1 X180.502 Y116.861 E86.56477
G1 X180.473 Y117.559 E86.59962
G1 X180.404 Y118.26 E86.63476
G1 X180.182 Y119.195 E86.68271
G1 X180.03 Y119.669 E86.70754
G1 X179.777 Y120.326 E86.74267
G1 X179.378 Y121.071 E86.78483
G1 X179.112 Y121.495 E86.8098
G1 X178.705 Y122.069 E86.84491
G1 X178.12 Y122.705 E86.88802
G1 X177.752 Y123.053 E86.91329
G1 X177.214 Y123.507 E86.94841
G1 X176.51 Y123.964 E86.99028
G1 X176.074 Y124.207 E87.01518
G1 X175.441 Y124.514 E87.05028
G1 X174.609 Y124.793 E87.09406
G1 X174.126 Y124.918 E87.11895
G1 X173.436 Y125.056 E87.15406
G1 X172.609 Y125.116 E87.19543
G1 X172.098 Y125.119 E87.22092
G1 X171.392 Y125.083 E87.25619
G1 X165.489 Y124.441 E87.55243
G1 X34.066 Y110.136 E94.14787
G1 X33.942 Y110.185 E94.15453
