;FLAVOR:Marlin
;TIME:1079
;Filament used: 0.444696m
;Layer height: 0.1
;MINX:89.426
;MINY:75.3
;MINZ:0.3
;MAXX:110.575
;MAXY:124.7
;MAXZ:14
;Generated with Cura_SteamEngine 4.5.0
M140 S60
M105
M190 S60
M104 S200
M105
M109 S200
M82 ;absolute extrusion mode
G21 ;metric values
 G90 ;absolute positioning
 M82 ;set extruder to absolute mode
 M107 ;start with the fan off
 G28 X0 Y0 ;move X/Y to min endstops
 G28 Z0 ;move Z to min endstops
 G1 Z15.0 F120 ;move the platform down 15mm
 G92 E0 ;zero the extruded length
 G1 F200 E6 ;extrude 6 mm of feed stock
 G92 E0 ;zero the extruded length again
 G1 F120 
 ;Put printing message on LCD screen
 M117 Printing...
G92 E0
G92 E0
G1 F1500 E-6.5
;LAYER_COUNT:138
;LAYER:0
M107
G0 F3600 X91.306 Y78.022 Z0.3
;TYPE:SKIRT
G1 F1500 E0
G1 F1800 X91.849 Y77.449 E0.03938
G1 X92.448 Y76.934 E0.0788
G1 X93.096 Y76.483 E0.11818
G1 X93.787 Y76.099 E0.15762
G1 X94.512 Y75.787 E0.197
G1 X95.265 Y75.55 E0.23638
G1 X96.039 Y75.391 E0.27581
G1 X96.824 Y75.31 E0.31518
G1 X102.775 Y75.3 E0.61207
G1 X103.564 Y75.34 E0.65149
G1 X104.344 Y75.459 E0.69085
G1 X105.109 Y75.657 E0.73028
G1 X105.849 Y75.931 E0.76965
G1 X106.558 Y76.279 E0.80905
G1 X107.229 Y76.697 E0.84849
G1 X107.853 Y77.18 E0.88786
G1 X108.426 Y77.723 E0.92724
G1 X108.941 Y78.322 E0.96665
G1 X109.392 Y78.97 E1.00604
G1 X109.776 Y79.661 E1.04548
G1 X110.088 Y80.386 E1.08486
G1 X110.325 Y81.139 E1.12424
G1 X110.484 Y81.913 E1.16366
G1 X110.565 Y82.698 E1.20303
G1 X110.575 Y116.9 E2.90938
G1 X110.535 Y117.689 E2.94879
G1 X110.416 Y118.469 E2.98816
G1 X110.218 Y119.234 E3.02758
G1 X109.944 Y119.974 E3.06695
G1 X109.596 Y120.683 E3.10635
G1 X109.178 Y121.354 E3.14579
G1 X108.695 Y121.978 E3.18516
G1 X108.152 Y122.551 E3.22455
G1 X107.553 Y123.066 E3.26396
G1 X106.905 Y123.517 E3.30334
G1 X106.214 Y123.901 E3.34278
G1 X105.489 Y124.213 E3.38216
G1 X104.736 Y124.45 E3.42155
G1 X103.962 Y124.609 E3.46097
G1 X103.177 Y124.69 E3.50034
G1 X97.226 Y124.7 E3.79724
G1 X96.437 Y124.66 E3.83665
G1 X95.657 Y124.541 E3.87601
G1 X94.892 Y124.343 E3.91544
G1 X94.152 Y124.069 E3.95481
G1 X93.443 Y123.721 E3.99421
G1 X92.772 Y123.303 E4.03365
G1 X92.148 Y122.82 E4.07302
G1 X91.575 Y122.277 E4.1124
G1 X91.06 Y121.678 E4.15181
G1 X90.609 Y121.03 E4.1912
G1 X90.225 Y120.339 E4.23064
G1 X89.913 Y119.614 E4.27002
G1 X89.676 Y118.861 E4.3094
G1 X89.517 Y118.087 E4.34882
G1 X89.436 Y117.302 E4.3882
G1 X89.426 Y83.1 E6.09454
G1 X89.466 Y82.311 E6.13396
G1 X89.585 Y81.531 E6.17332
G1 X89.783 Y80.766 E6.21274
G1 X90.057 Y80.026 E6.25211
G1 X90.405 Y79.317 E6.29151
G1 X90.823 Y78.646 E6.33096
G1 X91.306 Y78.022 E6.37032
G0 F3600 X91.701 Y78.177
G1 F1800 X92.242 Y77.63 E6.40871
G1 X92.837 Y77.142 E6.4471
G1 X93.479 Y76.719 E6.48545
G1 X94.162 Y76.364 E6.52386
G1 X94.877 Y76.083 E6.56219
G1 X95.619 Y75.877 E6.6006
G1 X96.377 Y75.749 E6.63896
G1 X97.226 Y75.7 E6.68138
G1 X102.775 Y75.7 E6.95822
G1 X103.543 Y75.74 E6.99659
G1 X104.303 Y75.859 E7.03497
G1 X105.046 Y76.057 E7.07333
G1 X105.765 Y76.331 E7.11172
G1 X106.451 Y76.678 E7.15007
G1 X107.098 Y77.094 E7.18845
G1 X107.698 Y77.575 E7.22681
G1 X108.245 Y78.116 E7.2652
G1 X108.733 Y78.711 E7.30359
G1 X109.156 Y79.353 E7.34195
G1 X109.511 Y80.036 E7.38035
G1 X109.792 Y80.751 E7.41868
G1 X109.998 Y81.493 E7.4571
G1 X110.126 Y82.251 E7.49545
G1 X110.175 Y83.1 E7.53787
G1 X110.175 Y116.9 E9.22416
G1 X110.135 Y117.668 E9.26253
G1 X110.016 Y118.428 E9.30091
G1 X109.818 Y119.171 E9.33927
G1 X109.544 Y119.89 E9.37766
G1 X109.197 Y120.576 E9.41601
G1 X108.781 Y121.223 E9.45439
G1 X108.3 Y121.823 E9.49275
G1 X107.759 Y122.37 E9.53114
G1 X107.164 Y122.858 E9.56953
G1 X106.522 Y123.281 E9.60789
G1 X105.839 Y123.636 E9.64629
G1 X105.124 Y123.917 E9.68462
G1 X104.382 Y124.123 E9.72303
G1 X103.624 Y124.251 E9.76139
G1 X102.775 Y124.3 E9.80381
G1 X97.226 Y124.3 E10.08065
G1 X96.458 Y124.26 E10.11902
G1 X95.698 Y124.141 E10.1574
G1 X94.955 Y123.943 E10.19576
G1 X94.236 Y123.669 E10.23415
G1 X93.55 Y123.322 E10.2725
G1 X92.903 Y122.906 E10.31088
G1 X92.303 Y122.425 E10.34925
G1 X91.756 Y121.884 E10.38763
G1 X91.268 Y121.289 E10.42602
G1 X90.845 Y120.647 E10.46438
G1 X90.49 Y119.964 E10.50278
G1 X90.209 Y119.249 E10.54111
G1 X90.003 Y118.507 E10.57953
G1 X89.875 Y117.749 E10.61788
G1 X89.826 Y116.9 E10.66031
G1 X89.826 Y83.1 E12.34659
G1 X89.866 Y82.332 E12.38496
G1 X89.985 Y81.572 E12.42334
G1 X90.183 Y80.829 E12.4617
G1 X90.457 Y80.11 E12.50009
G1 X90.804 Y79.424 E12.53844
G1 X91.22 Y78.777 E12.57682
G1 X91.701 Y78.177 E12.61518
G0 F3600 X92.097 Y78.337
G1 F1800 X92.634 Y77.816 E12.65251
G1 X93.224 Y77.357 E12.68981
G1 X93.86 Y76.962 E12.72716
G1 X94.534 Y76.638 E12.76447
G1 X95.239 Y76.388 E12.80179
G1 X95.967 Y76.214 E12.83913
G1 X96.709 Y76.119 E12.87645
G1 X97.226 Y76.1 E12.90226
G1 X102.775 Y76.1 E13.1791
G1 X103.522 Y76.14 E13.21642
G1 X104.26 Y76.259 E13.25372
G1 X104.982 Y76.457 E13.29107
G1 X105.678 Y76.73 E13.32837
G1 X106.341 Y77.077 E13.3657
G1 X106.964 Y77.492 E13.40305
G1 X107.538 Y77.971 E13.44035
G1 X108.059 Y78.508 E13.47767
G1 X108.518 Y79.098 E13.51497
G1 X108.913 Y79.734 E13.55232
G1 X109.237 Y80.408 E13.58963
G1 X109.487 Y81.113 E13.62695
G1 X109.661 Y81.841 E13.66429
G1 X109.756 Y82.583 E13.70161
G1 X109.775 Y83.1 E13.72742
G1 X109.775 Y116.9 E15.41371
G1 X109.735 Y117.647 E15.45103
G1 X109.616 Y118.385 E15.48833
G1 X109.418 Y119.107 E15.52568
G1 X109.145 Y119.803 E15.56298
G1 X108.798 Y120.466 E15.60031
G1 X108.383 Y121.089 E15.63766
G1 X107.904 Y121.663 E15.67495
G1 X107.367 Y122.184 E15.71228
G1 X106.777 Y122.643 E15.74958
G1 X106.141 Y123.038 E15.78693
G1 X105.467 Y123.362 E15.82424
G1 X104.762 Y123.612 E15.86156
G1 X104.034 Y123.786 E15.8989
G1 X103.292 Y123.881 E15.93622
G1 X102.775 Y123.9 E15.96203
G1 X97.226 Y123.9 E16.23887
G1 X96.479 Y123.86 E16.27619
G1 X95.741 Y123.741 E16.31349
G1 X95.019 Y123.543 E16.35084
G1 X94.323 Y123.27 E16.38814
G1 X93.66 Y122.923 E16.42547
G1 X93.037 Y122.508 E16.46282
G1 X92.463 Y122.029 E16.50012
G1 X91.942 Y121.492 E16.53744
G1 X91.483 Y120.902 E16.57474
G1 X91.088 Y120.266 E16.61209
G1 X90.764 Y119.592 E16.6494
G1 X90.514 Y118.887 E16.68672
G1 X90.34 Y118.159 E16.72406
G1 X90.245 Y117.417 E16.76138
G1 X90.226 Y116.9 E16.78719
G1 X90.226 Y83.1 E18.47348
G1 X90.266 Y82.353 E18.5108
G1 X90.385 Y81.615 E18.5481
G1 X90.583 Y80.893 E18.58545
G1 X90.856 Y80.197 E18.62275
G1 X91.203 Y79.534 E18.66008
G1 X91.618 Y78.911 E18.69743
G1 X92.097 Y78.337 E18.73472
G0 F3600 X92.015 Y79.05
G1 F1800 X92.491 Y78.502 E18.77094
G1 X93.025 Y78.009 E18.8072
G1 X93.61 Y77.579 E18.84342
G1 X94.239 Y77.215 E18.87968
G1 X94.904 Y76.922 E18.91593
G1 X95.597 Y76.704 E18.95217
G1 X96.309 Y76.564 E18.98838
G1 X97.226 Y76.5 E19.03424
G1 X102.775 Y76.5 E19.31108
G1 X103.5 Y76.54 E19.3473
G1 X104.217 Y76.659 E19.38356
G1 X104.916 Y76.857 E19.41981
G1 X105.589 Y77.13 E19.45604
G1 X106.228 Y77.475 E19.49227
G1 X106.825 Y77.889 E19.52852
G1 X107.373 Y78.365 E19.56473
G1 X107.866 Y78.899 E19.60099
G1 X108.296 Y79.484 E19.63721
G1 X108.66 Y80.113 E19.67347
G1 X108.953 Y80.778 E19.70972
G1 X109.171 Y81.471 E19.74597
G1 X109.311 Y82.183 E19.78217
G1 X109.375 Y83.1 E19.82803
G1 X109.375 Y116.9 E21.51432
G1 X109.335 Y117.625 E21.55054
G1 X109.216 Y118.342 E21.5868
G1 X109.018 Y119.041 E21.62305
G1 X108.745 Y119.714 E21.65928
G1 X108.4 Y120.353 E21.69551
G1 X107.986 Y120.95 E21.73176
G1 X107.51 Y121.498 E21.76797
G1 X106.976 Y121.991 E21.80423
G1 X106.391 Y122.421 E21.84045
G1 X105.762 Y122.785 E21.87671
G1 X105.097 Y123.078 E21.91296
G1 X104.404 Y123.296 E21.94921
G1 X103.692 Y123.436 E21.98541
G1 X102.775 Y123.5 E22.03127
G1 X97.226 Y123.5 E22.30811
G1 X96.501 Y123.46 E22.34434
G1 X95.784 Y123.341 E22.3806
G1 X95.085 Y123.143 E22.41684
G1 X94.412 Y122.87 E22.45308
G1 X93.773 Y122.525 E22.48931
G1 X93.176 Y122.111 E22.52555
G1 X92.628 Y121.635 E22.56177
G1 X92.135 Y121.101 E22.59802
G1 X91.705 Y120.516 E22.63425
G1 X91.341 Y119.887 E22.6705
G1 X91.048 Y119.222 E22.70676
G1 X90.83 Y118.529 E22.743
G1 X90.69 Y117.817 E22.7792
G1 X90.626 Y116.9 E22.82506
G1 X90.626 Y83.1 E24.51135
G1 X90.666 Y82.375 E24.54758
G1 X90.785 Y81.658 E24.58384
G1 X90.983 Y80.959 E24.62008
G1 X91.256 Y80.286 E24.65632
G1 X91.601 Y79.647 E24.69255
G1 X92.015 Y79.05 E24.72879
G0 F3600 X92.411 Y79.194
G1 F1800 X92.885 Y78.673 E24.76393
G1 X93.415 Y78.209 E24.79908
G1 X93.994 Y77.809 E24.83419
G1 X94.615 Y77.477 E24.86932
G1 X95.269 Y77.217 E24.90443
G1 X95.949 Y77.033 E24.93957
G1 X96.645 Y76.927 E24.9747
G1 X97.226 Y76.9 E25.00372
G1 X102.775 Y76.9 E25.28056
G1 X103.478 Y76.94 E25.31569
G1 X104.172 Y77.059 E25.35082
G1 X104.847 Y77.257 E25.38591
G1 X105.496 Y77.529 E25.42102
G1 X106.11 Y77.874 E25.45616
G1 X106.681 Y78.285 E25.49125
G1 X107.202 Y78.759 E25.52639
G1 X107.666 Y79.289 E25.56154
G1 X108.066 Y79.868 E25.59665
G1 X108.398 Y80.489 E25.63178
G1 X108.658 Y81.143 E25.66689
G1 X108.842 Y81.823 E25.70204
G1 X108.948 Y82.519 E25.73716
G1 X108.975 Y83.1 E25.76618
G1 X108.975 Y116.9 E27.45247
G1 X108.935 Y117.603 E27.4876
G1 X108.816 Y118.297 E27.52273
G1 X108.618 Y118.972 E27.55782
G1 X108.346 Y119.621 E27.59293
G1 X108.001 Y120.235 E27.62806
G1 X107.59 Y120.806 E27.66316
G1 X107.116 Y121.327 E27.6983
G1 X106.586 Y121.791 E27.73345
G1 X106.007 Y122.191 E27.76856
G1 X105.386 Y122.523 E27.80369
G1 X104.732 Y122.783 E27.8388
G1 X104.052 Y122.967 E27.87395
G1 X103.356 Y123.073 E27.90907
G1 X102.775 Y123.1 E27.93809
G1 X97.226 Y123.1 E28.21493
G1 X96.523 Y123.06 E28.25006
G1 X95.829 Y122.941 E28.28519
G1 X95.154 Y122.743 E28.32028
G1 X94.505 Y122.471 E28.35539
G1 X93.891 Y122.126 E28.39053
G1 X93.32 Y121.715 E28.42563
G1 X92.799 Y121.241 E28.46077
G1 X92.335 Y120.711 E28.49591
G1 X91.935 Y120.132 E28.53102
G1 X91.603 Y119.511 E28.56615
G1 X91.343 Y118.857 E28.60126
G1 X91.159 Y118.177 E28.63641
G1 X91.053 Y117.481 E28.67153
G1 X91.026 Y116.9 E28.70055
G1 X91.026 Y83.1 E30.38684
G1 X91.066 Y82.397 E30.42197
G1 X91.185 Y81.703 E30.4571
G1 X91.383 Y81.028 E30.49219
G1 X91.655 Y80.379 E30.5273
G1 X92 Y79.765 E30.56244
G1 X92.411 Y79.194 E30.59754
G0 F3600 X92.808 Y79.342
G1 F1800 X93.279 Y78.851 E30.63148
G1 X93.804 Y78.417 E30.66546
G1 X94.376 Y78.048 E30.69942
G1 X94.988 Y77.749 E30.73341
G1 X95.63 Y77.524 E30.76735
G1 X96.295 Y77.375 E30.80134
G1 X97.226 Y77.3 E30.84794
G1 X102.775 Y77.3 E31.12478
G1 X103.455 Y77.34 E31.15877
G1 X104.125 Y77.459 E31.19272
G1 X104.777 Y77.656 E31.2267
G1 X105.401 Y77.928 E31.26066
G1 X105.989 Y78.272 E31.29465
G1 X106.533 Y78.682 E31.32863
G1 X107.024 Y79.153 E31.36258
G1 X107.458 Y79.678 E31.39656
G1 X107.827 Y80.25 E31.43052
G1 X108.126 Y80.862 E31.4645
G1 X108.351 Y81.504 E31.49844
G1 X108.5 Y82.169 E31.53244
G1 X108.575 Y83.1 E31.57904
G1 X108.575 Y116.9 E33.26533
G1 X108.535 Y117.58 E33.29931
G1 X108.416 Y118.25 E33.33326
G1 X108.219 Y118.902 E33.36724
G1 X107.947 Y119.526 E33.4012
G1 X107.603 Y120.114 E33.43519
G1 X107.193 Y120.658 E33.46917
G1 X106.722 Y121.149 E33.50312
G1 X106.197 Y121.583 E33.5371
G1 X105.625 Y121.952 E33.57106
G1 X105.013 Y122.251 E33.60504
G1 X104.371 Y122.476 E33.63898
G1 X103.706 Y122.625 E33.67298
G1 X102.775 Y122.7 E33.71958
G1 X97.226 Y122.7 E33.99642
G1 X96.546 Y122.66 E34.03041
G1 X95.876 Y122.541 E34.06436
G1 X95.224 Y122.344 E34.09834
G1 X94.6 Y122.072 E34.1323
G1 X94.012 Y121.728 E34.16628
G1 X93.468 Y121.318 E34.20027
G1 X92.977 Y120.847 E34.23421
G1 X92.543 Y120.322 E34.2682
G1 X92.174 Y119.75 E34.30216
G1 X91.875 Y119.138 E34.33614
G1 X91.65 Y118.496 E34.37008
G1 X91.501 Y117.831 E34.40408
G1 X91.426 Y116.9 E34.45068
G1 X91.426 Y83.1 E36.13697
G1 X91.466 Y82.42 E36.17095
G1 X91.585 Y81.75 E36.2049
G1 X91.782 Y81.098 E36.23888
G1 X92.054 Y80.474 E36.27284
G1 X92.398 Y79.886 E36.30683
G1 X92.808 Y79.342 E36.34081
G0 F3600 X93.204 Y79.497
G1 F1800 X93.671 Y79.035 E36.37359
G1 X94.191 Y78.634 E36.40635
G1 X94.755 Y78.298 E36.4391
G1 X95.357 Y78.034 E36.47189
G1 X95.986 Y77.844 E36.50468
G1 X96.633 Y77.733 E36.53743
G1 X97.226 Y77.7 E36.56706
G1 X102.775 Y77.7 E36.8439
G1 X103.431 Y77.74 E36.87669
G1 X104.077 Y77.859 E36.90946
G1 X104.704 Y78.056 E36.94225
G1 X105.302 Y78.328 E36.97502
G1 X105.863 Y78.67 E37.0078
G1 X106.378 Y79.078 E37.04058
G1 X106.84 Y79.545 E37.07335
G1 X107.241 Y80.065 E37.10612
G1 X107.577 Y80.629 E37.13887
G1 X107.841 Y81.231 E37.17166
G1 X108.031 Y81.86 E37.20444
G1 X108.142 Y82.507 E37.23719
G1 X108.175 Y83.1 E37.26683
G1 X108.175 Y116.9 E38.95311
G1 X108.135 Y117.556 E38.9859
G1 X108.016 Y118.202 E39.01867
G1 X107.819 Y118.829 E39.05146
G1 X107.547 Y119.427 E39.08424
G1 X107.205 Y119.988 E39.11702
G1 X106.797 Y120.503 E39.1498
G1 X106.33 Y120.965 E39.18257
G1 X105.81 Y121.366 E39.21533
G1 X105.246 Y121.702 E39.24808
G1 X104.644 Y121.966 E39.28088
G1 X104.015 Y122.156 E39.31366
G1 X103.368 Y122.267 E39.34641
G1 X102.775 Y122.3 E39.37604
G1 X97.226 Y122.3 E39.65288
G1 X96.57 Y122.26 E39.68567
G1 X95.924 Y122.141 E39.71844
G1 X95.297 Y121.944 E39.75123
G1 X94.699 Y121.672 E39.78401
G1 X94.138 Y121.33 E39.81679
G1 X93.623 Y120.922 E39.84957
G1 X93.161 Y120.455 E39.88234
G1 X92.76 Y119.935 E39.9151
G1 X92.424 Y119.371 E39.94785
G1 X92.16 Y118.769 E39.98065
G1 X91.97 Y118.14 E40.01343
G1 X91.859 Y117.493 E40.04618
G1 X91.826 Y116.9 E40.07581
G1 X91.826 Y83.1 E41.7621
G1 X91.866 Y82.444 E41.79489
G1 X91.985 Y81.798 E41.82766
G1 X92.182 Y81.171 E41.86045
G1 X92.454 Y80.573 E41.89322
G1 X92.796 Y80.012 E41.926
G1 X93.204 Y79.497 E41.95878
G0 F3600 X93.599 Y79.659
G1 F1800 X94.062 Y79.229 E41.99031
G1 X94.576 Y78.86 E42.02187
G1 X95.132 Y78.56 E42.05339
G1 X95.721 Y78.332 E42.0849
G1 X96.335 Y78.18 E42.11646
G1 X97.226 Y78.1 E42.16109
G1 X102.775 Y78.1 E42.43793
G1 X103.406 Y78.14 E42.46948
G1 X104.027 Y78.259 E42.50102
G1 X104.627 Y78.456 E42.53253
G1 X105.199 Y78.727 E42.56411
G1 X105.731 Y79.067 E42.59561
G1 X106.216 Y79.473 E42.62716
G1 X106.646 Y79.936 E42.65869
G1 X107.015 Y80.45 E42.69025
G1 X107.315 Y81.006 E42.72177
G1 X107.543 Y81.595 E42.75328
G1 X107.695 Y82.209 E42.78484
G1 X107.775 Y83.1 E42.82947
G1 X107.775 Y116.9 E44.51576
G1 X107.735 Y117.531 E44.5473
G1 X107.616 Y118.152 E44.57885
G1 X107.419 Y118.752 E44.61036
G1 X107.148 Y119.324 E44.64193
G1 X106.808 Y119.856 E44.67343
G1 X106.402 Y120.341 E44.70499
G1 X105.939 Y120.771 E44.73651
G1 X105.425 Y121.14 E44.76808
G1 X104.869 Y121.44 E44.7996
G1 X104.28 Y121.668 E44.83111
G1 X103.666 Y121.82 E44.86267
G1 X102.775 Y121.9 E44.9073
G1 X97.226 Y121.9 E45.18414
G1 X96.595 Y121.86 E45.21568
G1 X95.974 Y121.741 E45.24723
G1 X95.374 Y121.544 E45.27873
G1 X94.802 Y121.273 E45.31031
G1 X94.27 Y120.933 E45.34181
G1 X93.785 Y120.527 E45.37337
G1 X93.355 Y120.064 E45.40489
G1 X92.986 Y119.55 E45.43646
G1 X92.686 Y118.994 E45.46798
G1 X92.458 Y118.405 E45.49949
G1 X92.306 Y117.791 E45.53105
G1 X92.226 Y116.9 E45.57568
G1 X92.226 Y83.1 E47.26197
G1 X92.266 Y82.469 E47.29351
G1 X92.385 Y81.848 E47.32505
G1 X92.582 Y81.248 E47.35656
G1 X92.853 Y80.676 E47.38814
G1 X93.193 Y80.144 E47.41964
G1 X93.599 Y79.659 E47.45119
G0 F3600 X93.591 Y80.281
G1 F1800 X93.993 Y79.828 E47.48141
G1 X94.451 Y79.431 E47.51165
G1 X94.958 Y79.098 E47.54191
G1 X95.504 Y78.834 E47.57217
G1 X96.08 Y78.645 E47.60241
G1 X96.676 Y78.533 E47.63267
G1 X97.226 Y78.5 E47.66016
G1 X102.775 Y78.5 E47.937
G1 X103.38 Y78.54 E47.96725
G1 X103.974 Y78.659 E47.99747
G1 X104.548 Y78.855 E48.02773
G1 X105.091 Y79.126 E48.05801
G1 X105.594 Y79.465 E48.08827
G1 X106.047 Y79.867 E48.11849
G1 X106.444 Y80.325 E48.14873
G1 X106.777 Y80.832 E48.17899
G1 X107.041 Y81.378 E48.20924
G1 X107.23 Y81.954 E48.23949
G1 X107.342 Y82.55 E48.26974
G1 X107.375 Y83.1 E48.29723
G1 X107.375 Y116.9 E49.98352
G1 X107.335 Y117.505 E50.01377
G1 X107.216 Y118.099 E50.04399
G1 X107.02 Y118.673 E50.07426
G1 X106.749 Y119.216 E50.10453
G1 X106.41 Y119.719 E50.13479
G1 X106.008 Y120.172 E50.16501
G1 X105.55 Y120.569 E50.19525
G1 X105.043 Y120.902 E50.22551
G1 X104.497 Y121.166 E50.25577
G1 X103.921 Y121.355 E50.28601
G1 X103.325 Y121.467 E50.31627
G1 X102.775 Y121.5 E50.34376
G1 X97.226 Y121.5 E50.6206
G1 X96.621 Y121.46 E50.65085
G1 X96.027 Y121.341 E50.68107
