;FLAVOR:Marlin
;TIME:4337
;Filament used: 2.43351m
;Layer height: 0.1
;MINX:55.6
;MINY:57.2
;MINZ:0.3
;MAXX:144.4
;MAXY:142.8
;MAXZ:3
;Generated with Cura_SteamEngine 4.5.0
M140 S60
M105
M190 S60
M104 S200
M105
M109 S200
M82 ;absolute extrusion mode
G21 ;metric values
 G90 ;absolute positioning
 M82 ;set extruder to absolute mode
 M107 ;start with the fan off
 G28 X0 Y0 ;move X/Y to min endstops
 G28 Z0 ;move Z to min endstops
 G1 Z15.0 F120 ;move the platform down 15mm
 G92 E0 ;zero the extruded length
 G1 F200 E6 ;extrude 6 mm of feed stock
 G92 E0 ;zero the extruded length again
 G1 F120 
 ;Put printing message on LCD screen
 M117 Printing...
G92 E0
G92 E0
G1 F1500 E-6.5
;LAYER_COUNT:28
;LAYER:0
M107
G0 F3600 X58.023 Y59.349 Z0.3
;TYPE:SKIRT
G1 F1500 E0
G1 F1800 X58.622 Y58.834 E0.03941
G1 X59.27 Y58.383 E0.0788
G1 X59.961 Y57.999 E0.11824
G1 X60.686 Y57.687 E0.15762
G1 X61.439 Y57.45 E0.197
G1 X62.213 Y57.291 E0.23642
G1 X62.998 Y57.21 E0.27579
G1 X72.6 Y57.2 E0.75484
G1 X73.389 Y57.24 E0.79425
G1 X74.169 Y57.359 E0.83362
G1 X74.934 Y57.557 E0.87304
G1 X75.674 Y57.831 E0.91241
G1 X75.99 Y57.986 E0.92997
G1 X76.686 Y57.687 E0.96776
G1 X77.439 Y57.45 E1.00715
G1 X78.213 Y57.291 E1.04657
G1 X78.998 Y57.21 E1.08594
G1 X88.6 Y57.2 E1.56499
G1 X89.389 Y57.24 E1.6044
G1 X90.169 Y57.359 E1.64376
G1 X90.934 Y57.557 E1.68319
G1 X91.674 Y57.831 E1.72256
G1 X91.99 Y57.986 E1.74012
G1 X92.686 Y57.687 E1.77791
G1 X93.439 Y57.45 E1.81729
G1 X94.213 Y57.291 E1.85671
G1 X94.998 Y57.21 E1.89608
G1 X104.6 Y57.2 E2.37513
G1 X105.389 Y57.24 E2.41454
G1 X106.169 Y57.359 E2.45391
G1 X106.934 Y57.557 E2.49333
G1 X107.674 Y57.831 E2.5327
G1 X107.99 Y57.986 E2.55026
G1 X108.686 Y57.687 E2.58805
G1 X109.439 Y57.45 E2.62744
G1 X110.213 Y57.291 E2.66686
G1 X110.998 Y57.21 E2.70623
G1 X120.6 Y57.2 E3.18528
G1 X121.389 Y57.24 E3.22469
G1 X122.169 Y57.359 E3.26405
G1 X122.934 Y57.557 E3.30348
G1 X123.674 Y57.831 E3.34285
G1 X123.99 Y57.986 E3.36041
G1 X124.686 Y57.687 E3.3982
G1 X125.439 Y57.45 E3.43758
G1 X126.213 Y57.291 E3.477
G1 X126.998 Y57.21 E3.51638
G1 X136.6 Y57.2 E3.99542
G1 X137.389 Y57.24 E4.03484
G1 X138.169 Y57.359 E4.0742
G1 X138.934 Y57.557 E4.11362
G1 X139.674 Y57.831 E4.15299
G1 X140.383 Y58.179 E4.1924
G1 X141.054 Y58.597 E4.23184
G1 X141.678 Y59.08 E4.2712
G1 X142.251 Y59.623 E4.31059
G1 X142.766 Y60.222 E4.35
G1 X143.217 Y60.87 E4.38939
G1 X143.601 Y61.561 E4.42883
G1 X143.913 Y62.286 E4.4682
G1 X144.15 Y63.039 E4.50759
G1 X144.309 Y63.813 E4.54701
G1 X144.39 Y64.598 E4.58638
G1 X144.4 Y83 E5.50446
G1 X144.36 Y83.789 E5.54388
G1 X144.241 Y84.569 E5.58324
G1 X144.043 Y85.334 E5.62266
G1 X143.769 Y86.074 E5.66203
G1 X143.421 Y86.783 E5.70144
G1 X143.288 Y86.997 E5.71401
G1 X143.601 Y87.561 E5.74619
G1 X143.913 Y88.286 E5.78556
G1 X144.15 Y89.039 E5.82495
G1 X144.309 Y89.813 E5.86437
G1 X144.39 Y90.598 E5.90374
G1 X144.4 Y109 E6.82182
G1 X144.36 Y109.789 E6.86123
G1 X144.241 Y110.569 E6.9006
G1 X144.043 Y111.334 E6.94002
G1 X143.769 Y112.074 E6.97939
G1 X143.421 Y112.783 E7.01879
G1 X143.288 Y112.997 E7.03137
G1 X143.601 Y113.561 E7.06355
G1 X143.913 Y114.286 E7.10292
G1 X144.15 Y115.039 E7.14231
G1 X144.309 Y115.813 E7.18173
G1 X144.39 Y116.598 E7.2211
G1 X144.4 Y135 E8.13918
G1 X144.36 Y135.789 E8.17859
G1 X144.241 Y136.569 E8.21796
G1 X144.043 Y137.334 E8.25738
G1 X143.769 Y138.074 E8.29675
G1 X143.421 Y138.783 E8.33615
G1 X143.003 Y139.454 E8.37559
G1 X142.52 Y140.078 E8.41496
G1 X141.977 Y140.651 E8.45435
G1 X141.378 Y141.166 E8.49376
G1 X140.73 Y141.617 E8.53315
G1 X140.039 Y142.001 E8.57259
G1 X139.314 Y142.313 E8.61196
G1 X138.561 Y142.55 E8.65135
G1 X137.787 Y142.709 E8.69077
G1 X137.002 Y142.79 E8.73014
G1 X127.4 Y142.8 E9.20919
G1 X126.611 Y142.76 E9.2486
G1 X125.831 Y142.641 E9.28796
G1 X125.066 Y142.443 E9.32739
G1 X124.326 Y142.169 E9.36676
G1 X124.01 Y142.014 E9.38432
G1 X123.314 Y142.313 E9.42211
G1 X122.561 Y142.55 E9.46149
G1 X121.787 Y142.709 E9.50091
G1 X121.002 Y142.79 E9.54029
G1 X111.4 Y142.8 E10.01933
G1 X110.611 Y142.76 E10.05875
G1 X109.831 Y142.641 E10.09811
G1 X109.066 Y142.443 E10.13753
G1 X108.326 Y142.169 E10.1769
G1 X108.01 Y142.014 E10.19446
G1 X107.314 Y142.313 E10.23225
G1 X106.561 Y142.55 E10.27164
G1 X105.787 Y142.709 E10.31106
G1 X105.002 Y142.79 E10.35043
G1 X95.4 Y142.8 E10.82948
G1 X94.611 Y142.76 E10.86889
G1 X93.831 Y142.641 E10.90826
G1 X93.066 Y142.443 E10.94768
G1 X92.326 Y142.169 E10.98705
G1 X92.01 Y142.014 E11.00461
G1 X91.314 Y142.313 E11.0424
G1 X90.561 Y142.55 E11.08178
G1 X89.787 Y142.709 E11.12121
G1 X89.002 Y142.79 E11.16058
G1 X79.4 Y142.8 E11.63962
G1 X78.611 Y142.76 E11.67904
G1 X77.831 Y142.641 E11.7184
G1 X77.066 Y142.443 E11.75783
G1 X76.326 Y142.169 E11.79719
G1 X76.01 Y142.014 E11.81475
G1 X75.314 Y142.313 E11.85255
G1 X74.561 Y142.55 E11.89193
G1 X73.787 Y142.709 E11.93135
G1 X73.002 Y142.79 E11.97072
G1 X63.4 Y142.8 E12.44977
G1 X62.611 Y142.76 E12.48918
G1 X61.831 Y142.641 E12.52855
G1 X61.066 Y142.443 E12.56797
G1 X60.326 Y142.169 E12.60734
G1 X59.617 Y141.821 E12.64674
G1 X58.946 Y141.403 E12.68618
G1 X58.322 Y140.92 E12.72555
G1 X57.749 Y140.377 E12.76494
G1 X57.234 Y139.778 E12.80435
G1 X56.783 Y139.13 E12.84373
G1 X56.399 Y138.439 E12.88317
G1 X56.087 Y137.714 E12.92255
G1 X55.85 Y136.961 E12.96194
G1 X55.691 Y136.187 E13.00136
G1 X55.61 Y135.402 E13.04073
G1 X55.6 Y117 E13.95881
G1 X55.64 Y116.211 E13.99822
G1 X55.759 Y115.431 E14.03759
G1 X55.957 Y114.666 E14.07701
G1 X56.231 Y113.926 E14.11638
G1 X56.579 Y113.217 E14.15578
G1 X56.712 Y113.003 E14.16835
G1 X56.399 Y112.439 E14.20053
G1 X56.087 Y111.714 E14.23991
G1 X55.85 Y110.961 E14.2793
G1 X55.691 Y110.187 E14.31872
G1 X55.61 Y109.402 E14.35809
G1 X55.6 Y91 E15.27617
G1 X55.64 Y90.211 E15.31558
G1 X55.759 Y89.431 E15.35495
G1 X55.957 Y88.666 E15.39437
G1 X56.231 Y87.926 E15.43374
G1 X56.579 Y87.217 E15.47314
G1 X56.712 Y87.003 E15.48571
G1 X56.399 Y86.439 E15.51789
G1 X56.087 Y85.714 E15.55727
G1 X55.85 Y84.961 E15.59665
G1 X55.691 Y84.187 E15.63608
G1 X55.61 Y83.402 E15.67545
G1 X55.6 Y65 E16.59353
G1 X55.64 Y64.211 E16.63294
G1 X55.759 Y63.431 E16.67231
G1 X55.957 Y62.666 E16.71173
G1 X56.231 Y61.926 E16.7511
G1 X56.579 Y61.217 E16.7905
G1 X56.997 Y60.546 E16.82994
G1 X57.48 Y59.922 E16.86931
G1 X58.023 Y59.349 E16.90869
G0 F3600 X58.416 Y59.53
G1 F1800 X59.011 Y59.042 E16.94709
G1 X59.653 Y58.619 E16.98544
G1 X60.336 Y58.264 E17.02385
G1 X61.051 Y57.983 E17.06217
G1 X61.793 Y57.777 E17.10059
G1 X62.551 Y57.649 E17.13894
G1 X63.4 Y57.6 E17.18137
G1 X72.6 Y57.6 E17.64036
G1 X73.368 Y57.64 E17.67873
G1 X74.128 Y57.759 E17.71711
G1 X74.871 Y57.957 E17.75547
G1 X75.59 Y58.231 E17.79386
G1 X76 Y58.439 E17.81679
G1 X76.336 Y58.264 E17.83569
G1 X77.051 Y57.983 E17.87402
G1 X77.793 Y57.777 E17.91244
G1 X78.551 Y57.649 E17.95079
G1 X79.4 Y57.6 E17.99322
G1 X88.6 Y57.6 E18.45221
G1 X89.368 Y57.64 E18.49058
G1 X90.128 Y57.759 E18.52896
G1 X90.871 Y57.957 E18.56732
G1 X91.59 Y58.231 E18.6057
G1 X92 Y58.439 E18.62864
G1 X92.336 Y58.264 E18.64754
G1 X93.051 Y57.983 E18.68587
G1 X93.793 Y57.777 E18.72429
G1 X94.551 Y57.649 E18.76264
G1 X95.4 Y57.6 E18.80507
G1 X104.6 Y57.6 E19.26406
G1 X105.368 Y57.64 E19.30242
G1 X106.128 Y57.759 E19.3408
G1 X106.871 Y57.957 E19.37917
G1 X107.59 Y58.231 E19.41755
G1 X108 Y58.439 E19.44049
G1 X108.336 Y58.264 E19.45939
G1 X109.051 Y57.983 E19.49772
G1 X109.793 Y57.777 E19.53614
G1 X110.551 Y57.649 E19.57449
G1 X111.4 Y57.6 E19.61692
G1 X120.6 Y57.6 E20.07591
G1 X121.368 Y57.64 E20.11427
G1 X122.128 Y57.759 E20.15265
G1 X122.871 Y57.957 E20.19101
G1 X123.59 Y58.231 E20.2294
G1 X124 Y58.439 E20.25234
G1 X124.336 Y58.264 E20.27124
G1 X125.051 Y57.983 E20.30957
G1 X125.793 Y57.777 E20.34798
G1 X126.551 Y57.649 E20.38634
G1 X127.4 Y57.6 E20.42876
G1 X136.6 Y57.6 E20.88775
G1 X137.368 Y57.64 E20.92612
G1 X138.128 Y57.759 E20.9645
G1 X138.871 Y57.957 E21.00286
G1 X139.59 Y58.231 E21.04125
G1 X140.276 Y58.578 E21.0796
G1 X140.923 Y58.994 E21.11798
G1 X141.523 Y59.475 E21.15634
G1 X142.07 Y60.016 E21.19473
G1 X142.558 Y60.611 E21.23312
G1 X142.981 Y61.253 E21.27148
G1 X143.336 Y61.936 E21.30988
G1 X143.617 Y62.651 E21.34821
G1 X143.823 Y63.393 E21.38662
G1 X143.951 Y64.151 E21.42498
G1 X144 Y65 E21.4674
G1 X144 Y83 E22.36543
G1 X143.96 Y83.768 E22.4038
G1 X143.841 Y84.528 E22.44217
G1 X143.643 Y85.271 E22.48054
G1 X143.369 Y85.99 E22.51892
G1 X143.022 Y86.676 E22.55728
G1 X142.814 Y87 E22.57649
G1 X143.336 Y87.936 E22.62995
G1 X143.617 Y88.651 E22.66828
G1 X143.823 Y89.393 E22.7067
G1 X143.951 Y90.151 E22.74505
G1 X144 Y91 E22.78748
G1 X144 Y109 E23.6855
G1 X143.96 Y109.768 E23.72387
G1 X143.841 Y110.528 E23.76225
G1 X143.643 Y111.271 E23.80061
G1 X143.369 Y111.99 E23.839
G1 X143.022 Y112.676 E23.87735
G1 X142.814 Y113 E23.89656
G1 X143.336 Y113.936 E23.95003
G1 X143.617 Y114.651 E23.98836
G1 X143.823 Y115.393 E24.02678
G1 X143.951 Y116.151 E24.06513
G1 X144 Y117 E24.10756
G1 X144 Y135 E25.00558
G1 X143.96 Y135.768 E25.04395
G1 X143.841 Y136.528 E25.08233
G1 X143.643 Y137.271 E25.12069
G1 X143.369 Y137.99 E25.15908
G1 X143.022 Y138.676 E25.19743
G1 X142.606 Y139.323 E25.2358
G1 X142.125 Y139.923 E25.27417
G1 X141.584 Y140.47 E25.31255
G1 X140.989 Y140.958 E25.35094
G1 X140.347 Y141.381 E25.3893
G1 X139.664 Y141.736 E25.4277
G1 X138.949 Y142.017 E25.46603
G1 X138.207 Y142.223 E25.50445
G1 X137.449 Y142.351 E25.5428
G1 X136.6 Y142.4 E25.58523
G1 X127.4 Y142.4 E26.04422
G1 X126.632 Y142.36 E26.08259
G1 X125.872 Y142.241 E26.12097
G1 X125.129 Y142.043 E26.15933
G1 X124.41 Y141.769 E26.19772
G1 X124 Y141.561 E26.22065
G1 X123.664 Y141.736 E26.23955
G1 X122.949 Y142.017 E26.27788
G1 X122.207 Y142.223 E26.3163
G1 X121.449 Y142.351 E26.35465
G1 X120.6 Y142.4 E26.39708
G1 X111.4 Y142.4 E26.85607
G1 X110.632 Y142.36 E26.89444
G1 X109.872 Y142.241 E26.93281
G1 X109.129 Y142.043 E26.97118
G1 X108.41 Y141.769 E27.00956
G1 X108 Y141.561 E27.0325
G1 X107.664 Y141.736 E27.0514
G1 X106.949 Y142.017 E27.08973
G1 X106.207 Y142.223 E27.12815
G1 X105.449 Y142.351 E27.1665
G1 X104.6 Y142.4 E27.20893
G1 X95.4 Y142.4 E27.66792
G1 X94.632 Y142.36 E27.70628
G1 X93.872 Y142.241 E27.74466
G1 X93.129 Y142.043 E27.78303
G1 X92.41 Y141.769 E27.82141
G1 X92 Y141.561 E27.84435
G1 X91.664 Y141.736 E27.86325
G1 X90.949 Y142.017 E27.90158
G1 X90.207 Y142.223 E27.94
G1 X89.449 Y142.351 E27.97835
G1 X88.6 Y142.4 E28.02078
G1 X79.4 Y142.4 E28.47977
G1 X78.632 Y142.36 E28.51813
G1 X77.872 Y142.241 E28.55651
G1 X77.129 Y142.043 E28.59487
G1 X76.41 Y141.769 E28.63326
G1 X76 Y141.561 E28.6562
G1 X75.664 Y141.736 E28.6751
G1 X74.949 Y142.017 E28.71343
G1 X74.207 Y142.223 E28.75184
G1 X73.449 Y142.351 E28.7902
G1 X72.6 Y142.4 E28.83262
G1 X63.4 Y142.4 E29.29161
G1 X62.632 Y142.36 E29.32998
G1 X61.872 Y142.241 E29.36836
G1 X61.129 Y142.043 E29.40672
G1 X60.41 Y141.769 E29.44511
G1 X59.724 Y141.422 E29.48346
G1 X59.077 Y141.006 E29.52184
G1 X58.477 Y140.525 E29.5602
G1 X57.93 Y139.984 E29.59859
G1 X57.442 Y139.389 E29.63698
G1 X57.019 Y138.747 E29.67534
G1 X56.664 Y138.064 E29.71374
G1 X56.383 Y137.349 E29.75207
G1 X56.177 Y136.607 E29.79048
G1 X56.049 Y135.849 E29.82884
G1 X56 Y135 E29.87126
G1 X56 Y117 E30.76929
G1 X56.04 Y116.232 E30.80766
G1 X56.159 Y115.472 E30.84603
G1 X56.357 Y114.729 E30.8844
G1 X56.631 Y114.01 E30.92278
G1 X56.978 Y113.324 E30.96114
G1 X57.186 Y113 E30.98035
G1 X56.664 Y112.064 E31.03381
G1 X56.383 Y111.349 E31.07214
G1 X56.177 Y110.607 E31.11056
G1 X56.049 Y109.849 E31.14891
G1 X56 Y109 E31.19134
G1 X56 Y91 E32.08936
G1 X56.04 Y90.232 E32.12773
G1 X56.159 Y89.472 E32.16611
G1 X56.357 Y88.729 E32.20447
G1 X56.631 Y88.01 E32.24286
G1 X56.978 Y87.324 E32.28121
G1 X57.186 Y87 E32.30042
G1 X56.664 Y86.064 E32.35389
G1 X56.383 Y85.349 E32.39222
G1 X56.177 Y84.607 E32.43064
G1 X56.049 Y83.849 E32.46899
G1 X56 Y83 E32.51142
G1 X56 Y65 E33.40944
G1 X56.04 Y64.232 E33.44781
G1 X56.159 Y63.472 E33.48619
G1 X56.357 Y62.729 E33.52455
G1 X56.631 Y62.01 E33.56294
G1 X56.978 Y61.324 E33.60129
G1 X57.394 Y60.677 E33.63966
G1 X57.875 Y60.077 E33.67803
G1 X58.416 Y59.53 E33.71641
G0 F3600 X58.808 Y59.716
G1 F1800 X59.398 Y59.257 E33.75371
G1 X60.034 Y58.862 E33.79106
G1 X60.708 Y58.538 E33.82837
G1 X61.413 Y58.288 E33.86569
G1 X62.141 Y58.114 E33.90303
G1 X62.883 Y58.019 E33.94035
G1 X63.4 Y58 E33.96616
G1 X72.6 Y58 E34.42515
G1 X73.347 Y58.04 E34.46247
G1 X74.085 Y58.159 E34.49977
G1 X74.807 Y58.357 E34.53712
G1 X75.503 Y58.63 E34.57442
G1 X75.994 Y58.887 E34.60207
G1 X76.708 Y58.538 E34.64171
G1 X77.413 Y58.288 E34.67903
G1 X78.141 Y58.114 E34.71638
G1 X78.883 Y58.019 E34.7537
G1 X79.4 Y58 E34.77951
G1 X88.6 Y58 E35.2385
G1 X89.347 Y58.04 E35.27582
G1 X90.085 Y58.159 E35.31311
G1 X90.807 Y58.357 E35.35046
G1 X91.503 Y58.63 E35.38776
G1 X91.994 Y58.887 E35.41541
G1 X92.708 Y58.538 E35.45506
G1 X93.413 Y58.288 E35.49238
G1 X94.141 Y58.114 E35.52972
G1 X94.883 Y58.019 E35.56704
G1 X95.4 Y58 E35.59285
G1 X104.6 Y58 E36.05184
G1 X105.347 Y58.04 E36.08917
G1 X106.085 Y58.159 E36.12646
G1 X106.807 Y58.357 E36.16381
G1 X107.503 Y58.63 E36.20111
G1 X107.994 Y58.887 E36.22876
G1 X108.708 Y58.538 E36.26841
G1 X109.413 Y58.288 E36.30573
G1 X110.141 Y58.114 E36.34307
G1 X110.883 Y58.019 E36.38039
G1 X111.4 Y58 E36.4062
G1 X120.6 Y58 E36.86519
G1 X121.347 Y58.04 E36.90251
G1 X122.085 Y58.159 E36.93981
G1 X122.807 Y58.357 E36.97716
G1 X123.503 Y58.63 E37.01446
G1 X123.994 Y58.887 E37.04211
G1 X124.708 Y58.538 E37.08175
G1 X125.413 Y58.288 E37.11907
G1 X126.141 Y58.114 E37.15642
G1 X126.883 Y58.019 E37.19374
G1 X127.4 Y58 E37.21955
G1 X136.6 Y58 E37.67854
G1 X137.347 Y58.04 E37.71586
G1 X138.085 Y58.159 E37.75315
G1 X138.807 Y58.357 E37.7905
G1 X139.503 Y58.63 E37.8278
G1 X140.166 Y58.977 E37.86514
G1 X140.789 Y59.392 E37.90248
G1 X141.363 Y59.871 E37.93978
G1 X141.884 Y60.408 E37.97711
G1 X142.343 Y60.998 E38.0144
G1 X142.738 Y61.634 E38.05176
G1 X143.062 Y62.308 E38.08906
G1 X143.312 Y63.013 E38.12638
G1 X143.486 Y63.741 E38.16373
G1 X143.581 Y64.483 E38.20105
G1 X143.6 Y65 E38.22686
G1 X143.6 Y83 E39.12488
G1 X143.56 Y83.747 E39.1622
G1 X143.441 Y84.485 E39.1995
G1 X143.243 Y85.207 E39.23685
G1 X142.97 Y85.903 E39.27415
G1 X142.623 Y86.566 E39.31148
G1 X142.339 Y86.993 E39.33707
G1 X142.738 Y87.634 E39.37473
G1 X143.062 Y88.308 E39.41204
G1 X143.312 Y89.013 E39.44936
G1 X143.486 Y89.741 E39.48671
G1 X143.581 Y90.483 E39.52403
G1 X143.6 Y91 E39.54984
G1 X143.6 Y109 E40.44786
G1 X143.56 Y109.747 E40.48518
G1 X143.441 Y110.485 E40.52248
G1 X143.243 Y111.207 E40.55983
G1 X142.97 Y111.903 E40.59713
G1 X142.623 Y112.566 E40.63446
G1 X142.339 Y112.993 E40.66005
G1 X142.738 Y113.634 E40.69771
G1 X143.062 Y114.308 E40.73502
G1 X143.312 Y115.013 E40.77234
G1 X143.486 Y115.741 E40.80969
G1 X143.581 Y116.483 E40.84701
G1 X143.6 Y117 E40.87282
G1 X143.6 Y135 E41.77084
G1 X143.56 Y135.747 E41.80816
G1 X143.441 Y136.485 E41.84546
G1 X143.243 Y137.207 E41.88281
G1 X142.97 Y137.903 E41.92011
G1 X142.623 Y138.566 E41.95744
G1 X142.208 Y139.189 E41.99479
G1 X141.729 Y139.763 E42.03208
G1 X141.192 Y140.284 E42.06941
G1 X140.602 Y140.743 E42.10671
G1 X139.966 Y141.138 E42.14406
G1 X139.292 Y141.462 E42.18137
G1 X138.587 Y141.712 E42.21869
G1 X137.859 Y141.886 E42.25603
G1 X137.117 Y141.981 E42.29335
G1 X136.6 Y142 E42.31916
G1 X127.4 Y142 E42.77815
G1 X126.653 Y141.96 E42.81547
G1 X125.915 Y141.841 E42.85277
G1 X125.193 Y141.643 E42.89012
G1 X124.497 Y141.37 E42.92742
G1 X124.006 Y141.113 E42.95506
G1 X123.292 Y141.462 E42.99471
G1 X122.587 Y141.712 E43.03203
G1 X121.859 Y141.886 E43.06938
G1 X121.117 Y141.981 E43.1067
G1 X120.6 Y142 E43.13251
G1 X111.4 Y142 E43.5915
G1 X110.653 Y141.96 E43.62882
G1 X109.915 Y141.841 E43.66611
G1 X109.193 Y141.643 E43.70346
G1 X108.497 Y141.37 E43.74076
G1 X108.006 Y141.113 E43.76841
G1 X107.292 Y141.462 E43.80806
G1 X106.587 Y141.712 E43.84538
G1 X105.859 Y141.886 E43.88272
G1 X105.117 Y141.981 E43.92004
G1 X104.6 Y142 E43.94585
G1 X95.4 Y142 E44.40484
G1 X94.653 Y141.96 E44.44216
G1 X93.915 Y141.841 E44.47946
G1 X93.193 Y141.643 E44.51681
G1 X92.497 Y141.37 E44.55411
G1 X92.006 Y141.113 E44.58176
