;FLAVOR:Marlin
;TIME:3327
;Filament used: 2.08538m
;Layer height: 0.1
;MINX:50.05
;MINY:72.285
;MINZ:0.3
;MAXX:145.922
;MAXY:127.459
;MAXZ:7
;Generated with Cura_SteamEngine 4.1.0
M140 S60
M105
M190 S60
M104 S200
M105
M109 S200
M82 ;absolute extrusion mode
G21 ;metric values
 G90 ;absolute positioning
 M82 ;set extruder to absolute mode
 M107 ;start with the fan off
 G28 X0 Y0 ;move X/Y to min endstops
 G28 Z0 ;move Z to min endstops
 G1 Z15.0 F120 ;move the platform down 15mm
 G92 E0 ;zero the extruded length
 G1 F200 E6 ;extrude 6 mm of feed stock
 G92 E0 ;zero the extruded length again
 G1 F120 
 ;Put printing message on LCD screen
 M117 Printing...
G92 E0
G92 E0
G1 F1500 E-6.5
;LAYER_COUNT:68
;LAYER:0
M107
G0 F3600 X54.248 Y80.002 Z0.3
;TYPE:SKIRT
G1 F1500 E0
G1 F1800 X54.588 Y79.785 E0.02012
G1 X55.274 Y79.394 E0.05952
G1 X56.201 Y79 E0.10977
G1 X56.58 Y78.867 E0.12981
G1 X57.338 Y78.644 E0.16923
G1 X58.114 Y78.498 E0.20862
G1 X58.71 Y78.44 E0.2385
G1 X59.191 Y78.412 E0.26253
G1 X59.98 Y78.406 E0.3019
G1 X60.767 Y78.48 E0.34134
G1 X61.462 Y78.614 E0.37665
G1 X61.925 Y78.725 E0.4004
G1 X62.683 Y78.948 E0.43982
G1 X63.653 Y79.363 E0.49246
G1 X63.941 Y79.51 E0.50859
G1 X64.63 Y79.907 E0.54826
G1 X64.982 Y80.134 E0.56916
G1 X65.097 Y80.092 E0.57527
G1 X65.435 Y79.976 E0.59309
G1 X66.054 Y79.781 E0.62547
G1 X66.315 Y79.704 E0.63905
G1 X86.967 Y73.982 E1.7082
G1 X87.295 Y73.899 E1.72508
G1 X88.62 Y73.593 E1.79292
G1 X88.833 Y73.547 E1.80379
G1 X90.167 Y73.278 E1.87169
G1 X90.392 Y73.236 E1.88311
G1 X91.735 Y73.006 E1.95108
G1 X91.941 Y72.974 E1.96148
G1 X93.289 Y72.78 E2.02943
G1 X93.495 Y72.753 E2.03979
G1 X94.847 Y72.595 E2.1077
G1 X95.064 Y72.572 E2.11859
G1 X96.419 Y72.452 E2.18646
G1 X96.632 Y72.436 E2.19711
G1 X97.992 Y72.353 E2.26509
G1 X98.203 Y72.343 E2.27563
G1 X99.563 Y72.297 E2.34352
G1 X99.781 Y72.293 E2.3544
G1 X101.143 Y72.285 E2.42235
G1 X101.355 Y72.287 E2.43293
G1 X102.717 Y72.316 E2.50089
G1 X102.929 Y72.323 E2.51147
G1 X104.288 Y72.389 E2.57935
G1 X104.505 Y72.403 E2.5902
G1 X105.864 Y72.507 E2.6582
G1 X106.077 Y72.526 E2.66887
G1 X107.43 Y72.667 E2.73674
G1 X107.642 Y72.692 E2.74739
G1 X108.992 Y72.87 E2.81532
G1 X109.199 Y72.9 E2.82576
G1 X110.543 Y73.114 E2.89366
G1 X110.759 Y73.152 E2.9046
G1 X112.098 Y73.404 E2.97257
G1 X112.305 Y73.445 E2.9831
G1 X113.636 Y73.733 E3.05104
G1 X113.843 Y73.781 E3.06164
G1 X115.165 Y74.105 E3.12955
G1 X115.273 Y74.132 E3.1351
G1 X121.248 Y75.687 E3.44313
G1 X121.342 Y75.713 E3.44799
G1 X122.237 Y75.958 E3.49429
G1 X122.379 Y75.998 E3.50165
G1 X123.661 Y76.375 E3.56831
G1 X123.865 Y76.438 E3.57897
G1 X125.136 Y76.85 E3.64563
G1 X125.339 Y76.919 E3.65632
G1 X126.599 Y77.366 E3.72302
G1 X126.786 Y77.435 E3.73297
G1 X128.034 Y77.914 E3.79966
G1 X128.236 Y77.995 E3.81052
G1 X129.471 Y78.509 E3.87725
G1 X129.678 Y78.598 E3.8885
G1 X131.265 Y79.313 E3.97534
G1 X131.968 Y79.674 E4.01476
G1 X132.63 Y80.103 E4.05412
G1 X133.246 Y80.598 E4.09354
G1 X133.547 Y80.881 E4.11416
G1 X143.61 Y90.839 E4.82046
G1 X144.143 Y91.422 E4.85987
G1 X144.614 Y92.056 E4.89927
G1 X145.018 Y92.734 E4.93865
G1 X145.352 Y93.45 E4.97807
G1 X145.611 Y94.196 E5.01746
G1 X145.794 Y94.964 E5.05685
G1 X145.898 Y95.747 E5.09626
G1 X145.922 Y96.536 E5.13564
G1 X145.867 Y97.324 E5.17505
G1 X145.732 Y98.102 E5.21444
G1 X145.519 Y98.862 E5.25382
G1 X145.231 Y99.597 E5.2932
G1 X144.869 Y100.3 E5.33265
G1 X144.439 Y100.962 E5.37204
G1 X143.861 Y101.667 E5.41752
G1 X132.616 Y113.876 E6.24562
G1 X132.053 Y114.429 E6.28499
G1 X131.436 Y114.922 E6.3244
G1 X130.772 Y115.351 E6.36383
G1 X130.069 Y115.71 E6.40322
G1 X129.333 Y115.996 E6.44261
G1 X128.572 Y116.206 E6.482
G1 X127.793 Y116.338 E6.52141
G1 X127.005 Y116.391 E6.56082
G1 X126.216 Y116.364 E6.6002
G1 X125.434 Y116.257 E6.63958
G1 X124.666 Y116.072 E6.67899
G1 X123.921 Y115.809 E6.71841
G1 X123.207 Y115.473 E6.75778
G1 X122.53 Y115.067 E6.79716
G1 X121.897 Y114.594 E6.83658
G1 X121.316 Y114.059 E6.87599
G1 X120.792 Y113.469 E6.91536
G1 X120.33 Y112.828 E6.95478
G1 X119.935 Y112.144 E6.99418
G1 X119.611 Y111.424 E7.03357
G1 X119.362 Y110.675 E7.07295
G1 X119.19 Y109.904 E7.11236
G1 X119.097 Y109.12 E7.15175
G1 X119.095 Y108.087 E7.20329
G1 X119.588 Y100.488 E7.5832
G1 X119.595 Y100.278 E7.59368
G1 X119.593 Y100.198 E7.59768
G1 X119.587 Y100.132 E7.60098
G1 X119.572 Y100.038 E7.60573
G1 X119.552 Y99.949 E7.61028
G1 X119.529 Y99.867 E7.61453
G1 X119.5 Y99.787 E7.61878
G1 X119.465 Y99.705 E7.62322
G1 X119.433 Y99.642 E7.62675
G1 X119.395 Y99.578 E7.63046
G1 X119.339 Y99.496 E7.63542
G1 X119.278 Y99.416 E7.64044
G1 X119.225 Y99.355 E7.64447
G1 X119.175 Y99.305 E7.64799
G1 X119.118 Y99.255 E7.65178
G1 X119.045 Y99.199 E7.65637
G1 X118.964 Y99.144 E7.66125
G1 X118.91 Y99.111 E7.66441
G1 X118.832 Y99.071 E7.66878
G1 X118.736 Y99.03 E7.67399
G1 X118.672 Y99.007 E7.67738
G1 X118.586 Y98.982 E7.68185
G1 X118.495 Y98.961 E7.68651
G1 X118.427 Y98.95 E7.68995
G1 X118.332 Y98.941 E7.69471
G1 X118.116 Y98.934 E7.70549
G1 X95.975 Y98.933 E8.81011
G1 X95.791 Y98.939 E8.81929
G1 X95.697 Y98.948 E8.82401
G1 X95.591 Y98.965 E8.82936
G1 X95.522 Y98.98 E8.83288
G1 X95.449 Y99.001 E8.83667
G1 X95.36 Y99.033 E8.84139
G1 X95.276 Y99.069 E8.84595
G1 X95.207 Y99.104 E8.84981
G1 X95.133 Y99.148 E8.85411
G1 X95.057 Y99.2 E8.8587
G1 X95.012 Y99.235 E8.86155
G1 X94.929 Y99.307 E8.86703
G1 X94.867 Y99.369 E8.8714
G1 X94.82 Y99.422 E8.87494
G1 X94.766 Y99.492 E8.87935
G1 X94.725 Y99.552 E8.88297
G1 X94.675 Y99.636 E8.88785
G1 X94.641 Y99.703 E8.8916
G1 X94.606 Y99.782 E8.89591
G1 X94.575 Y99.869 E8.90052
G1 X94.555 Y99.938 E8.9041
G1 X94.532 Y100.041 E8.90937
G1 X94.519 Y100.117 E8.91321
G1 X94.511 Y100.204 E8.91757
G1 X94.505 Y100.398 E8.92725
G1 X94.504 Y119.669 E9.88869
G1 X94.464 Y120.458 E9.9281
G1 X94.344 Y121.239 E9.96752
G1 X94.147 Y122.003 E10.00689
G1 X93.872 Y122.744 E10.04632
G1 X93.525 Y123.453 E10.0857
G1 X93.107 Y124.123 E10.1251
G1 X92.624 Y124.748 E10.16451
G1 X92.08 Y125.32 E10.20389
G1 X91.481 Y125.835 E10.2433
G1 X90.833 Y126.286 E10.28269
G1 X90.143 Y126.67 E10.32208
G1 X89.418 Y126.982 E10.36146
G1 X88.664 Y127.219 E10.40089
G1 X87.891 Y127.378 E10.44027
G1 X87.105 Y127.459 E10.47969
G1 X86.316 Y127.459 E10.51905
G1 X85.53 Y127.38 E10.55846
G1 X84.756 Y127.222 E10.59787
G1 X83.822 Y126.917 E10.64689
G1 X83.329 Y126.721 E10.67336
G1 X82.542 Y126.356 E10.71664
G1 X82.073 Y126.106 E10.74316
G1 X81.155 Y125.532 E10.79717
G1 X80.609 Y125.135 E10.83085
G1 X79.875 Y124.529 E10.87834
G1 X79.487 Y124.167 E10.90481
G1 X78.752 Y123.38 E10.95854
G1 X78.396 Y122.941 E10.98673
G1 X78.383 Y122.945 E10.98741
G1 X77.723 Y123.113 E11.02139
G1 X77.404 Y123.187 E11.03773
G1 X76.738 Y123.327 E11.07168
G1 X76.334 Y123.401 E11.09217
G1 X75.66 Y123.506 E11.1262
G1 X75.327 Y123.551 E11.14297
G1 X74.648 Y123.627 E11.17706
G1 X74.273 Y123.659 E11.19583
G1 X73.594 Y123.702 E11.22978
G1 X73.238 Y123.717 E11.24755
G1 X72.557 Y123.729 E11.28153
G1 X72.202 Y123.727 E11.29924
G1 X71.522 Y123.708 E11.33318
G1 X71.219 Y123.692 E11.34832
G1 X70.74 Y124.144 E11.38118
G1 X70.202 Y124.593 E11.41614
G1 X69.27 Y125.262 E11.47337
G1 X68.805 Y125.546 E11.50056
G1 X67.967 Y125.99 E11.54787
G1 X67.329 Y126.28 E11.58284
G1 X66.274 Y126.67 E11.63895
G1 X65.75 Y126.822 E11.66617
G1 X64.786 Y127.037 E11.71545
G1 X64.091 Y127.146 E11.75054
G1 X62.996 Y127.239 E11.80537
G1 X62.451 Y127.247 E11.83256
G1 X61.439 Y127.196 E11.88312
G1 X60.74 Y127.115 E11.91822
G1 X59.712 Y126.926 E11.97037
G1 X59.186 Y126.792 E11.99745
G1 X58.171 Y126.457 E12.05078
G1 X57.52 Y126.192 E12.08584
G1 X56.622 Y125.758 E12.1356
G1 X56.148 Y125.49 E12.16277
G1 X55.443 Y125.04 E12.20449
G1 X55.104 Y124.797 E12.2253
G1 X54.486 Y124.305 E12.26471
G1 X53.921 Y123.753 E12.30412
G1 X53.403 Y123.13 E12.34454
G1 X53.085 Y122.705 E12.37103
G1 X52.554 Y121.896 E12.4193
G1 X52.217 Y121.305 E12.45325
G1 X51.754 Y120.345 E12.50642
G1 X51.555 Y119.849 E12.53308
G1 X51.248 Y118.918 E12.58199
G1 X51.076 Y118.26 E12.61592
G1 X50.881 Y117.242 E12.66763
G1 X50.816 Y116.715 E12.69412
G1 X50.757 Y115.703 E12.7447
G1 X50.762 Y115.021 E12.77872
G1 X50.835 Y114.014 E12.8291
G1 X50.908 Y113.484 E12.85579
G1 X51.12 Y112.46 E12.90796
G1 X51.302 Y111.805 E12.94187
G1 X51.621 Y110.883 E12.99055
G1 X51.826 Y110.393 E13.01705
G1 X51.909 Y110.221 E13.02658
G1 X51.668 Y109.649 E13.05754
G1 X51.537 Y109.316 E13.0754
G1 X51.301 Y108.674 E13.10952
G1 X51.175 Y108.302 E13.12912
G1 X50.972 Y107.65 E13.16318
G1 X50.868 Y107.287 E13.18202
G1 X50.697 Y106.627 E13.21604
G1 X50.622 Y106.31 E13.23229
G1 X50.478 Y105.64 E13.26648
G1 X50.407 Y105.267 E13.28542
G1 X50.296 Y104.592 E13.31955
G1 X50.245 Y104.229 E13.33784
G1 X50.166 Y103.551 E13.37189
G1 X50.133 Y103.196 E13.38968
G1 X50.085 Y102.515 E13.42374
G1 X50.068 Y102.149 E13.44202
G1 X50.052 Y101.465 E13.47615
G1 X50.05 Y101.283 E13.48523
G1 X50.05 Y87.844 E14.15571
G1 X50.132 Y86.714 E14.21223
G1 X50.202 Y86.236 E14.23633
G1 X50.356 Y85.461 E14.27576
G1 X50.588 Y84.706 E14.31516
G1 X50.855 Y84.06 E14.35003
G1 X51.059 Y83.624 E14.37405
G1 X51.43 Y82.927 E14.41344
G1 X51.869 Y82.271 E14.45282
G1 X52.345 Y81.691 E14.49026
G1 X52.665 Y81.338 E14.51403
G1 X53.224 Y80.781 E14.5534
G1 X53.837 Y80.283 E14.5928
G1 X54.248 Y80.002 E14.61764
G0 F3600 X54.463 Y80.339
G1 F1800 X54.803 Y80.122 E14.63776
G1 X55.472 Y79.743 E14.67612
G1 X56.334 Y79.377 E14.72284
G1 X56.713 Y79.244 E14.74288
G1 X57.451 Y79.028 E14.78125
G1 X58.207 Y78.889 E14.8196
G1 X58.733 Y78.84 E14.84595
G1 X59.214 Y78.812 E14.86999
G1 X59.983 Y78.807 E14.90836
G1 X60.749 Y78.882 E14.94675
G1 X61.369 Y79.003 E14.97827
G1 X61.832 Y79.114 E15.00202
G1 X62.57 Y79.332 E15.04041
G1 X63.471 Y79.719 E15.08934
G1 X63.759 Y79.866 E15.10547
G1 X64.412 Y80.242 E15.14306
G1 X64.932 Y80.578 E15.17395
G1 X65.235 Y80.467 E15.19005
G1 X65.556 Y80.358 E15.20696
G1 X66.175 Y80.163 E15.23934
G1 X66.422 Y80.09 E15.25219
G1 X87.074 Y74.368 E16.32134
G1 X87.385 Y74.289 E16.33735
G1 X88.71 Y73.983 E16.40519
G1 X88.912 Y73.939 E16.41551
G1 X90.246 Y73.67 E16.4834
G1 X90.46 Y73.63 E16.49426
G1 X91.803 Y73.4 E16.56224
G1 X91.998 Y73.369 E16.57209
G1 X93.346 Y73.175 E16.64003
G1 X93.541 Y73.15 E16.64984
G1 X94.893 Y72.992 E16.71775
G1 X95.099 Y72.971 E16.72808
G1 X96.454 Y72.851 E16.79595
G1 X96.656 Y72.836 E16.80605
G1 X98.016 Y72.753 E16.87403
G1 X98.217 Y72.743 E16.88407
G1 X99.577 Y72.697 E16.95196
G1 X99.784 Y72.693 E16.96229
G1 X101.146 Y72.685 E17.03024
G1 X101.347 Y72.687 E17.04027
G1 X102.709 Y72.716 E17.10824
G1 X102.91 Y72.723 E17.11827
G1 X104.269 Y72.789 E17.18615
G1 X104.475 Y72.802 E17.19645
G1 X105.834 Y72.906 E17.26445
G1 X106.036 Y72.924 E17.27457
G1 X107.389 Y73.065 E17.34243
G1 X107.589 Y73.088 E17.35248
G1 X108.939 Y73.266 E17.42041
G1 X109.136 Y73.295 E17.43035
G1 X110.48 Y73.509 E17.49824
G1 X110.685 Y73.545 E17.50863
G1 X112.024 Y73.797 E17.5766
G1 X112.22 Y73.836 E17.58657
G1 X113.551 Y74.124 E17.65451
G1 X113.747 Y74.17 E17.66456
G1 X115.069 Y74.494 E17.73246
G1 X115.172 Y74.52 E17.73776
G1 X121.147 Y76.075 E18.04579
G1 X121.237 Y76.099 E18.05043
G1 X122.132 Y76.344 E18.09673
G1 X122.266 Y76.382 E18.10368
G1 X123.548 Y76.759 E18.17035
G1 X123.742 Y76.819 E18.18048
G1 X125.013 Y77.231 E18.24713
G1 X125.205 Y77.296 E18.25725
G1 X126.465 Y77.743 E18.32395
G1 X126.643 Y77.808 E18.3334
G1 X127.891 Y78.287 E18.40009
G1 X128.082 Y78.364 E18.41037
G1 X129.317 Y78.878 E18.47711
G1 X129.514 Y78.963 E18.48781
G1 X131.101 Y79.678 E18.57465
G1 X131.785 Y80.03 E18.61303
G1 X132.428 Y80.451 E18.65137
G1 X133.266 Y81.165 E18.7063
G1 X143.329 Y91.123 E19.4126
G1 X143.847 Y91.692 E19.45099
G1 X144.303 Y92.311 E19.48935
G1 X144.692 Y92.974 E19.5277
G1 X145.011 Y93.675 E19.56612
G1 X145.255 Y94.404 E19.60448
G1 X145.421 Y95.155 E19.64285
G1 X145.509 Y95.919 E19.68122
G1 X145.518 Y96.688 E19.71958
G1 X145.446 Y97.454 E19.75797
G1 X145.295 Y98.208 E19.79633
G1 X145.067 Y98.943 E19.83473
G1 X144.764 Y99.65 E19.8731
G1 X144.389 Y100.321 E19.91145
G1 X143.946 Y100.95 E19.94983
G1 X143.567 Y101.396 E19.97903
G1 X132.322 Y113.605 E20.80713
G1 X131.772 Y114.143 E20.84552
G1 X131.17 Y114.621 E20.88387
G1 X130.521 Y115.034 E20.92225
G1 X129.832 Y115.377 E20.96065
G1 X129.112 Y115.647 E20.99901
G1 X128.368 Y115.841 E21.03737
G1 X127.607 Y115.956 E21.07577
G1 X126.839 Y115.992 E21.11412
G1 X126.071 Y115.948 E21.1525
G1 X125.312 Y115.824 E21.19087
G1 X124.57 Y115.622 E21.22924
G1 X123.852 Y115.345 E21.26763
G1 X123.168 Y114.994 E21.30599
G1 X122.523 Y114.574 E21.34439
G1 X121.926 Y114.09 E21.38273
G1 X121.382 Y113.546 E21.42111
G1 X120.897 Y112.949 E21.45949
G1 X120.478 Y112.304 E21.49786
G1 X120.127 Y111.62 E21.53622
G1 X119.849 Y110.902 E21.57463
G1 X119.647 Y110.16 E21.61299
G1 X119.523 Y109.401 E21.65136
G1 X119.479 Y108.633 E21.68974
G1 X119.495 Y108.113 E21.7157
G1 X119.988 Y100.514 E22.09561
G1 X119.995 Y100.304 E22.10609
G1 X119.991 Y100.167 E22.11293
G1 X119.982 Y100.066 E22.11799
G1 X119.966 Y99.965 E22.12309
G1 X119.94 Y99.848 E22.12907
G1 X119.915 Y99.76 E22.13363
G1 X119.873 Y99.643 E22.13984
G1 X119.829 Y99.541 E22.14538
G1 X119.78 Y99.443 E22.15084
G1 X119.731 Y99.36 E22.15565
G1 X119.667 Y99.266 E22.16133
G1 X119.588 Y99.163 E22.1678
G1 X119.514 Y99.078 E22.17343
G1 X119.456 Y99.02 E22.17752
G1 X119.368 Y98.943 E22.18335
G1 X119.274 Y98.87 E22.18929
G1 X119.195 Y98.817 E22.19404
G1 X119.081 Y98.749 E22.20066
G1 X119.008 Y98.711 E22.20476
G1 X118.892 Y98.661 E22.21107
G1 X118.794 Y98.625 E22.21627
G1 X118.686 Y98.594 E22.22188
G1 X118.573 Y98.569 E22.22765
G1 X118.478 Y98.553 E22.23246
G1 X118.351 Y98.541 E22.23882
G1 X118.129 Y98.534 E22.24991
G1 X95.991 Y98.533 E23.35437
G1 X95.759 Y98.541 E23.36596
G1 X95.629 Y98.553 E23.37247
G1 X95.536 Y98.568 E23.37717
G1 X95.416 Y98.594 E23.3833
G1 X95.312 Y98.624 E23.3887
G1 X95.225 Y98.656 E23.39332
G1 X95.108 Y98.706 E23.39967
G1 X95.008 Y98.757 E23.40527
G1 X94.928 Y98.804 E23.4099
G1 X94.822 Y98.876 E23.41629
G1 X94.748 Y98.933 E23.42095
G1 X94.657 Y99.013 E23.427
G1 X94.582 Y99.088 E23.43229
G1 X94.513 Y99.166 E23.43748
G1 X94.444 Y99.255 E23.4431
G1 X94.385 Y99.341 E23.4483
G1 X94.321 Y99.449 E23.45457
G1 X94.277 Y99.535 E23.45939
G1 X94.232 Y99.639 E23.46504
G1 X94.199 Y99.73 E23.46987
G1 X94.167 Y99.839 E23.47554
G1 X94.138 Y99.966 E23.48204
G1 X94.124 Y100.054 E23.48648
G1 X94.111 Y100.185 E23.49305
G1 X94.105 Y100.386 E23.50308
G1 X94.104 Y119.669 E24.46511
G1 X94.064 Y120.437 E24.50348
G1 X93.944 Y121.197 E24.54187
G1 X93.747 Y121.941 E24.58027
G1 X93.473 Y122.659 E24.61861
G1 X93.126 Y123.346 E24.65701
G1 X92.71 Y123.993 E24.69538
G1 X92.228 Y124.593 E24.73378
G1 X91.687 Y125.139 E24.77212
G1 X91.093 Y125.627 E24.81048
G1 X90.451 Y126.05 E24.84883
G1 X89.768 Y126.405 E24.88724
G1 X89.052 Y126.687 E24.92563
G1 X88.311 Y126.892 E24.96399
G1 X87.553 Y127.02 E25.00234
G1 X86.785 Y127.069 E25.04073
G1 X86.016 Y127.037 E25.07913
G1 X85.255 Y126.926 E25.1175
G1 X84.51 Y126.736 E25.15586
G1 X83.97 Y126.545 E25.18443
G1 X83.477 Y126.349 E25.2109
G1 X82.73 Y126.003 E25.25197
G1 X82.261 Y125.753 E25.27849
G1 X81.39 Y125.208 E25.32975
G1 X80.844 Y124.811 E25.36343
G1 X80.148 Y124.237 E25.40844
G1 X79.76 Y123.875 E25.43491
G1 X79.063 Y123.128 E25.48588
G1 X78.636 Y122.602 E25.51968
G1 X78.551 Y122.483 E25.52698
G1 X78.284 Y122.557 E25.5408
G1 X77.624 Y122.725 E25.57478
G1 X77.321 Y122.796 E25.59031
G1 X76.655 Y122.936 E25.62426
G1 X76.272 Y123.006 E25.64368
G1 X75.598 Y123.111 E25.67772
G1 X75.282 Y123.153 E25.69362
G1 X74.603 Y123.229 E25.72771
G1 X74.248 Y123.26 E25.74549
G1 X73.569 Y123.303 E25.77943
G1 X73.231 Y123.317 E25.79631
G1 X72.55 Y123.329 E25.83029
G1 X72.213 Y123.327 E25.8471
G1 X71.533 Y123.308 E25.88104
G1 X71.16 Y123.288 E25.89967
G1 X71.072 Y123.281 E25.90408
G1 X70.484 Y123.837 E25.94445
G1 X69.946 Y124.286 E25.97941
G1 X69.061 Y124.92 E26.03373
G1 X68.596 Y125.204 E26.06091
G1 X67.801 Y125.626 E26.10581
G1 X67.163 Y125.916 E26.14078
G1 X66.163 Y126.286 E26.19397
G1 X65.639 Y126.438 E26.22119
G1 X64.724 Y126.642 E26.26796
G1 X64.029 Y126.751 E26.30306
G1 X62.991 Y126.839 E26.35503
G1 X62.446 Y126.847 E26.38223
