;FLAVOR:Marlin
;TIME:4231
;Filament used: 2.70442m
;Layer height: 0.1
;MINX:30.724
;MINY:67.674
;MINZ:0.3
;MAXX:143.276
;MAXY:132.326
;MAXZ:4.5
;Generated with Cura_SteamEngine 4.1.0
M140 S60
M105
M190 S60
M104 S200
M105
M109 S200
M82 ;absolute extrusion mode
G21 ;metric values
 G90 ;absolute positioning
 M82 ;set extruder to absolute mode
 M107 ;start with the fan off
 G28 X0 Y0 ;move X/Y to min endstops
 G28 Z0 ;move Z to min endstops
 G1 Z15.0 F120 ;move the platform down 15mm
 G92 E0 ;zero the extruded length
 G1 F200 E6 ;extrude 6 mm of feed stock
 G92 E0 ;zero the extruded length again
 G1 F120 
 ;Put printing message on LCD screen
 M117 Printing...
G92 E0
G92 E0
G1 F1500 E-6.5
;LAYER_COUNT:43
;LAYER:0
M107
G0 F3600 X44.993 Y69.218 Z0.3
;TYPE:SKIRT
G1 F1500 E0
G1 F1800 X45.669 Y68.81 E0.03939
G1 X46.675 Y68.359 E0.09439
G1 X47.088 Y68.208 E0.11633
G1 X47.842 Y67.975 E0.15571
G1 X48.808 Y67.793 E0.20475
G1 X49.293 Y67.733 E0.22913
G1 X50.251 Y67.674 E0.27701
G1 X56.95 Y67.674 E0.61123
G1 X57.739 Y67.714 E0.65064
G1 X58.519 Y67.833 E0.69001
G1 X59.104 Y67.977 E0.72006
G1 X59.372 Y68.054 E0.73398
G1 X60.119 Y68.31 E0.77337
G1 X60.836 Y68.641 E0.81277
G1 X61.516 Y69.042 E0.85216
G1 X62.152 Y69.51 E0.89155
G1 X62.618 Y69.923 E0.92262
G1 X62.791 Y70.089 E0.93458
G1 X63.333 Y70.664 E0.974
G1 X63.813 Y71.29 E1.01336
G1 X64.228 Y71.962 E1.05276
G1 X64.573 Y72.673 E1.09219
G1 X64.861 Y73.473 E1.13461
G1 X64.946 Y73.756 E1.14935
G1 X65.135 Y74.523 E1.18876
G1 X65.245 Y75.305 E1.22816
G1 X65.276 Y76 E1.26287
G1 X65.276 Y80.237 E1.47425
G1 X65.236 Y81.026 E1.51366
G1 X65.171 Y81.511 E1.53808
G1 X65.093 Y81.982 E1.5619
G1 X64.925 Y82.754 E1.60131
G1 X64.83 Y83.043 E1.61649
G1 X65.079 Y82.963 E1.62954
G1 X65.853 Y82.799 E1.66901
G1 X66.015 Y82.773 E1.6772
G1 X66.417 Y82.729 E1.69737
G1 X66.424 Y77.491 E1.9587
G1 X66.503 Y76.391 E2.01372
G1 X66.584 Y75.828 E2.04209
G1 X66.736 Y75.053 E2.0815
G1 X66.966 Y74.298 E2.12087
G1 X67.19 Y73.743 E2.15073
G1 X67.424 Y73.222 E2.17923
G1 X67.783 Y72.519 E2.21861
G1 X68.212 Y71.856 E2.258
G1 X68.611 Y71.349 E2.29019
G1 X68.983 Y70.914 E2.31875
G1 X69.526 Y70.34 E2.35817
G1 X70.124 Y69.825 E2.39754
G1 X70.551 Y69.516 E2.42384
G1 X70.993 Y69.218 E2.45043
G1 X71.669 Y68.81 E2.48983
G1 X72.675 Y68.359 E2.54483
G1 X73.088 Y68.208 E2.56677
G1 X73.842 Y67.975 E2.60614
G1 X74.808 Y67.793 E2.65518
G1 X75.293 Y67.733 E2.67956
G1 X76.251 Y67.674 E2.72745
G1 X82.95 Y67.674 E3.06166
G1 X83.739 Y67.714 E3.10108
G1 X84.519 Y67.833 E3.14044
G1 X85.104 Y67.977 E3.1705
G1 X85.372 Y68.054 E3.18441
G1 X86.119 Y68.31 E3.2238
G1 X86.836 Y68.641 E3.2632
G1 X87.516 Y69.042 E3.30259
G1 X88.152 Y69.51 E3.34198
G1 X88.618 Y69.923 E3.37305
G1 X88.791 Y70.089 E3.38501
G1 X89.333 Y70.664 E3.42443
G1 X89.813 Y71.29 E3.46379
G1 X90.228 Y71.962 E3.50319
G1 X90.573 Y72.673 E3.54262
G1 X90.861 Y73.473 E3.58504
G1 X90.946 Y73.756 E3.59978
G1 X91.135 Y74.523 E3.63919
G1 X91.245 Y75.305 E3.67859
G1 X91.276 Y76 E3.7133
G1 X91.276 Y80.237 E3.92468
G1 X91.236 Y81.026 E3.9641
G1 X91.171 Y81.511 E3.98851
G1 X91.093 Y81.982 E4.01233
G1 X90.925 Y82.754 E4.05174
G1 X90.83 Y83.043 E4.06692
G1 X91.079 Y82.963 E4.07997
G1 X91.853 Y82.799 E4.11944
G1 X92.015 Y82.773 E4.12763
G1 X92.417 Y82.729 E4.1478
G1 X92.424 Y77.491 E4.40913
G1 X92.503 Y76.391 E4.46415
G1 X92.584 Y75.828 E4.49253
G1 X92.736 Y75.053 E4.53193
G1 X92.966 Y74.298 E4.5713
G1 X93.19 Y73.743 E4.60116
G1 X93.424 Y73.222 E4.62966
G1 X93.783 Y72.519 E4.66904
G1 X94.212 Y71.856 E4.70844
G1 X94.611 Y71.349 E4.74062
G1 X94.983 Y70.914 E4.76918
G1 X95.526 Y70.34 E4.8086
G1 X96.124 Y69.825 E4.84797
G1 X96.551 Y69.516 E4.87427
G1 X96.993 Y69.218 E4.90087
G1 X97.669 Y68.81 E4.94026
G1 X98.675 Y68.359 E4.99526
G1 X99.088 Y68.208 E5.0172
G1 X99.842 Y67.975 E5.05657
G1 X100.808 Y67.793 E5.10561
G1 X101.293 Y67.733 E5.12999
G1 X102.251 Y67.674 E5.17788
G1 X108.95 Y67.674 E5.51209
G1 X109.739 Y67.714 E5.55151
G1 X110.519 Y67.833 E5.59087
G1 X111.104 Y67.977 E5.62093
G1 X111.372 Y68.054 E5.63484
G1 X112.119 Y68.31 E5.67424
G1 X112.836 Y68.641 E5.71364
G1 X113.516 Y69.042 E5.75302
G1 X114.152 Y69.51 E5.79242
G1 X114.618 Y69.923 E5.82348
G1 X114.791 Y70.089 E5.83544
G1 X115.333 Y70.664 E5.87486
G1 X115.813 Y71.29 E5.91422
G1 X116.228 Y71.962 E5.95362
G1 X116.573 Y72.673 E5.99305
G1 X116.861 Y73.473 E6.03547
G1 X116.946 Y73.756 E6.05021
G1 X117.135 Y74.523 E6.08962
G1 X117.245 Y75.305 E6.12902
G1 X117.276 Y76 E6.16373
G1 X117.276 Y80.237 E6.37512
G1 X117.236 Y81.026 E6.41453
G1 X117.171 Y81.511 E6.43894
G1 X117.093 Y81.982 E6.46276
G1 X116.925 Y82.754 E6.50218
G1 X116.83 Y83.043 E6.51735
G1 X117.079 Y82.963 E6.5304
G1 X117.853 Y82.799 E6.56988
G1 X118.015 Y82.773 E6.57806
G1 X118.417 Y82.729 E6.59824
G1 X118.424 Y77.491 E6.85956
G1 X118.503 Y76.391 E6.91458
G1 X118.584 Y75.828 E6.94296
G1 X118.736 Y75.053 E6.98236
G1 X118.966 Y74.298 E7.02174
G1 X119.19 Y73.743 E7.0516
G1 X119.424 Y73.222 E7.08009
G1 X119.783 Y72.519 E7.11947
G1 X120.212 Y71.856 E7.15887
G1 X120.611 Y71.349 E7.19106
G1 X120.983 Y70.914 E7.21961
G1 X121.526 Y70.34 E7.25903
G1 X122.124 Y69.825 E7.29841
G1 X122.551 Y69.516 E7.3247
G1 X122.993 Y69.218 E7.3513
G1 X123.669 Y68.81 E7.39069
G1 X124.675 Y68.359 E7.44569
G1 X125.088 Y68.208 E7.46763
G1 X125.842 Y67.975 E7.507
G1 X126.808 Y67.793 E7.55605
G1 X127.293 Y67.733 E7.58043
G1 X128.251 Y67.674 E7.62831
G1 X134.95 Y67.674 E7.96253
G1 X135.739 Y67.714 E8.00194
G1 X136.519 Y67.833 E8.0413
G1 X137.104 Y67.977 E8.07136
G1 X137.372 Y68.054 E8.08527
G1 X138.119 Y68.31 E8.12467
G1 X138.836 Y68.641 E8.16407
G1 X139.516 Y69.042 E8.20345
G1 X140.152 Y69.51 E8.24285
G1 X140.618 Y69.923 E8.27391
G1 X140.791 Y70.089 E8.28588
G1 X141.333 Y70.664 E8.3253
G1 X141.813 Y71.29 E8.36465
G1 X142.228 Y71.962 E8.40406
G1 X142.573 Y72.673 E8.44348
G1 X142.861 Y73.473 E8.4859
G1 X142.946 Y73.756 E8.50065
G1 X143.135 Y74.523 E8.54006
G1 X143.245 Y75.305 E8.57945
G1 X143.276 Y76 E8.61416
G1 X143.276 Y80.237 E8.82555
G1 X143.236 Y81.026 E8.86496
G1 X143.171 Y81.511 E8.88937
G1 X143.093 Y81.982 E8.91319
G1 X142.925 Y82.754 E8.95261
G1 X142.679 Y83.504 E8.99199
G1 X142.5 Y83.934 E9.01523
G1 X142.341 Y84.284 E9.03441
G1 X141.978 Y84.986 E9.07383
G1 X141.546 Y85.647 E9.11323
G1 X141.066 Y86.243 E9.15141
G1 X138.959 Y88.611 E9.30954
G1 X138.712 Y88.876 E9.32762
G1 X138.293 Y89.305 E9.35753
G1 X137.713 Y89.841 E9.39694
G1 X137.575 Y89.945 E9.40556
G1 X137.575 Y98.711 E9.84289
G1 X137.692 Y98.744 E9.84896
G1 X138.425 Y99.038 E9.88836
G1 X139.125 Y99.403 E9.92775
G1 X139.978 Y99.985 E9.97926
G1 X140.177 Y100.141 E9.99188
G1 X140.773 Y100.659 E10.03127
G1 X141.314 Y101.235 E10.0707
G1 X141.793 Y101.862 E10.11006
G1 X142.207 Y102.535 E10.14948
G1 X142.419 Y102.951 E10.17278
G1 X142.52 Y103.165 E10.18458
G1 X142.82 Y103.895 E10.22396
G1 X143.045 Y104.652 E10.26336
G1 X143.193 Y105.428 E10.30277
G1 X143.266 Y106.476 E10.35518
G1 X143.276 Y110.818 E10.57181
G1 X143.197 Y111.942 E10.62802
G1 X143.137 Y112.361 E10.64914
G1 X142.986 Y113.136 E10.68853
G1 X142.757 Y113.891 E10.72789
G1 X142.562 Y114.381 E10.7542
G1 X142.394 Y114.765 E10.77512
G1 X142.041 Y115.472 E10.81454
G1 X141.619 Y116.139 E10.85392
G1 X141.085 Y116.813 E10.89682
G1 X138.969 Y119.2 E11.05596
G1 X138.712 Y119.476 E11.07478
G1 X138.293 Y119.905 E11.10469
G1 X137.713 Y120.441 E11.14409
G1 X137.576 Y120.544 E11.15265
G1 X137.576 Y122.497 E11.25008
G1 X137.511 Y123.5 E11.30023
G1 X137.444 Y124.017 E11.32623
G1 X137.303 Y124.794 E11.36563
G1 X137.084 Y125.553 E11.40504
G1 X136.897 Y126.044 E11.43126
G1 X136.677 Y126.566 E11.45952
G1 X136.334 Y127.278 E11.49895
G1 X135.92 Y127.95 E11.53832
G1 X135.604 Y128.38 E11.56495
G1 X135.269 Y128.803 E11.59187
G1 X134.748 Y129.396 E11.63125
G1 X134.169 Y129.934 E11.67068
G1 X133.767 Y130.249 E11.69616
G1 X133.358 Y130.549 E11.72147
G1 X132.699 Y130.984 E11.76086
G1 X131.866 Y131.409 E11.80752
G1 X131.472 Y131.581 E11.82896
G1 X130.733 Y131.859 E11.86835
G1 X129.611 Y132.13 E11.92594
G1 X129.049 Y132.222 E11.95435
G1 X128.264 Y132.31 E11.99376
G1 X127.791 Y132.324 E12.01737
G1 X118.554 Y132.326 E12.47821
G1 X117.55 Y132.261 E12.5284
G1 X117.033 Y132.194 E12.55441
G1 X116.256 Y132.053 E12.59381
G1 X115.497 Y131.834 E12.63322
G1 X114.999 Y131.644 E12.65981
G1 X114.476 Y131.423 E12.68814
G1 X113.765 Y131.079 E12.72754
G1 X113.093 Y130.665 E12.76692
G1 X112.671 Y130.354 E12.79307
G1 X112.249 Y130.02 E12.81992
G1 X111.656 Y129.499 E12.85931
G1 X111.118 Y128.921 E12.8987
G1 X110.802 Y128.52 E12.92417
G1 X110.501 Y128.11 E12.94955
G1 X110.15 Y127.577 E12.98139
G1 X109.92 Y127.95 E13.00325
G1 X109.604 Y128.38 E13.02987
G1 X109.269 Y128.803 E13.05679
G1 X108.748 Y129.396 E13.09617
G1 X108.169 Y129.934 E13.13561
G1 X107.767 Y130.249 E13.16108
G1 X107.358 Y130.549 E13.18639
G1 X106.699 Y130.984 E13.22579
G1 X105.866 Y131.409 E13.27244
G1 X105.472 Y131.581 E13.29389
G1 X104.733 Y131.859 E13.33328
G1 X103.611 Y132.13 E13.39087
G1 X103.049 Y132.222 E13.41928
G1 X102.264 Y132.31 E13.45869
G1 X101.791 Y132.324 E13.4823
G1 X92.554 Y132.326 E13.94313
G1 X91.55 Y132.261 E13.99333
G1 X91.033 Y132.194 E14.01933
G1 X90.256 Y132.053 E14.05873
G1 X89.497 Y131.834 E14.09814
G1 X88.999 Y131.644 E14.12474
G1 X88.476 Y131.423 E14.15306
G1 X87.765 Y131.079 E14.19247
G1 X87.093 Y130.665 E14.23185
G1 X86.671 Y130.354 E14.258
G1 X86.249 Y130.02 E14.28485
G1 X85.656 Y129.499 E14.32423
G1 X85.118 Y128.921 E14.36363
G1 X84.802 Y128.52 E14.3891
G1 X84.501 Y128.11 E14.41447
G1 X84.15 Y127.577 E14.44631
G1 X83.92 Y127.95 E14.46817
G1 X83.604 Y128.38 E14.4948
G1 X83.269 Y128.803 E14.52172
G1 X82.748 Y129.396 E14.5611
G1 X82.169 Y129.934 E14.60053
G1 X81.767 Y130.249 E14.62601
G1 X81.358 Y130.549 E14.65132
G1 X80.699 Y130.984 E14.69071
G1 X79.866 Y131.409 E14.73737
G1 X79.472 Y131.581 E14.75881
G1 X78.733 Y131.859 E14.7982
G1 X77.611 Y132.13 E14.85579
G1 X77.049 Y132.222 E14.8842
G1 X76.264 Y132.31 E14.92361
G1 X75.791 Y132.324 E14.94722
G1 X66.554 Y132.326 E15.40806
G1 X65.55 Y132.261 E15.45825
G1 X65.033 Y132.194 E15.48426
G1 X64.256 Y132.053 E15.52366
G1 X63.497 Y131.834 E15.56307
G1 X62.999 Y131.644 E15.58966
G1 X62.476 Y131.423 E15.61799
G1 X61.765 Y131.079 E15.65739
G1 X61.093 Y130.665 E15.69677
G1 X60.671 Y130.354 E15.72292
G1 X60.249 Y130.02 E15.74977
G1 X59.656 Y129.499 E15.78916
G1 X59.118 Y128.921 E15.82855
G1 X58.802 Y128.52 E15.85402
G1 X58.501 Y128.11 E15.8794
G1 X58.15 Y127.577 E15.91124
G1 X57.92 Y127.95 E15.9331
G1 X57.604 Y128.38 E15.95972
G1 X57.269 Y128.803 E15.98664
G1 X56.748 Y129.396 E16.02602
G1 X56.169 Y129.934 E16.06546
G1 X55.767 Y130.249 E16.09094
G1 X55.358 Y130.549 E16.11624
G1 X54.699 Y130.984 E16.15564
G1 X53.866 Y131.409 E16.20229
G1 X53.472 Y131.581 E16.22374
G1 X52.733 Y131.859 E16.26313
G1 X51.611 Y132.13 E16.32072
G1 X51.049 Y132.222 E16.34913
G1 X50.264 Y132.31 E16.38854
G1 X49.791 Y132.324 E16.41215
G1 X40.554 Y132.326 E16.87298
G1 X39.55 Y132.261 E16.92318
G1 X39.033 Y132.194 E16.94918
G1 X38.256 Y132.053 E16.98858
G1 X37.497 Y131.834 E17.02799
G1 X36.999 Y131.644 E17.05459
G1 X36.476 Y131.423 E17.08291
G1 X35.765 Y131.079 E17.12232
G1 X35.093 Y130.665 E17.1617
G1 X34.671 Y130.354 E17.18785
G1 X34.249 Y130.02 E17.2147
G1 X33.656 Y129.499 E17.25408
G1 X33.118 Y128.921 E17.29348
G1 X32.802 Y128.52 E17.31895
G1 X32.501 Y128.11 E17.34432
G1 X32.067 Y127.451 E17.38369
G1 X31.634 Y126.599 E17.43137
G1 X31.463 Y126.205 E17.4528
G1 X31.186 Y125.466 E17.49217
G1 X30.922 Y124.369 E17.54846
G1 X30.83 Y123.811 E17.57668
G1 X30.741 Y123.026 E17.61609
G1 X30.726 Y122.544 E17.64015
G1 X30.724 Y113.999 E18.06646
G1 X30.764 Y113.21 E18.10588
G1 X30.883 Y112.43 E18.14524
G1 X31.007 Y111.916 E18.17162
G1 X31.074 Y111.674 E18.18415
G1 X31.323 Y110.924 E18.22358
G1 X31.646 Y110.204 E18.26295
G1 X32.041 Y109.52 E18.30235
G1 X32.503 Y108.879 E18.34177
G1 X32.813 Y108.516 E18.36559
G1 X32.988 Y108.323 E18.37859
G1 X33.547 Y107.765 E18.41799
G1 X34.16 Y107.267 E18.45739
G1 X34.82 Y106.834 E18.49677
G1 X35.521 Y106.469 E18.5362
G1 X36.457 Y106.111 E18.5862
G1 X36.741 Y106.023 E18.60103
G1 X37.507 Y105.828 E18.64047
G1 X38.288 Y105.711 E18.67987
G1 X39.054 Y105.674 E18.71813
G1 X40.424 Y105.675 E18.78648
G1 X40.424 Y101.781 E18.98075
G1 X39.676 Y101.666 E19.01851
G1 X39.019 Y101.5 E19.05232
G1 X38.741 Y101.417 E19.06679
G1 X37.996 Y101.153 E19.10622
G1 X37.283 Y100.815 E19.14559
G1 X36.607 Y100.407 E19.18498
G1 X35.803 Y99.784 E19.23573
G1 X35.664 Y99.661 E19.24499
G1 X35.1 Y99.109 E19.28436
G1 X34.595 Y98.502 E19.32375
G1 X34.153 Y97.847 E19.36317
G1 X33.761 Y97.109 E19.40486
G1 X33.661 Y96.894 E19.41669
G1 X33.364 Y96.163 E19.45606
G1 X33.143 Y95.404 E19.4955
G1 X33 Y94.628 E19.53487
G1 X32.933 Y93.632 E19.58467
G1 X32.925 Y91.353 E19.69837
G1 X32.931 Y91.032 E19.71439
G1 X32.948 Y90.581 E19.7369
G1 X33.017 Y89.795 E19.77627
G1 X33.166 Y89.019 E19.81569
G1 X33.393 Y88.263 E19.85507
G1 X33.802 Y87.315 E19.90658
G1 X33.92 Y87.085 E19.91948
G1 X34.316 Y86.401 E19.95891
G1 X34.778 Y85.761 E19.99829
G1 X35.303 Y85.171 E20.03769
G1 X35.885 Y84.637 E20.0771
G1 X36.687 Y84.055 E20.12653
G1 X36.916 Y83.91 E20.14006
G1 X37.604 Y83.522 E20.17946
G1 X38.327 Y83.205 E20.21885
G1 X39.079 Y82.963 E20.25826
G1 X39.853 Y82.799 E20.29773
G1 X40.015 Y82.773 E20.30592
G1 X40.417 Y82.729 E20.32609
G1 X40.424 Y77.491 E20.58742
G1 X40.503 Y76.391 E20.64244
G1 X40.584 Y75.828 E20.67082
G1 X40.736 Y75.053 E20.71022
G1 X40.966 Y74.298 E20.74959
G1 X41.19 Y73.743 E20.77945
G1 X41.424 Y73.222 E20.80795
G1 X41.783 Y72.519 E20.84733
G1 X42.212 Y71.856 E20.88673
G1 X42.611 Y71.349 E20.91891
G1 X42.983 Y70.914 E20.94747
G1 X43.526 Y70.34 E20.98689
G1 X44.124 Y69.825 E21.02626
G1 X44.551 Y69.516 E21.05256
G1 X44.993 Y69.218 E21.07915
G0 F3600 X45.216 Y69.549
G1 F1800 X45.875 Y69.153 E21.11751
G1 X46.812 Y68.735 E21.1687
G1 X47.225 Y68.584 E21.19064
G1 X47.96 Y68.358 E21.229
G1 X48.857 Y68.19 E21.27453
G1 X49.342 Y68.13 E21.29891
G1 X50.251 Y68.074 E21.34435
G1 X56.95 Y68.074 E21.67856
G1 X57.718 Y68.114 E21.71693
G1 X58.478 Y68.233 E21.75531
G1 X58.993 Y68.362 E21.7818
G1 X59.261 Y68.439 E21.79571
G1 X59.989 Y68.689 E21.83411
G1 X60.686 Y69.014 E21.87248
G1 X61.346 Y69.409 E21.91085
G1 X61.961 Y69.871 E21.94923
G1 X62.341 Y70.212 E21.9747
G1 X62.514 Y70.378 E21.98666
G1 X63.041 Y70.938 E22.02503
G1 X63.507 Y71.55 E22.0634
G1 X63.906 Y72.208 E22.10179
G1 X64.235 Y72.903 E22.14016
G1 X64.478 Y73.588 E22.17642
G1 X64.563 Y73.871 E22.19116
G1 X64.746 Y74.618 E22.22953
G1 X64.85 Y75.381 E22.26795
G1 X64.876 Y76 E22.29886
G1 X64.876 Y80.237 E22.51024
G1 X64.836 Y81.005 E22.54861
G1 X64.777 Y81.446 E22.57081
G1 X64.699 Y81.917 E22.59463
G1 X64.534 Y82.668 E22.63299
G1 X64.292 Y83.398 E22.67136
G1 X64.157 Y83.716 E22.68859
G1 X64.506 Y83.565 E22.70756
G1 X65.24 Y83.335 E22.74594
G1 X65.916 Y83.194 E22.78039
G1 X66.078 Y83.168 E22.78858
G1 X66.816 Y83.088 E22.82561
G1 X66.824 Y77.491 E23.10485
G1 X66.899 Y76.448 E23.15702
G1 X66.98 Y75.885 E23.18539
G1 X67.129 Y75.131 E23.22374
G1 X67.356 Y74.396 E23.26212
G1 X67.555 Y73.907 E23.28846
G1 X67.789 Y73.386 E23.31695
G1 X68.14 Y72.702 E23.35531
G1 X68.56 Y72.058 E23.39366
G1 X68.915 Y71.609 E23.42222
G1 X69.287 Y71.174 E23.45078
G1 X69.817 Y70.616 E23.48917
G1 X70.401 Y70.116 E23.52753
G1 X70.774 Y69.847 E23.55047
G1 X71.216 Y69.549 E23.57706
G1 X71.875 Y69.153 E23.61542
G1 X72.812 Y68.735 E23.66661
G1 X73.225 Y68.584 E23.68855
G1 X73.96 Y68.358 E23.72691
G1 X74.857 Y68.19 E23.77244
G1 X75.342 Y68.13 E23.79682
G1 X76.251 Y68.074 E23.84226
G1 X82.95 Y68.074 E24.17647
G1 X83.718 Y68.114 E24.21484
G1 X84.478 Y68.233 E24.25322
G1 X84.993 Y68.362 E24.27971
G1 X85.261 Y68.439 E24.29362
G1 X85.989 Y68.689 E24.33202
G1 X86.686 Y69.014 E24.37039
G1 X87.346 Y69.409 E24.40876
G1 X87.961 Y69.871 E24.44714
G1 X88.341 Y70.212 E24.47261
G1 X88.514 Y70.378 E24.48457
G1 X89.041 Y70.938 E24.52294
G1 X89.507 Y71.55 E24.56131
G1 X89.906 Y72.208 E24.5997
G1 X90.235 Y72.903 E24.63807
G1 X90.478 Y73.588 E24.67433
G1 X90.563 Y73.871 E24.68907
G1 X90.746 Y74.618 E24.72744
G1 X90.85 Y75.381 E24.76586
G1 X90.876 Y76 E24.79677
