;FLAVOR:Marlin
;TIME:3548
;Filament used: 2.26934m
;Layer height: 0.1
;MINX:53.074
;MINY:74.7
;MINZ:0.3
;MAXX:146.924
;MAXY:166.824
;MAXZ:4.5
;Generated with Cura_SteamEngine 4.1.0
M140 S60
M105
M190 S60
M104 S200
M105
M109 S200
M82 ;absolute extrusion mode
G21 ;metric values
 G90 ;absolute positioning
 M82 ;set extruder to absolute mode
 M107 ;start with the fan off
 G28 X0 Y0 ;move X/Y to min endstops
 G28 Z0 ;move Z to min endstops
 G1 Z15.0 F120 ;move the platform down 15mm
 G92 E0 ;zero the extruded length
 G1 F200 E6 ;extrude 6 mm of feed stock
 G92 E0 ;zero the extruded length again
 G1 F120 
 ;Put printing message on LCD screen
 M117 Printing...
G92 E0
G92 E0
G1 F1500 E-6.5
;LAYER_COUNT:43
;LAYER:0
M107
G0 F3600 X109.925 Y93.588 Z0.3
;TYPE:SKIRT
G1 F1500 E0
G1 F1800 X109.924 Y100.777 E0.35866
G1 X110.602 Y100.777 E0.39249
G1 X110.788 Y100.786 E0.40178
G1 X110.947 Y100.581 E0.41472
G1 X111.49 Y100.007 E0.45414
G1 X112.088 Y99.492 E0.49351
G1 X112.735 Y99.04 E0.53289
G1 X113.425 Y98.655 E0.57231
G1 X114.015 Y98.394 E0.6045
G1 X114.35 Y98.262 E0.62246
G1 X115.098 Y98.01 E0.66184
G1 X115.868 Y97.835 E0.70123
G1 X116.652 Y97.739 E0.74064
G1 X117.152 Y97.719 E0.76561
G1 X118.776 Y97.707 E0.84663
G1 X118.776 Y94.279 E1.01765
G1 X118.023 Y94.163 E1.05566
G1 X117.502 Y94.037 E1.08241
G1 X117.226 Y93.96 E1.0967
G1 X116.477 Y93.71 E1.1361
G1 X115.757 Y93.385 E1.17551
G1 X115.074 Y92.989 E1.21489
G1 X114.434 Y92.526 E1.2543
G1 X113.894 Y92.049 E1.29025
G1 X113.733 Y91.893 E1.30143
G1 X113.195 Y91.315 E1.34083
G1 X113.141 Y91.244 E1.34528
G1 X113.02 Y91.401 E1.35517
G1 X112.477 Y91.974 E1.39455
G1 X111.878 Y92.489 E1.43396
G1 X111.23 Y92.94 E1.47335
G1 X110.539 Y93.324 E1.51279
G1 X109.925 Y93.588 E1.54614
G0 F3600 X109.525 Y93.31
G1 F1800 X109.524 Y101.177 E1.93862
G1 X110.602 Y101.177 E1.9924
G1 X110.974 Y101.196 E2.01099
G1 X111.343 Y100.735 E2.04045
G1 X111.883 Y100.188 E2.07879
G1 X112.477 Y99.699 E2.11718
G1 X113.118 Y99.275 E2.15552
G1 X113.801 Y98.919 E2.19395
G1 X114.161 Y98.766 E2.21346
G1 X114.496 Y98.634 E2.23143
G1 X115.225 Y98.39 E2.26978
G1 X115.976 Y98.222 E2.30817
G1 X116.74 Y98.134 E2.34654
G1 X117.155 Y98.119 E2.36726
G1 X119.176 Y98.104 E2.46809
G1 X119.176 Y93.902 E2.67773
G1 X118.824 Y93.883 E2.69532
G1 X118.064 Y93.763 E2.7337
G1 X117.609 Y93.652 E2.75707
G1 X117.333 Y93.575 E2.77136
G1 X116.604 Y93.33 E2.80973
G1 X115.905 Y93.011 E2.84807
G1 X115.242 Y92.62 E2.88647
G1 X114.623 Y92.164 E2.92482
G1 X114.173 Y91.761 E2.95496
G1 X114.012 Y91.605 E2.96615
G1 X113.488 Y91.042 E3.00452
G1 X113.144 Y90.586 E3.03301
G1 X113.106 Y90.646 E3.03656
G1 X112.625 Y91.246 E3.07492
G1 X112.084 Y91.793 E3.11331
G1 X111.489 Y92.281 E3.1517
G1 X110.847 Y92.704 E3.19005
G1 X110.164 Y93.059 E3.22846
G1 X109.525 Y93.31 E3.26271
G0 F3600 X109.792 Y92.785
G1 F1800 X109.125 Y93.022 E3.29802
G1 X109.124 Y101.577 E3.72483
G1 X110.602 Y101.577 E3.79857
G1 X111.169 Y101.607 E3.8269
G1 X111.26 Y101.47 E3.8351
G1 X111.738 Y100.895 E3.87241
G1 X112.275 Y100.374 E3.90974
G1 X112.864 Y99.913 E3.94705
G1 X113.5 Y99.518 E3.98441
G1 X114.308 Y99.138 E4.02895
G1 X114.643 Y99.006 E4.04692
G1 X115.352 Y98.77 E4.0842
G1 X116.083 Y98.61 E4.12153
G1 X117.157 Y98.519 E4.1753
G1 X119.576 Y98.501 E4.29599
G1 X119.576 Y93.523 E4.54434
G1 X118.846 Y93.483 E4.58082
G1 X118.107 Y93.363 E4.61817
G1 X117.717 Y93.267 E4.63821
G1 X117.441 Y93.19 E4.6525
G1 X116.732 Y92.95 E4.68985
G1 X116.053 Y92.637 E4.72715
G1 X115.411 Y92.253 E4.76447
G1 X114.814 Y91.802 E4.8018
G1 X114.451 Y91.474 E4.82621
G1 X114.29 Y91.318 E4.83739
G1 X113.781 Y90.77 E4.87471
G1 X113.334 Y90.17 E4.91203
G1 X113.144 Y89.849 E4.93064
G1 X113.123 Y89.889 E4.9329
G1 X112.708 Y90.512 E4.97024
G1 X112.229 Y91.086 E5.00754
G1 X111.692 Y91.607 E5.04487
G1 X111.102 Y92.066 E5.08216
G1 X110.466 Y92.461 E5.11952
G1 X109.792 Y92.785 E5.15682
G0 F3600 X109.422 Y92.501
G1 F1800 X108.729 Y92.719 E5.19307
G1 X108.725 Y92.72 E5.19327
G1 X108.724 Y101.977 E5.65511
G1 X110.602 Y101.977 E5.7488
G1 X111.327 Y102.017 E5.78503
G1 X111.37 Y102.025 E5.78721
G1 X111.657 Y101.608 E5.81247
G1 X112.133 Y101.059 E5.84872
G1 X112.666 Y100.566 E5.88494
G1 X113.251 Y100.135 E5.92119
G1 X113.879 Y99.77 E5.95743
G1 X114.454 Y99.51 E5.98891
G1 X114.789 Y99.378 E6.00688
G1 X115.479 Y99.15 E6.04313
G1 X116.189 Y98.998 E6.07936
G1 X117.16 Y98.919 E6.12796
G1 X119.742 Y98.9 E6.25678
G1 X119.976 Y98.912 E6.26847
G1 X119.976 Y93.124 E6.55723
G1 X119.593 Y93.124 E6.57634
G1 X118.868 Y93.083 E6.61257
G1 X117.824 Y92.881 E6.66562
G1 X117.548 Y92.804 E6.67992
G1 X116.861 Y92.571 E6.71611
G1 X116.203 Y92.263 E6.75235
G1 X115.582 Y91.885 E6.78862
G1 X115.007 Y91.441 E6.82487
G1 X114.729 Y91.187 E6.84366
G1 X114.568 Y91.031 E6.85484
G1 X114.075 Y90.498 E6.89106
G1 X113.644 Y89.913 E6.92731
G1 X113.279 Y89.285 E6.96355
G1 X113.141 Y88.963 E6.98103
G1 X113.07 Y89.137 E6.99041
G1 X112.725 Y89.776 E7.02664
G1 X112.311 Y90.373 E7.06288
G1 X111.835 Y90.921 E7.09909
G1 X111.301 Y91.414 E7.13535
G1 X110.716 Y91.844 E7.17158
G1 X110.087 Y92.208 E7.20783
G1 X109.422 Y92.501 E7.24409
G0 F3600 X109.057 Y92.206
G1 F1800 X108.377 Y92.39 E7.27923
G1 X108.325 Y92.398 E7.28186
G1 X108.324 Y102.377 E7.77971
G1 X110.602 Y102.377 E7.89336
G1 X111.305 Y102.417 E7.92849
G1 X111.565 Y102.463 E7.94166
G1 X111.643 Y102.323 E7.94966
G1 X112.054 Y101.751 E7.9848
G1 X112.527 Y101.23 E8.01991
G1 X113.057 Y100.766 E8.05505
G1 X113.635 Y100.364 E8.09017
G1 X114.255 Y100.031 E8.12529
G1 X114.601 Y99.883 E8.14406
G1 X114.936 Y99.751 E8.16202
G1 X115.605 Y99.53 E8.19717
G1 X116.294 Y99.387 E8.23228
G1 X117.163 Y99.319 E8.27577
G1 X119.745 Y99.3 E8.40459
G1 X120.376 Y99.332 E8.43611
G1 X120.376 Y92.725 E8.76573
G1 X119.593 Y92.724 E8.8048
G1 X118.89 Y92.683 E8.83993
G1 X117.932 Y92.496 E8.88863
G1 X117.656 Y92.419 E8.90292
G1 X116.99 Y92.192 E8.93803
G1 X116.353 Y91.89 E8.9732
G1 X115.756 Y91.519 E9.00827
G1 X115.008 Y90.9 E9.0567
G1 X114.847 Y90.744 E9.06789
G1 X114.37 Y90.226 E9.10302
G1 X113.954 Y89.657 E9.13818
G1 X113.606 Y89.045 E9.17331
G1 X113.314 Y88.352 E9.21083
G1 X113.234 Y88.125 E9.22283
G1 X113.129 Y87.762 E9.24169
G1 X112.943 Y88.395 E9.2746
G1 X112.671 Y89.044 E9.30971
G1 X112.326 Y89.658 E9.34485
G1 X111.915 Y90.229 E9.37995
G1 X111.441 Y90.75 E9.41509
G1 X110.911 Y91.214 E9.45023
G1 X110.332 Y91.614 E9.48534
G1 X109.711 Y91.946 E9.52047
G1 X109.057 Y92.206 E9.55558
G0 F3600 X109.338 Y91.674
G1 F1800 X108.696 Y91.899 E9.58952
G1 X108.031 Y92.048 E9.62352
G1 X107.925 Y92.057 E9.62883
G1 X107.924 Y102.777 E10.16365
G1 X110.602 Y102.777 E10.29726
G1 X111.281 Y102.817 E10.33119
G1 X111.772 Y102.906 E10.35609
G1 X112.041 Y102.444 E10.38276
G1 X112.451 Y101.899 E10.41678
G1 X112.921 Y101.407 E10.45073
G1 X113.445 Y100.973 E10.48468
G1 X114.017 Y100.603 E10.51866
G1 X114.748 Y100.255 E10.55905
G1 X115.083 Y100.123 E10.57702
G1 X115.73 Y99.911 E10.61099
G1 X116.397 Y99.776 E10.64494
G1 X117.166 Y99.719 E10.68341
G1 X119.748 Y99.7 E10.81223
G1 X120.422 Y99.734 E10.8459
G1 X120.776 Y99.773 E10.86366
G1 X120.776 Y92.325 E11.23525
G1 X119.593 Y92.324 E11.29427
G1 X118.914 Y92.284 E11.3282
G1 X118.039 Y92.111 E11.3727
G1 X117.763 Y92.034 E11.387
G1 X117.119 Y91.813 E11.42096
G1 X116.506 Y91.517 E11.45493
G1 X115.931 Y91.152 E11.4889
G1 X115.286 Y90.612 E11.53087
G1 X115.125 Y90.456 E11.54206
G1 X114.665 Y89.955 E11.57599
G1 X114.266 Y89.403 E11.60997
G1 X113.935 Y88.807 E11.64398
G1 X113.691 Y88.219 E11.67574
G1 X113.611 Y87.992 E11.68775
G1 X113.423 Y87.337 E11.72175
G1 X113.312 Y86.666 E11.75568
G1 X113.281 Y86.074 E11.78526
G1 X113.275 Y82.661 E11.95553
G1 X113.314 Y81.981 E11.98951
G1 X113.432 Y81.311 E12.02345
G1 X113.628 Y80.659 E12.05742
G1 X113.899 Y80.034 E12.09141
G1 X114.241 Y79.446 E12.12534
G1 X114.65 Y78.901 E12.15934
G1 X115.12 Y78.409 E12.19328
G1 X115.645 Y77.974 E12.2273
G1 X116.216 Y77.604 E12.26124
G1 X116.938 Y77.259 E12.30117
G1 X117.271 Y77.127 E12.31904
G1 X117.917 Y76.914 E12.35297
G1 X118.584 Y76.778 E12.38693
G1 X119.401 Y76.719 E12.4278
G1 X135.093 Y76.7 E13.21068
G1 X135.773 Y76.739 E13.24466
G1 X136.443 Y76.858 E13.27861
G1 X137.095 Y77.054 E13.31257
G1 X137.72 Y77.325 E13.34656
G1 X138.308 Y77.668 E13.38052
G1 X138.852 Y78.077 E13.41448
G1 X139.345 Y78.547 E13.44846
G1 X139.779 Y79.072 E13.48244
G1 X140.148 Y79.644 E13.5164
G1 X140.448 Y80.255 E13.55036
G1 X140.674 Y80.897 E13.58432
G1 X140.824 Y81.562 E13.61833
G1 X140.9 Y82.5 E13.66528
G1 X140.9 Y86.323 E13.85601
G1 X140.86 Y87.003 E13.88999
G1 X140.741 Y87.673 E13.92394
G1 X140.544 Y88.325 E13.95792
G1 X140.272 Y88.949 E13.99188
G1 X139.928 Y89.537 E14.02587
G1 X139.518 Y90.081 E14.05986
G1 X139.047 Y90.572 E14.0938
G1 X138.522 Y91.006 E14.12778
G1 X137.95 Y91.375 E14.16174
G1 X137.338 Y91.674 E14.19573
G1 X136.696 Y91.899 E14.22967
G1 X136.031 Y92.048 E14.26367
G1 X135.925 Y92.057 E14.26897
G1 X135.924 Y102.777 E14.8038
G1 X138.602 Y102.777 E14.9374
G1 X139.281 Y102.817 E14.97134
G1 X139.986 Y102.945 E15.00708
G1 X140.226 Y103.004 E15.01941
G1 X140.876 Y103.205 E15.05336
G1 X141.499 Y103.481 E15.08735
G1 X142.084 Y103.828 E15.12129
G1 X142.683 Y104.291 E15.15906
G1 X142.89 Y104.474 E15.17284
G1 X143.372 Y104.954 E15.20678
G1 X143.796 Y105.487 E15.24076
G1 X144.153 Y106.066 E15.27469
G1 X144.441 Y106.684 E15.30871
G1 X144.643 Y107.29 E15.34058
G1 X144.719 Y107.568 E15.35496
G1 X144.859 Y108.234 E15.38891
G1 X144.924 Y109.097 E15.43209
G1 X144.924 Y113.337 E15.64362
G1 X144.868 Y114.139 E15.68373
G1 X144.808 Y114.569 E15.70539
G1 X144.675 Y115.236 E15.73932
G1 X144.349 Y116.157 E15.78807
G1 X144.174 Y116.544 E15.80926
G1 X143.857 Y117.147 E15.84324
G1 X143.472 Y117.708 E15.87719
G1 X143.235 Y117.995 E15.89576
G1 X141.812 Y119.605 E16.00296
G1 X141.782 Y119.639 E16.00522
G1 X140.807 Y120.725 E16.07803
G1 X140.323 Y121.204 E16.11201
G1 X139.941 Y121.512 E16.13649
G1 X139.764 Y121.643 E16.14747
G1 X139.194 Y122.015 E16.18143
G1 X138.584 Y122.318 E16.21541
G1 X137.943 Y122.547 E16.24937
G1 X137.362 Y122.685 E16.27916
G1 X137.128 Y122.728 E16.29103
G1 X136.453 Y122.812 E16.32497
G1 X135.772 Y122.816 E16.35895
G1 X135.095 Y122.74 E16.39293
G1 X134.406 Y122.577 E16.42826
G1 X134.144 Y122.498 E16.44191
G1 X133.504 Y122.264 E16.47591
G1 X132.897 Y121.956 E16.50986
G1 X132.33 Y121.579 E16.54383
G1 X131.708 Y121.931 E16.57949
G1 X131.256 Y122.147 E16.60448
G1 X130.625 Y122.404 E16.63848
G1 X129.959 Y122.588 E16.67295
G1 X129.464 Y122.693 E16.69819
G1 X128.79 Y122.795 E16.7322
G1 X128.263 Y122.819 E16.75852
G1 X118.905 Y122.824 E17.22539
G1 X118.169 Y122.777 E17.26219
G1 X117.651 Y122.711 E17.28824
G1 X116.982 Y122.586 E17.32219
G1 X116.259 Y122.355 E17.36006
G1 X115.812 Y122.179 E17.38403
G1 X115.194 Y121.893 E17.418
G1 X114.494 Y121.449 E17.45936
G1 X114.048 Y121.12 E17.48701
G1 X113.525 Y120.685 E17.52095
G1 X113.177 Y120.313 E17.54636
G1 X112.807 Y120.725 E17.57399
G1 X112.323 Y121.204 E17.60796
G1 X112.021 Y121.447 E17.6273
G1 X112.148 Y121.644 E17.63899
G1 X112.448 Y122.255 E17.67295
G1 X112.674 Y122.897 E17.70691
G1 X112.824 Y123.562 E17.74092
G1 X112.9 Y124.5 E17.78787
G1 X112.9 Y128.323 E17.9786
G1 X112.86 Y129.003 E18.01258
G1 X112.741 Y129.673 E18.04653
G1 X112.544 Y130.325 E18.08051
G1 X112.272 Y130.949 E18.11447
G1 X111.928 Y131.537 E18.14846
G1 X111.518 Y132.081 E18.18245
G1 X111.047 Y132.572 E18.21639
G1 X110.522 Y133.006 E18.25037
G1 X109.95 Y133.375 E18.28433
G1 X109.338 Y133.674 E18.31832
G1 X108.696 Y133.899 E18.35225
G1 X108.031 Y134.048 E18.38625
G1 X107.925 Y134.057 E18.39156
G1 X107.924 Y144.777 E18.92638
G1 X110.602 Y144.777 E19.05999
G1 X111.281 Y144.817 E19.09392
G1 X111.986 Y144.945 E19.12967
G1 X112.226 Y145.004 E19.142
G1 X112.876 Y145.205 E19.17595
G1 X113.499 Y145.481 E19.20994
G1 X114.084 Y145.828 E19.24388
G1 X114.683 Y146.291 E19.28165
G1 X114.89 Y146.474 E19.29543
G1 X115.372 Y146.954 E19.32937
G1 X115.796 Y147.487 E19.36335
G1 X116.153 Y148.066 E19.39728
G1 X116.441 Y148.684 E19.4313
G1 X116.643 Y149.29 E19.46317
G1 X116.719 Y149.568 E19.47755
G1 X116.859 Y150.234 E19.5115
G1 X116.924 Y151.097 E19.55468
G1 X116.924 Y155.337 E19.76621
G1 X116.868 Y156.139 E19.80632
G1 X116.808 Y156.569 E19.82798
G1 X116.675 Y157.236 E19.86191
G1 X116.349 Y158.157 E19.91065
G1 X116.174 Y158.544 E19.93184
G1 X115.857 Y159.147 E19.96583
G1 X115.472 Y159.708 E19.99978
G1 X115.235 Y159.995 E20.01835
G1 X113.812 Y161.605 E20.12555
G1 X113.782 Y161.639 E20.12781
G1 X112.807 Y162.725 E20.20062
G1 X112.323 Y163.204 E20.2346
G1 X111.941 Y163.512 E20.25908
G1 X111.764 Y163.643 E20.27006
G1 X111.194 Y164.015 E20.30402
G1 X110.584 Y164.318 E20.338
G1 X109.943 Y164.547 E20.37196
G1 X109.362 Y164.685 E20.40175
G1 X109.128 Y164.728 E20.41362
G1 X108.453 Y164.812 E20.44756
G1 X107.772 Y164.816 E20.48153
G1 X107.095 Y164.74 E20.51552
G1 X106.406 Y164.577 E20.55084
G1 X106.144 Y164.498 E20.5645
G1 X105.504 Y164.264 E20.59849
G1 X104.897 Y163.956 E20.63245
G1 X104.33 Y163.579 E20.66642
G1 X103.708 Y163.931 E20.70208
G1 X103.256 Y164.147 E20.72707
G1 X102.625 Y164.404 E20.76106
G1 X101.959 Y164.588 E20.79554
G1 X101.464 Y164.693 E20.82078
G1 X100.79 Y164.795 E20.85479
G1 X100.263 Y164.819 E20.88111
G1 X90.905 Y164.824 E21.34798
G1 X90.169 Y164.777 E21.38478
G1 X89.651 Y164.711 E21.41083
G1 X88.982 Y164.586 E21.44478
G1 X88.259 Y164.355 E21.48265
G1 X87.812 Y164.179 E21.50662
G1 X87.194 Y163.893 E21.54059
G1 X86.494 Y163.449 E21.58195
G1 X86.048 Y163.12 E21.6096
G1 X85.525 Y162.685 E21.64353
G1 X85.006 Y162.131 E21.68141
G1 X84.719 Y161.781 E21.70399
G1 X84.319 Y161.23 E21.73796
G1 X84.019 Y160.702 E21.76826
G1 X83.811 Y160.287 E21.79141
G1 X83.542 Y159.661 E21.82541
G1 X83.323 Y158.893 E21.86525
G1 X83.214 Y158.38 E21.89142
G1 X83.111 Y157.707 E21.92538
G1 X83.087 Y157.183 E21.95155
G1 X83.074 Y147.659 E22.42671
G1 X83.113 Y146.979 E22.46069
G1 X83.231 Y146.309 E22.49463
G1 X83.428 Y145.657 E22.52861
G1 X83.699 Y145.032 E22.5626
G1 X84.041 Y144.444 E22.59653
G1 X84.451 Y143.899 E22.63056
G1 X84.921 Y143.407 E22.6645
G1 X85.445 Y142.973 E22.69845
G1 X86.017 Y142.603 E22.73244
G1 X86.748 Y142.255 E22.77283
G1 X87.083 Y142.123 E22.79079
G1 X87.73 Y141.911 E22.82476
G1 X88.397 Y141.776 E22.85871
G1 X89.166 Y141.719 E22.89718
G1 X91.748 Y141.7 E23.026
G1 X92.422 Y141.734 E23.05967
G1 X92.776 Y141.773 E23.07744
G1 X92.776 Y134.325 E23.44902
G1 X91.593 Y134.324 E23.50804
G1 X90.914 Y134.284 E23.54197
G1 X90.039 Y134.111 E23.58647
G1 X89.763 Y134.034 E23.60077
G1 X89.119 Y133.813 E23.63474
G1 X88.506 Y133.517 E23.6687
G1 X87.931 Y133.152 E23.70268
G1 X87.286 Y132.612 E23.74465
G1 X87.125 Y132.456 E23.75583
G1 X86.665 Y131.955 E23.78976
G1 X86.266 Y131.403 E23.82374
G1 X85.935 Y130.807 E23.85776
G1 X85.691 Y130.219 E23.88952
G1 X85.611 Y129.992 E23.90152
G1 X85.423 Y129.337 E23.93552
G1 X85.312 Y128.666 E23.96945
G1 X85.281 Y128.074 E23.99903
G1 X85.275 Y124.661 E24.1693
G1 X85.314 Y123.981 E24.20328
G1 X85.432 Y123.311 E24.23723
G1 X85.628 Y122.659 E24.27119
G1 X85.899 Y122.034 E24.30518
G1 X86.241 Y121.446 E24.33912
G1 X86.33 Y121.328 E24.34649
G1 X86.048 Y121.12 E24.36397
G1 X85.525 Y120.685 E24.39791
G1 X85.177 Y120.313 E24.42332
G1 X84.807 Y120.725 E24.45095
G1 X84.323 Y121.204 E24.48492
G1 X83.941 Y121.512 E24.5094
G1 X83.764 Y121.643 E24.52039
G1 X83.194 Y122.015 E24.55435
G1 X82.584 Y122.318 E24.58833
G1 X81.943 Y122.547 E24.62229
G1 X81.362 Y122.685 E24.65208
G1 X81.128 Y122.728 E24.66395
G1 X80.453 Y122.812 E24.69789
G1 X79.772 Y122.816 E24.73186
G1 X79.095 Y122.74 E24.76585
G1 X78.406 Y122.577 E24.80117
G1 X78.144 Y122.498 E24.81483
G1 X77.504 Y122.264 E24.84882
G1 X76.897 Y121.956 E24.88278
G1 X76.33 Y121.579 E24.91675
G1 X75.708 Y121.931 E24.95241
G1 X75.256 Y122.147 E24.9774
G1 X74.625 Y122.404 E25.01139
G1 X73.959 Y122.588 E25.04586
G1 X73.464 Y122.693 E25.07111
G1 X72.79 Y122.795 E25.10512
G1 X72.263 Y122.819 E25.13144
G1 X62.905 Y122.824 E25.59831
G1 X62.169 Y122.777 E25.6351
G1 X61.651 Y122.711 E25.66116
G1 X60.982 Y122.586 E25.69511
G1 X60.259 Y122.355 E25.73298
G1 X59.812 Y122.179 E25.75694
G1 X59.194 Y121.893 E25.79092
G1 X58.494 Y121.449 E25.83227
