;FLAVOR:Marlin
;TIME:1557
;Filament used: 0.754695m
;Layer height: 0.1
;MINX:73.055
;MINY:83.556
;MINZ:0.3
;MAXX:126.938
;MAXY:116.444
;MAXZ:10.1
;Generated with Cura_SteamEngine 4.5.0
M140 S60
M105
M190 S60
M104 S200
M105
M109 S200
M82 ;absolute extrusion mode
G21 ;metric values
 G90 ;absolute positioning
 M82 ;set extruder to absolute mode
 M107 ;start with the fan off
 G28 X0 Y0 ;move X/Y to min endstops
 G28 Z0 ;move Z to min endstops
 G1 Z15.0 F120 ;move the platform down 15mm
 G92 E0 ;zero the extruded length
 G1 F200 E6 ;extrude 6 mm of feed stock
 G92 E0 ;zero the extruded length again
 G1 F120 
 ;Put printing message on LCD screen
 M117 Printing...
G92 E0
G92 E0
G1 F1500 E-6.5
;LAYER_COUNT:99
;LAYER:0
M107
G0 F3600 X78.595 Y87.685 Z0.3
;TYPE:SKIRT
G1 F1500 E0
G1 F1800 X79.077 Y87.278 E0.03147
G1 X79.473 Y86.965 E0.05666
G1 X79.979 Y86.591 E0.08805
G1 X80.439 Y86.276 E0.11586
G1 X80.969 Y85.94 E0.14717
G1 X81.475 Y85.645 E0.17639
G1 X82.032 Y85.348 E0.20788
G1 X82.489 Y85.123 E0.2333
G1 X83.062 Y84.864 E0.26467
G1 X83.646 Y84.628 E0.29609
G1 X84.241 Y84.415 E0.32762
G1 X84.816 Y84.234 E0.3577
G1 X85.468 Y84.056 E0.39142
G1 X86.028 Y83.925 E0.42011
G1 X86.648 Y83.804 E0.45163
G1 X87.199 Y83.717 E0.47946
G1 X87.823 Y83.641 E0.51082
G1 X88.395 Y83.593 E0.53945
G1 X89.025 Y83.563 E0.57092
G1 X89.583 Y83.556 E0.59876
G1 X90.21 Y83.571 E0.63005
G1 X90.778 Y83.606 E0.65844
G1 X91.405 Y83.667 E0.68987
G1 X91.972 Y83.743 E0.71841
G1 X92.594 Y83.85 E0.7499
G1 X93.146 Y83.966 E0.77804
G1 X93.756 Y84.117 E0.80939
G1 X94.314 Y84.277 E0.83835
G1 X94.96 Y84.489 E0.87227
G1 X95.497 Y84.687 E0.90083
G1 X96.08 Y84.927 E0.93228
G1 X96.658 Y85.193 E0.96403
G1 X97.22 Y85.48 E0.99551
G1 X97.677 Y85.733 E1.02157
G1 X98.217 Y86.056 E1.05296
G1 X98.694 Y86.365 E1.08132
G1 X99.207 Y86.725 E1.11258
G1 X99.677 Y87.083 E1.14206
G1 X99.997 Y87.346 E1.16272
G1 X100.473 Y86.965 E1.19314
G1 X100.979 Y86.591 E1.22453
G1 X101.439 Y86.276 E1.25235
G1 X101.969 Y85.94 E1.28366
G1 X102.475 Y85.645 E1.31288
G1 X103.032 Y85.348 E1.34437
G1 X103.489 Y85.123 E1.36978
G1 X104.062 Y84.864 E1.40115
G1 X104.646 Y84.628 E1.43258
G1 X105.241 Y84.415 E1.46411
G1 X105.773 Y84.246 E1.49196
G1 X106.425 Y84.064 E1.52573
G1 X107.076 Y83.912 E1.55908
G1 X107.696 Y83.795 E1.59056
G1 X108.199 Y83.717 E1.61595
G1 X108.823 Y83.641 E1.64732
G1 X109.395 Y83.593 E1.67595
G1 X110.025 Y83.563 E1.70742
G1 X110.583 Y83.556 E1.73526
G1 X111.21 Y83.571 E1.76655
G1 X111.778 Y83.606 E1.79494
G1 X112.405 Y83.667 E1.82637
G1 X112.972 Y83.743 E1.85491
G1 X113.594 Y83.85 E1.8864
G1 X114.146 Y83.966 E1.91454
G1 X114.756 Y84.117 E1.94589
G1 X115.314 Y84.277 E1.97485
G1 X115.96 Y84.489 E2.00877
G1 X116.497 Y84.687 E2.03733
G1 X117.08 Y84.927 E2.06878
G1 X117.658 Y85.193 E2.10052
G1 X118.22 Y85.48 E2.13201
G1 X118.677 Y85.733 E2.15807
G1 X119.217 Y86.056 E2.18946
G1 X119.694 Y86.365 E2.21781
G1 X120.207 Y86.725 E2.24908
G1 X120.677 Y87.083 E2.27856
G1 X121.164 Y87.483 E2.31
G1 X121.547 Y87.818 E2.33538
G1 X122.008 Y88.25 E2.3669
G1 X122.462 Y88.714 E2.39929
G1 X122.882 Y89.179 E2.43055
G1 X123.227 Y89.587 E2.45721
G1 X123.616 Y90.082 E2.48862
G1 X123.952 Y90.544 E2.51712
G1 X124.332 Y91.108 E2.55105
G1 X124.63 Y91.587 E2.57919
G1 X124.943 Y92.133 E2.61059
G1 X125.225 Y92.673 E2.64098
G1 X125.494 Y93.241 E2.67234
G1 X125.726 Y93.782 E2.70171
G1 X125.952 Y94.37 E2.73313
G1 X126.132 Y94.895 E2.76082
G1 X126.316 Y95.499 E2.79232
G1 X126.448 Y95.985 E2.81745
G1 X126.592 Y96.597 E2.84882
G1 X126.712 Y97.22 E2.88047
G1 X126.806 Y97.843 E2.9119
G1 X126.873 Y98.449 E2.94232
G1 X126.918 Y99.076 E2.97368
G1 X126.938 Y99.72 E3.00583
G1 X126.927 Y100.715 E3.05547
G1 X126.881 Y101.471 E3.09326
G1 X126.813 Y102.097 E3.12467
G1 X126.728 Y102.678 E3.15397
G1 X126.613 Y103.298 E3.18543
G1 X126.485 Y103.869 E3.21462
G1 X126.324 Y104.478 E3.24605
G1 X126.18 Y104.958 E3.27105
G1 X125.98 Y105.556 E3.30251
G1 X125.751 Y106.158 E3.33464
G1 X125.503 Y106.736 E3.36602
G1 X125.271 Y107.227 E3.39311
G1 X124.983 Y107.787 E3.42453
G1 X124.715 Y108.268 E3.452
G1 X124.389 Y108.805 E3.48334
G1 X124.088 Y109.262 E3.51064
G1 X123.696 Y109.816 E3.5445
G1 X123.272 Y110.363 E3.57903
G1 X122.864 Y110.843 E3.61046
G1 X122.522 Y111.219 E3.63582
G1 X122.084 Y111.671 E3.66722
G1 X121.667 Y112.071 E3.69605
G1 X121.197 Y112.489 E3.72743
G1 X120.799 Y112.82 E3.75325
G1 X120.301 Y113.207 E3.78472
G1 X119.759 Y113.593 E3.81791
G1 X119.23 Y113.936 E3.84937
G1 X118.793 Y114.199 E3.87481
G1 X118.244 Y114.506 E3.9062
G1 X117.771 Y114.75 E3.93275
G1 X117.202 Y115.019 E3.96415
G1 X116.647 Y115.255 E3.99424
G1 X116.057 Y115.48 E4.02574
G1 X115.459 Y115.681 E4.05721
G1 X114.81 Y115.87 E4.09094
G1 X114.273 Y116.006 E4.11857
G1 X113.656 Y116.139 E4.15006
G1 X113.101 Y116.238 E4.17819
G1 X112.477 Y116.326 E4.20963
G1 X111.909 Y116.385 E4.23812
G1 X111.282 Y116.427 E4.26947
G1 X110.699 Y116.444 E4.29857
G1 X110.07 Y116.439 E4.32995
G1 X109.512 Y116.414 E4.35782
G1 X108.885 Y116.364 E4.3892
G1 X108.331 Y116.3 E4.41702
G1 X107.707 Y116.205 E4.44851
G1 X107.139 Y116.097 E4.47736
G1 X106.528 Y115.957 E4.50863
G1 X105.983 Y115.811 E4.53678
G1 X105.331 Y115.611 E4.5708
G1 X104.787 Y115.422 E4.59953
G1 X104.199 Y115.193 E4.63102
G1 X103.646 Y114.953 E4.66109
G1 X103.079 Y114.68 E4.69249
G1 X102.545 Y114.397 E4.72264
G1 X102.001 Y114.081 E4.75403
G1 X101.541 Y113.792 E4.78113
G1 X101.019 Y113.438 E4.8126
G1 X100.564 Y113.104 E4.84076
G1 X100.07 Y112.714 E4.87216
G1 X99.999 Y112.654 E4.87679
G1 X99.301 Y113.207 E4.92122
G1 X98.759 Y113.593 E4.95442
G1 X98.23 Y113.936 E4.98587
G1 X97.793 Y114.199 E5.01132
G1 X97.244 Y114.506 E5.0427
G1 X96.771 Y114.75 E5.06925
G1 X96.202 Y115.019 E5.10065
G1 X95.647 Y115.255 E5.13074
G1 X95.057 Y115.48 E5.16224
G1 X94.494 Y115.671 E5.1919
G1 X93.846 Y115.863 E5.22562
G1 X93.236 Y116.017 E5.25701
G1 X92.618 Y116.147 E5.28852
G1 X92.101 Y116.238 E5.31471
G1 X91.477 Y116.326 E5.34615
G1 X90.909 Y116.385 E5.37464
G1 X90.282 Y116.427 E5.40599
G1 X89.699 Y116.444 E5.43509
G1 X89.07 Y116.439 E5.46647
G1 X88.512 Y116.414 E5.49434
G1 X87.885 Y116.364 E5.52572
G1 X87.331 Y116.3 E5.55354
G1 X86.707 Y116.205 E5.58503
G1 X86.139 Y116.097 E5.61387
G1 X85.528 Y115.957 E5.64515
G1 X85.017 Y115.822 E5.67152
G1 X84.364 Y115.625 E5.70554
G1 X83.75 Y115.411 E5.73798
G1 X83.163 Y115.179 E5.76947
G1 X82.646 Y114.953 E5.79762
G1 X82.079 Y114.68 E5.82902
G1 X81.545 Y114.397 E5.85917
G1 X81.001 Y114.081 E5.89056
G1 X80.541 Y113.792 E5.91766
G1 X80.019 Y113.438 E5.94913
G1 X79.564 Y113.104 E5.97729
G1 X79.07 Y112.714 E6.00869
G1 X78.667 Y112.374 E6.03499
G1 X78.201 Y111.952 E6.06636
G1 X77.739 Y111.496 E6.09874
G1 X77.309 Y111.036 E6.13016
G1 X76.58 Y110.174 E6.18648
G1 X76.216 Y109.694 E6.21654
G1 X75.827 Y109.138 E6.25039
G1 X75.505 Y108.638 E6.28006
G1 X75.185 Y108.097 E6.31142
G1 X74.921 Y107.614 E6.33888
G1 X74.639 Y107.05 E6.37034
G1 X74.382 Y106.478 E6.40162
G1 X74.147 Y105.895 E6.43298
G1 X73.965 Y105.397 E6.45944
G1 X73.77 Y104.799 E6.49082
G1 X73.626 Y104.302 E6.51663
G1 X73.471 Y103.692 E6.54803
G1 X73.334 Y103.033 E6.58161
G1 X73.232 Y102.411 E6.61306
G1 X73.166 Y101.905 E6.63852
G1 X73.105 Y101.279 E6.6699
G1 X73.07 Y100.709 E6.69839
G1 X73.055 Y100.08 E6.72978
G1 X73.063 Y99.505 E6.75847
G1 X73.097 Y98.824 E6.79249
G1 X73.146 Y98.258 E6.82083
G1 X73.223 Y97.634 E6.8522
G1 X73.331 Y96.983 E6.88512
G1 X73.461 Y96.365 E6.91663
G1 X73.742 Y95.291 E6.97201
G1 X73.913 Y94.748 E7.00041
G1 X74.125 Y94.153 E7.03193
G1 X74.367 Y93.554 E7.06416
G1 X74.626 Y92.982 E7.09548
G1 X74.863 Y92.504 E7.1221
G1 X75.161 Y91.95 E7.15349
G1 X75.741 Y90.988 E7.20953
G1 X76.122 Y90.432 E7.24315
G1 X76.529 Y89.889 E7.27701
G1 X76.884 Y89.449 E7.30522
G1 X77.297 Y88.974 E7.33662
G1 X77.649 Y88.595 E7.36242
G1 X78.093 Y88.148 E7.39386
G1 X78.595 Y87.685 E7.42793
G0 F3600 X78.853 Y87.991
G1 F1800 X79.335 Y87.584 E7.4594
G1 X80.217 Y86.913 E7.51469
G1 X80.653 Y86.614 E7.54107
G1 X81.183 Y86.278 E7.57237
G1 X81.663 Y85.998 E7.6001
G1 X82.22 Y85.701 E7.63159
G1 X83.227 Y85.229 E7.68707
G1 X83.781 Y85.005 E7.71689
G1 X84.376 Y84.792 E7.74842
G1 X84.921 Y84.62 E7.77693
G1 X85.573 Y84.442 E7.81065
G1 X86.105 Y84.318 E7.8379
G1 X86.725 Y84.197 E7.86942
G1 X87.247 Y84.114 E7.89579
G1 X87.871 Y84.038 E7.92715
G1 X88.414 Y83.992 E7.95434
G1 X89.044 Y83.962 E7.9858
G1 X89.573 Y83.956 E8.0122
G1 X90.2 Y83.971 E8.04349
G1 X90.74 Y84.004 E8.07048
G1 X91.367 Y84.065 E8.10191
G1 X91.905 Y84.137 E8.12899
G1 X92.527 Y84.244 E8.16047
G1 X93.05 Y84.354 E8.18714
G1 X93.66 Y84.505 E8.21849
G1 X94.189 Y84.657 E8.24595
G1 X94.835 Y84.869 E8.27987
G1 X95.345 Y85.057 E8.30699
G1 X95.928 Y85.297 E8.33844
G1 X96.477 Y85.55 E8.3686
G1 X97.039 Y85.837 E8.40008
G1 X98.012 Y86.399 E8.45614
G1 X98.464 Y86.693 E8.48304
G1 X98.977 Y87.053 E8.51431
G1 X99.423 Y87.392 E8.54226
G1 X99.91 Y87.792 E8.5737
G1 X99.998 Y87.869 E8.57953
G1 X100.711 Y87.287 E8.62545
G1 X101.217 Y86.913 E8.65684
G1 X101.653 Y86.614 E8.68322
G1 X102.183 Y86.278 E8.71452
G1 X102.663 Y85.998 E8.74225
G1 X103.22 Y85.701 E8.77374
G1 X104.227 Y85.229 E8.82922
G1 X104.781 Y85.005 E8.85904
G1 X105.376 Y84.792 E8.89057
G1 X105.88 Y84.631 E8.91696
G1 X106.532 Y84.449 E8.95074
G1 X107.15 Y84.305 E8.98239
G1 X107.77 Y84.188 E9.01387
G1 X108.871 Y84.038 E9.06931
G1 X109.414 Y83.992 E9.0965
G1 X110.044 Y83.962 E9.12796
G1 X110.573 Y83.956 E9.15436
G1 X111.2 Y83.971 E9.18565
G1 X111.74 Y84.004 E9.21264
G1 X112.367 Y84.065 E9.24407
G1 X112.905 Y84.137 E9.27115
G1 X113.527 Y84.244 E9.30263
G1 X114.05 Y84.354 E9.3293
G1 X114.66 Y84.505 E9.36065
G1 X115.189 Y84.657 E9.38811
G1 X115.835 Y84.869 E9.42203
G1 X116.345 Y85.057 E9.44915
G1 X116.928 Y85.297 E9.4806
G1 X117.477 Y85.55 E9.51076
G1 X118.039 Y85.837 E9.54224
G1 X119.012 Y86.399 E9.5983
G1 X119.464 Y86.693 E9.6252
G1 X119.977 Y87.053 E9.65647
G1 X120.423 Y87.392 E9.68442
G1 X120.91 Y87.792 E9.71586
G1 X121.734 Y88.542 E9.77145
G1 X122.166 Y88.982 E9.80221
G1 X122.586 Y89.447 E9.83347
G1 X122.912 Y89.835 E9.85875
G1 X123.301 Y90.33 E9.89016
G1 X123.62 Y90.767 E9.91716
G1 X124 Y91.331 E9.95108
G1 X124.283 Y91.786 E9.97782
G1 X124.596 Y92.332 E10.00922
G1 X124.864 Y92.845 E10.03809
G1 X125.133 Y93.413 E10.06945
G1 X125.352 Y93.925 E10.09723
G1 X125.578 Y94.513 E10.12866
G1 X125.75 Y95.012 E10.15499
G1 X125.934 Y95.616 E10.18649
G1 X126.202 Y96.689 E10.24167
G1 X126.316 Y97.28 E10.2717
G1 X126.41 Y97.903 E10.30313
G1 X126.474 Y98.477 E10.33194
G1 X126.519 Y99.104 E10.36331
G1 X126.538 Y99.716 E10.39385
G1 X126.527 Y100.711 E10.4435
G1 X126.484 Y101.428 E10.47933
G1 X126.416 Y102.054 E10.51075
G1 X126.335 Y102.605 E10.53853
G1 X126.22 Y103.225 E10.56999
G1 X126.098 Y103.766 E10.59766
G1 X125.937 Y104.375 E10.62909
G1 X125.601 Y105.429 E10.68428
G1 X125.383 Y106 E10.71477
G1 X125.135 Y106.578 E10.74615
G1 X124.916 Y107.044 E10.77184
G1 X124.628 Y107.604 E10.80326
G1 X124.373 Y108.06 E10.82932
G1 X124.047 Y108.597 E10.86066
G1 X123.762 Y109.031 E10.88657
G1 X123.37 Y109.585 E10.92042
G1 X122.967 Y110.104 E10.95321
G1 X122.559 Y110.584 E10.98464
G1 X121.797 Y111.393 E11.04008
G1 X121.401 Y111.773 E11.06746
G1 X120.931 Y112.191 E11.09884
G1 X120.056 Y112.891 E11.15475
G1 X119.541 Y113.257 E11.18627
G1 X119.012 Y113.6 E11.21772
G1 X118.049 Y114.157 E11.27323
G1 X117.6 Y114.388 E11.29842
G1 X117.031 Y114.657 E11.32982
G1 X116.505 Y114.881 E11.35834
G1 X115.915 Y115.106 E11.38984
G1 X115.347 Y115.297 E11.41974
G1 X114.698 Y115.486 E11.45346
G1 X114.188 Y115.615 E11.47971
G1 X113.571 Y115.748 E11.5112
G1 X113.045 Y115.841 E11.53785
G1 X112.421 Y115.929 E11.56929
G1 X111.883 Y115.985 E11.59627
G1 X111.256 Y116.027 E11.62762
G1 X110.702 Y116.044 E11.65528
G1 X110.073 Y116.039 E11.68666
G1 X109.544 Y116.016 E11.71307
G1 X108.917 Y115.966 E11.74445
G1 X108.391 Y115.905 E11.77087
G1 X107.767 Y115.81 E11.80236
G1 X107.228 Y115.707 E11.82974
G1 X106.617 Y115.567 E11.86101
G1 X106.1 Y115.429 E11.88771
G1 X105.448 Y115.229 E11.92173
G1 X104.933 Y115.05 E11.94894
G1 X104.345 Y114.821 E11.98042
G1 X103.82 Y114.592 E12.00899
G1 X103.253 Y114.319 E12.04039
G1 X102.746 Y114.051 E12.069
G1 X102.202 Y113.735 E12.10039
G1 X101.766 Y113.46 E12.1261
G1 X101.244 Y113.106 E12.15757
G1 X100.812 Y112.79 E12.18427
G1 X100.318 Y112.4 E12.21567
G1 X99.999 Y112.13 E12.23652
G1 X99.554 Y112.504 E12.26553
G1 X99.056 Y112.891 E12.29699
G1 X98.541 Y113.257 E12.32851
G1 X98.012 Y113.6 E12.35997
G1 X97.049 Y114.157 E12.41547
G1 X96.6 Y114.388 E12.44066
G1 X96.031 Y114.657 E12.47206
G1 X95.505 Y114.881 E12.50058
G1 X94.915 Y115.106 E12.53208
G1 X94.38 Y115.287 E12.56026
G1 X93.732 Y115.479 E12.59398
G1 X93.153 Y115.626 E12.62378
G1 X92.535 Y115.756 E12.65529
G1 X91.421 Y115.929 E12.71153
G1 X90.883 Y115.985 E12.73852
G1 X90.256 Y116.027 E12.76987
G1 X89.702 Y116.044 E12.79752
G1 X89.073 Y116.039 E12.82891
G1 X88.544 Y116.016 E12.85532
G1 X87.917 Y115.966 E12.8867
G1 X87.391 Y115.905 E12.91312
G1 X86.767 Y115.81 E12.94461
G1 X86.228 Y115.707 E12.97199
G1 X85.617 Y115.567 E13.00326
G1 X85.133 Y115.439 E13.02824
G1 X84.48 Y115.242 E13.06227
G1 X83.897 Y115.039 E13.09307
G1 X83.31 Y114.807 E13.12456
G1 X82.82 Y114.592 E13.15125
G1 X82.253 Y114.319 E13.18265
G1 X81.746 Y114.051 E13.21126
G1 X81.202 Y113.735 E13.24264
G1 X80.766 Y113.46 E13.26836
G1 X80.244 Y113.106 E13.29983
G1 X79.812 Y112.79 E13.32653
G1 X79.318 Y112.4 E13.35793
G1 X78.936 Y112.077 E13.38289
G1 X78.47 Y111.655 E13.41426
G1 X78.031 Y111.223 E13.44498
G1 X77.601 Y110.763 E13.4764
G1 X76.889 Y109.92 E13.53145
G1 X76.544 Y109.465 E13.55994
G1 X76.155 Y108.909 E13.59379
G1 X75.849 Y108.434 E13.62198
G1 X75.529 Y107.893 E13.65334
G1 X75.279 Y107.435 E13.67937
G1 X74.997 Y106.871 E13.71083
G1 X74.753 Y106.329 E13.74048
G1 X74.518 Y105.746 E13.77185
G1 X74.346 Y105.273 E13.79695
G1 X74.151 Y104.675 E13.82834
G1 X73.859 Y103.593 E13.88425
G1 X73.729 Y102.969 E13.91605
G1 X73.627 Y102.347 E13.94749
G1 X73.503 Y101.241 E14.00302
G1 X73.47 Y100.699 E14.03011
G1 X73.455 Y100.07 E14.0615
G1 X73.462 Y99.525 E14.08869
G1 X73.496 Y98.844 E14.12271
G1 X73.543 Y98.307 E14.1496
G1 X73.62 Y97.683 E14.18097
G1 X73.722 Y97.066 E14.21217
G1 X73.852 Y96.448 E14.24368
G1 X74.128 Y95.397 E14.29789
G1 X74.29 Y94.882 E14.32482
G1 X74.502 Y94.287 E14.35634
G1 X74.732 Y93.719 E14.38691
G1 X74.991 Y93.147 E14.41824
G1 X75.215 Y92.693 E14.44349
G1 X75.513 Y92.139 E14.47488
G1 X76.081 Y91.2 E14.52963
G1 X76.442 Y90.672 E14.56154
G1 X76.849 Y90.129 E14.59539
G1 X77.186 Y89.712 E14.62214
G1 X77.599 Y89.237 E14.65354
G1 X78.377 Y88.43 E14.70947
G1 X78.853 Y87.991 E14.74177
G0 F3600 X79.111 Y88.297
G1 F1800 X79.593 Y87.89 E14.77325
G1 X80.454 Y87.235 E14.82722
G1 X80.867 Y86.952 E14.8522
G1 X81.397 Y86.616 E14.88351
G1 X81.851 Y86.351 E14.90973
G1 X82.408 Y86.054 E14.94122
G1 X83.392 Y85.593 E14.99544
G1 X83.916 Y85.382 E15.02362
G1 X84.511 Y85.169 E15.05515
G1 X85.026 Y85.006 E15.0821
G1 X85.678 Y84.828 E15.11582
G1 X86.181 Y84.711 E15.14158
G1 X86.801 Y84.59 E15.1731
G1 X87.296 Y84.511 E15.19811
G1 X87.92 Y84.435 E15.22947
G1 X88.433 Y84.392 E15.25515
G1 X89.063 Y84.362 E15.28662
G1 X89.563 Y84.356 E15.31156
G1 X90.19 Y84.371 E15.34285
G1 X90.701 Y84.402 E15.3684
G1 X91.328 Y84.463 E15.39982
G1 X91.837 Y84.531 E15.42544
G1 X92.459 Y84.638 E15.45693
G1 X92.954 Y84.742 E15.48217
G1 X93.564 Y84.893 E15.51352
G1 X94.065 Y85.037 E15.53952
G1 X94.711 Y85.249 E15.57344
G1 X95.193 Y85.427 E15.59908
G1 X95.776 Y85.667 E15.63053
G1 X96.295 Y85.906 E15.65904
G1 X96.857 Y86.193 E15.69052
G1 X97.806 Y86.743 E15.74525
G1 X98.234 Y87.02 E15.77068
G1 X98.747 Y87.38 E15.80195
G1 X99.169 Y87.701 E15.8284
G1 X99.656 Y88.101 E15.85984
G1 X99.998 Y88.402 E15.88257
G1 X100.593 Y87.89 E15.92173
G1 X101.454 Y87.235 E15.9757
G1 X101.867 Y86.952 E16.00068
G1 X102.397 Y86.616 E16.03199
G1 X102.851 Y86.351 E16.05822
G1 X103.408 Y86.054 E16.08971
G1 X104.392 Y85.593 E16.14392
G1 X104.916 Y85.382 E16.1721
G1 X105.511 Y85.169 E16.20363
G1 X105.988 Y85.017 E16.22861
G1 X106.64 Y84.835 E16.26238
G1 X107.224 Y84.698 E16.29231
G1 X107.844 Y84.581 E16.32379
G1 X108.92 Y84.435 E16.37796
G1 X109.433 Y84.392 E16.40364
