;FLAVOR:Marlin
;TIME:4495
;Filament used: 1.91764m
;Layer height: 0.1
;MINX:70.7
;MINY:72.2
;MINZ:0.3
;MAXX:129.3
;MAXY:127.8
;MAXZ:15
;Generated with Cura_SteamEngine 4.1.0
M140 S60
M105
M190 S60
M104 S200
M105
M109 S200
M82 ;absolute extrusion mode
G21 ;metric values
 G90 ;absolute positioning
 M82 ;set extruder to absolute mode
 M107 ;start with the fan off
 G28 X0 Y0 ;move X/Y to min endstops
 G28 Z0 ;move Z to min endstops
 G1 Z15.0 F120 ;move the platform down 15mm
 G92 E0 ;zero the extruded length
 G1 F200 E6 ;extrude 6 mm of feed stock
 G92 E0 ;zero the extruded length again
 G1 F120 
 ;Put printing message on LCD screen
 M117 Printing...
G92 E0
G92 E0
G1 F1500 E-6.5
;LAYER_COUNT:148
;LAYER:0
M107
G0 F3600 X73.715 Y74.937 Z0.3
;TYPE:SKIRT
G1 F1500 E0
G1 F1800 X74.302 Y74.409 E0.03939
G1 X74.758 Y74.066 E0.06786
G1 X75.042 Y73.868 E0.08513
G1 X75.712 Y73.449 E0.12455
G1 X76.229 Y73.187 E0.15347
G1 X76.549 Y73.039 E0.17106
G1 X77.281 Y72.744 E0.21043
G1 X77.825 Y72.578 E0.23881
G1 X78.157 Y72.49 E0.25594
G1 X78.929 Y72.327 E0.29531
G1 X79.481 Y72.259 E0.32306
G1 X79.827 Y72.229 E0.34038
G1 X80.501 Y72.2 E0.37404
G1 X82.478 Y72.2 E0.47267
G1 X83.267 Y72.24 E0.51209
G1 X83.809 Y72.314 E0.53938
G1 X84.519 Y72.437 E0.57533
G1 X85.29 Y72.611 E0.61476
G1 X86.038 Y72.862 E0.65412
G1 X86.478 Y73.051 E0.67802
G1 X86.794 Y73.198 E0.6954
G1 X87.492 Y73.567 E0.73479
G1 X87.98 Y73.882 E0.76377
G1 X88.264 Y74.081 E0.78107
G1 X88.887 Y74.566 E0.82046
G1 X89.326 Y74.976 E0.85043
G1 X89.574 Y75.226 E0.868
G1 X90.101 Y75.814 E0.90739
G1 X90.445 Y76.273 E0.93601
G1 X90.642 Y76.557 E0.95325
G1 X91.042 Y77.2 E0.99103
G1 X108.967 Y77.2 E1.88531
G1 X109.084 Y76.981 E1.8977
G1 X109.376 Y76.532 E1.92442
G1 X109.575 Y76.247 E1.94177
G1 X110.059 Y75.623 E1.98116
G1 X110.466 Y75.185 E2.01099
G1 X110.715 Y74.937 E2.02853
G1 X111.302 Y74.409 E2.06792
G1 X111.758 Y74.066 E2.09638
G1 X112.042 Y73.868 E2.11366
G1 X112.712 Y73.449 E2.15308
G1 X113.229 Y73.187 E2.182
G1 X113.549 Y73.039 E2.19959
G1 X114.281 Y72.744 E2.23896
G1 X114.825 Y72.578 E2.26734
G1 X115.157 Y72.49 E2.28447
G1 X115.929 Y72.327 E2.32384
G1 X116.481 Y72.259 E2.35158
G1 X116.827 Y72.229 E2.36891
G1 X117.501 Y72.2 E2.40257
G1 X119.478 Y72.2 E2.5012
G1 X120.126 Y72.227 E2.53356
G1 X120.498 Y72.258 E2.55218
G1 X121.28 Y72.363 E2.59154
G1 X121.879 Y72.5 E2.6222
G1 X122.213 Y72.59 E2.63946
G1 X122.965 Y72.833 E2.67889
G1 X123.503 Y73.062 E2.70806
G1 X123.822 Y73.212 E2.72564
G1 X124.519 Y73.584 E2.76506
G1 X124.968 Y73.876 E2.79178
G1 X125.253 Y74.075 E2.80912
G1 X125.877 Y74.559 E2.84852
G1 X126.315 Y74.966 E2.87835
G1 X126.563 Y75.215 E2.89588
G1 X127.091 Y75.802 E2.93527
G1 X127.434 Y76.258 E2.96374
G1 X127.632 Y76.542 E2.98101
G1 X128.051 Y77.212 E3.02044
G1 X128.314 Y77.73 E3.04942
G1 X128.461 Y78.048 E3.0669
G1 X128.756 Y78.781 E3.10632
G1 X128.918 Y79.313 E3.13406
G1 X129.007 Y79.647 E3.15131
G1 X129.171 Y80.419 E3.19068
G1 X129.241 Y80.977 E3.21874
G1 X129.271 Y81.321 E3.23597
G1 X129.3 Y81.999 E3.26982
G1 X129.3 Y117.639 E5.04791
G1 X129.293 Y117.978 E5.06483
G1 X129.262 Y118.691 E5.10043
G1 X129.187 Y119.477 E5.13983
G1 X128.997 Y120.393 E5.1865
G1 X128.907 Y120.725 E5.20366
G1 X128.662 Y121.476 E5.24307
G1 X128.438 Y122.003 E5.27164
G1 X128.288 Y122.322 E5.28922
G1 X127.916 Y123.019 E5.32864
G1 X127.624 Y123.468 E5.35536
G1 X127.425 Y123.753 E5.3727
G1 X126.941 Y124.377 E5.4121
G1 X126.534 Y124.815 E5.44193
G1 X126.285 Y125.063 E5.45947
G1 X125.698 Y125.591 E5.49885
G1 X125.242 Y125.934 E5.52732
G1 X124.958 Y126.132 E5.54459
G1 X124.288 Y126.551 E5.58402
G1 X123.771 Y126.813 E5.61294
G1 X123.451 Y126.961 E5.63053
G1 X122.719 Y127.256 E5.6699
G1 X122.175 Y127.422 E5.69827
G1 X121.843 Y127.51 E5.71541
G1 X121.071 Y127.673 E5.75477
G1 X120.519 Y127.741 E5.78252
G1 X120.173 Y127.771 E5.79985
G1 X119.499 Y127.8 E5.83351
G1 X117.522 Y127.8 E5.93214
G1 X116.874 Y127.773 E5.9645
G1 X116.502 Y127.742 E5.98312
G1 X115.72 Y127.637 E6.02248
G1 X115.132 Y127.503 E6.05257
G1 X114.796 Y127.413 E6.06993
G1 X114.044 Y127.171 E6.10934
G1 X113.505 Y126.942 E6.13855
G1 X113.187 Y126.793 E6.15607
G1 X112.489 Y126.422 E6.19551
G1 X112.02 Y126.118 E6.2234
G1 X111.736 Y125.919 E6.2407
G1 X111.113 Y125.434 E6.28009
G1 X110.674 Y125.024 E6.31005
G1 X110.426 Y124.774 E6.32762
G1 X109.899 Y124.186 E6.36702
G1 X109.555 Y123.727 E6.39563
G1 X109.358 Y123.443 E6.41288
G1 X108.958 Y122.8 E6.45066
G1 X91.033 Y122.8 E7.34494
G1 X90.916 Y123.019 E7.35733
G1 X90.624 Y123.468 E7.38405
G1 X90.425 Y123.753 E7.40139
G1 X89.941 Y124.377 E7.44079
G1 X89.534 Y124.815 E7.47062
G1 X89.285 Y125.063 E7.48815
G1 X88.698 Y125.591 E7.52754
G1 X88.242 Y125.934 E7.55601
G1 X87.958 Y126.132 E7.57328
G1 X87.288 Y126.551 E7.61271
G1 X86.771 Y126.813 E7.64162
G1 X86.451 Y126.961 E7.65921
G1 X85.719 Y127.256 E7.69858
G1 X85.175 Y127.422 E7.72696
G1 X84.843 Y127.51 E7.7441
G1 X84.071 Y127.673 E7.78346
G1 X83.519 Y127.741 E7.81121
G1 X83.173 Y127.771 E7.82853
G1 X82.499 Y127.8 E7.86219
G1 X80.522 Y127.8 E7.96082
G1 X79.874 Y127.773 E7.99318
G1 X79.502 Y127.742 E8.01181
G1 X78.72 Y127.637 E8.05117
G1 X78.121 Y127.5 E8.08183
G1 X77.787 Y127.41 E8.09908
G1 X77.035 Y127.167 E8.13851
G1 X76.497 Y126.938 E8.16768
G1 X76.178 Y126.788 E8.18527
G1 X75.481 Y126.416 E8.22468
G1 X75.032 Y126.124 E8.25141
G1 X74.747 Y125.925 E8.26875
G1 X74.123 Y125.441 E8.30815
G1 X73.685 Y125.034 E8.33798
G1 X73.437 Y124.785 E8.35551
G1 X72.909 Y124.198 E8.3949
G1 X72.566 Y123.742 E8.42337
G1 X72.368 Y123.458 E8.44064
G1 X71.949 Y122.788 E8.48006
G1 X71.683 Y122.263 E8.50943
G1 X71.535 Y121.942 E8.52706
G1 X71.241 Y121.209 E8.56646
G1 X71.08 Y120.68 E8.59405
G1 X70.992 Y120.349 E8.61114
G1 X70.828 Y119.577 E8.65051
G1 X70.736 Y118.661 E8.69644
G1 X70.706 Y117.922 E8.73334
G1 X70.7 Y117.606 E8.74911
G1 X70.7 Y82.053 E10.52285
G1 X70.723 Y81.455 E10.55271
G1 X70.754 Y81.052 E10.57288
G1 X70.854 Y80.268 E10.61231
G1 X71 Y79.621 E10.6454
G1 X71.09 Y79.287 E10.66265
G1 X71.333 Y78.535 E10.70208
G1 X71.562 Y77.997 E10.73125
G1 X71.712 Y77.678 E10.74884
G1 X72.084 Y76.981 E10.78826
G1 X72.376 Y76.532 E10.81498
G1 X72.575 Y76.247 E10.83232
G1 X73.059 Y75.623 E10.87172
G1 X73.466 Y75.185 E10.90155
G1 X73.715 Y74.937 E10.91908
G0 F3600 X73.997 Y75.221
G1 F1800 X74.569 Y74.707 E10.95745
G1 X74.987 Y74.394 E10.9835
G1 X75.271 Y74.196 E11.00077
G1 X75.924 Y73.789 E11.03916
G1 X76.397 Y73.55 E11.0656
G1 X76.717 Y73.402 E11.08319
G1 X77.431 Y73.115 E11.12158
G1 X77.927 Y72.965 E11.14743
G1 X78.259 Y72.877 E11.16457
G1 X79.012 Y72.719 E11.20295
G1 X79.516 Y72.658 E11.22828
G1 X79.862 Y72.628 E11.24561
G1 X80.501 Y72.6 E11.27752
G1 X82.478 Y72.6 E11.37615
G1 X83.246 Y72.64 E11.41452
G1 X83.741 Y72.709 E11.43945
G1 X84.451 Y72.832 E11.4754
G1 X85.201 Y73.002 E11.51377
G1 X85.929 Y73.25 E11.55214
G1 X86.309 Y73.413 E11.57277
G1 X86.625 Y73.56 E11.59016
G1 X87.305 Y73.921 E11.62857
G1 X87.75 Y74.21 E11.65504
G1 X88.034 Y74.409 E11.67234
G1 X88.641 Y74.882 E11.71073
G1 X89.042 Y75.257 E11.73812
G1 X89.29 Y75.507 E11.75569
G1 X89.802 Y76.081 E11.79407
G1 X90.116 Y76.501 E11.82023
G1 X90.313 Y76.785 E11.83747
G1 X90.718 Y77.439 E11.87585
G1 X90.8 Y77.6 E11.88486
G1 X109.207 Y77.6 E12.80319
G1 X109.437 Y77.17 E12.82752
G1 X109.704 Y76.761 E12.85189
G1 X109.903 Y76.476 E12.86923
G1 X110.375 Y75.869 E12.90759
G1 X110.748 Y75.469 E12.93488
G1 X110.997 Y75.221 E12.95241
G1 X111.569 Y74.707 E12.99078
G1 X111.987 Y74.394 E13.01683
G1 X112.271 Y74.196 E13.0341
G1 X112.924 Y73.789 E13.07249
G1 X113.397 Y73.55 E13.09893
G1 X113.717 Y73.402 E13.11652
G1 X114.431 Y73.115 E13.15491
G1 X114.927 Y72.965 E13.18076
G1 X115.259 Y72.877 E13.1979
G1 X116.012 Y72.719 E13.23629
G1 X116.516 Y72.658 E13.26161
G1 X116.862 Y72.628 E13.27894
G1 X117.501 Y72.6 E13.31085
G1 X119.478 Y72.6 E13.40948
G1 X120.093 Y72.626 E13.44019
G1 X120.465 Y72.657 E13.45882
G1 X121.227 Y72.76 E13.49718
G1 X121.775 Y72.886 E13.52523
G1 X122.109 Y72.976 E13.54249
G1 X122.841 Y73.214 E13.58089
G1 X123.333 Y73.424 E13.60758
G1 X123.652 Y73.574 E13.62517
G1 X124.33 Y73.937 E13.66354
G1 X124.739 Y74.204 E13.6879
G1 X125.024 Y74.403 E13.70525
G1 X125.631 Y74.875 E13.74361
G1 X126.031 Y75.248 E13.77089
G1 X126.279 Y75.497 E13.78843
G1 X126.793 Y76.069 E13.82679
G1 X127.106 Y76.487 E13.85284
G1 X127.304 Y76.771 E13.87012
G1 X127.711 Y77.424 E13.90851
G1 X127.951 Y77.898 E13.93501
G1 X128.098 Y78.216 E13.95249
G1 X128.384 Y78.93 E13.99086
G1 X128.531 Y79.416 E14.01619
G1 X128.62 Y79.75 E14.03344
G1 X128.78 Y80.502 E14.0718
G1 X128.842 Y81.012 E14.09743
G1 X128.872 Y81.356 E14.11466
G1 X128.9 Y81.999 E14.14677
G1 X128.9 Y117.639 E15.92485
G1 X128.893 Y117.96 E15.94087
G1 X128.862 Y118.673 E15.97648
G1 X128.789 Y119.439 E16.01486
G1 X128.611 Y120.288 E16.05814
G1 X128.521 Y120.62 E16.0753
G1 X128.282 Y121.351 E16.11367
G1 X128.076 Y121.833 E16.13982
G1 X127.926 Y122.152 E16.15741
G1 X127.563 Y122.83 E16.19578
G1 X127.296 Y123.239 E16.22015
G1 X127.097 Y123.524 E16.23749
G1 X126.625 Y124.131 E16.27585
G1 X126.252 Y124.531 E16.30314
G1 X126.003 Y124.779 E16.32067
G1 X125.431 Y125.293 E16.35904
G1 X125.013 Y125.606 E16.38509
G1 X124.729 Y125.804 E16.40236
G1 X124.076 Y126.211 E16.44075
G1 X123.603 Y126.45 E16.46719
G1 X123.283 Y126.598 E16.48478
G1 X122.569 Y126.885 E16.52317
G1 X122.073 Y127.035 E16.54902
G1 X121.741 Y127.123 E16.56616
G1 X120.988 Y127.281 E16.60454
G1 X120.484 Y127.342 E16.62987
G1 X120.138 Y127.372 E16.6472
G1 X119.499 Y127.4 E16.67911
G1 X117.522 Y127.4 E16.77774
G1 X116.907 Y127.374 E16.80845
G1 X116.535 Y127.343 E16.82708
G1 X115.773 Y127.24 E16.86544
G1 X115.235 Y127.117 E16.89297
G1 X114.899 Y127.027 E16.91033
G1 X114.168 Y126.79 E16.94866
G1 X113.674 Y126.58 E16.97544
G1 X113.356 Y126.431 E16.99296
G1 X112.678 Y126.069 E17.03131
G1 X112.25 Y125.79 E17.0568
G1 X111.966 Y125.591 E17.0741
G1 X111.359 Y125.118 E17.11249
G1 X110.958 Y124.743 E17.13988
G1 X110.71 Y124.493 E17.15745
G1 X110.198 Y123.919 E17.19582
G1 X109.884 Y123.499 E17.22199
G1 X109.687 Y123.215 E17.23923
G1 X109.282 Y122.561 E17.27761
G1 X109.2 Y122.4 E17.28662
G1 X90.793 Y122.4 E18.20495
G1 X90.563 Y122.83 E18.22928
G1 X90.296 Y123.239 E18.25365
G1 X90.097 Y123.524 E18.27099
G1 X89.625 Y124.131 E18.30935
G1 X89.252 Y124.531 E18.33664
G1 X89.003 Y124.779 E18.35417
G1 X88.431 Y125.293 E18.39254
G1 X88.013 Y125.606 E18.41859
G1 X87.729 Y125.804 E18.43586
G1 X87.076 Y126.211 E18.47425
G1 X86.603 Y126.45 E18.50069
G1 X86.283 Y126.598 E18.51828
G1 X85.569 Y126.885 E18.55667
G1 X85.073 Y127.035 E18.58252
G1 X84.741 Y127.123 E18.59966
G1 X83.988 Y127.281 E18.63805
G1 X83.484 Y127.342 E18.66337
G1 X83.138 Y127.372 E18.6807
G1 X82.499 Y127.4 E18.71261
G1 X80.522 Y127.4 E18.81124
G1 X79.907 Y127.374 E18.84195
G1 X79.535 Y127.343 E18.86058
G1 X78.773 Y127.24 E18.89894
G1 X78.225 Y127.114 E18.92699
G1 X77.891 Y127.024 E18.94425
G1 X77.159 Y126.786 E18.98265
G1 X76.667 Y126.576 E19.00934
G1 X76.348 Y126.426 E19.02693
G1 X75.67 Y126.063 E19.0653
G1 X75.261 Y125.796 E19.08966
G1 X74.976 Y125.597 E19.10701
G1 X74.369 Y125.125 E19.14537
G1 X73.969 Y124.752 E19.17265
G1 X73.721 Y124.503 E19.19019
G1 X73.207 Y123.931 E19.22855
G1 X72.894 Y123.513 E19.2546
G1 X72.696 Y123.229 E19.27188
G1 X72.289 Y122.576 E19.31027
G1 X72.046 Y122.095 E19.33715
G1 X71.898 Y121.774 E19.35479
G1 X71.613 Y121.06 E19.39314
G1 X71.466 Y120.577 E19.41833
G1 X71.378 Y120.246 E19.43542
G1 X71.22 Y119.494 E19.47375
G1 X71.136 Y118.645 E19.51632
G1 X71.106 Y117.906 E19.55322
G1 X71.1 Y117.606 E19.56819
G1 X71.1 Y82.053 E21.34193
G1 X71.122 Y81.485 E21.37029
G1 X71.153 Y81.082 E21.39046
G1 X71.252 Y80.32 E21.42879
G1 X71.386 Y79.725 E21.45922
G1 X71.476 Y79.391 E21.47648
G1 X71.714 Y78.659 E21.51488
G1 X71.924 Y78.167 E21.54157
G1 X72.074 Y77.848 E21.55915
G1 X72.437 Y77.17 E21.59752
G1 X72.704 Y76.761 E21.62189
G1 X72.903 Y76.476 E21.63923
G1 X73.375 Y75.869 E21.67759
G1 X73.748 Y75.469 E21.70488
G1 X73.997 Y75.221 E21.72241
G0 F3600 X74.279 Y75.504
G1 F1800 X74.837 Y75.005 E21.75976
G1 X75.216 Y74.722 E21.78336
G1 X75.5 Y74.524 E21.80063
G1 X76.135 Y74.129 E21.83794
G1 X76.565 Y73.913 E21.86195
G1 X76.885 Y73.765 E21.87954
G1 X77.579 Y73.487 E21.91684
G1 X78.03 Y73.352 E21.94032
G1 X78.362 Y73.264 E21.95746
G1 X79.094 Y73.111 E21.99477
G1 X79.55 Y73.056 E22.01768
G1 X79.896 Y73.026 E22.03501
G1 X80.501 Y73 E22.06522
G1 X82.478 Y73 E22.16385
G1 X83.225 Y73.04 E22.20117
G1 X83.673 Y73.103 E22.22374
G1 X84.383 Y73.226 E22.25969
G1 X85.112 Y73.393 E22.29701
G1 X86.14 Y73.776 E22.35174
G1 X86.456 Y73.923 E22.36912
G1 X87.117 Y74.274 E22.40646
G1 X87.521 Y74.537 E22.43051
G1 X87.805 Y74.736 E22.44781
G1 X88.394 Y75.198 E22.48516
G1 X88.758 Y75.539 E22.51005
G1 X89.006 Y75.789 E22.52761
G1 X89.503 Y76.348 E22.56493
G1 X89.788 Y76.729 E22.58867
G1 X89.985 Y77.013 E22.60591
G1 X90.378 Y77.65 E22.64325
G1 X90.555 Y78 E22.66282
G1 X109.446 Y78 E23.6053
G1 X109.79 Y77.359 E23.64159
G1 X110.032 Y76.99 E23.66361
G1 X110.231 Y76.705 E23.68095
G1 X110.691 Y76.115 E23.71827
G1 X111.03 Y75.752 E23.74305
G1 X111.279 Y75.504 E23.76059
G1 X111.837 Y75.005 E23.79793
G1 X112.216 Y74.722 E23.82153
G1 X112.5 Y74.524 E23.8388
G1 X113.135 Y74.129 E23.87611
G1 X113.565 Y73.913 E23.90012
G1 X113.885 Y73.765 E23.91771
G1 X114.579 Y73.487 E23.95501
G1 X115.03 Y73.352 E23.97849
G1 X115.362 Y73.264 E23.99563
G1 X116.094 Y73.111 E24.03294
G1 X116.55 Y73.056 E24.05585
G1 X116.896 Y73.026 E24.07318
G1 X117.501 Y73 E24.10339
G1 X119.478 Y73 E24.20202
G1 X120.059 Y73.024 E24.23104
G1 X120.431 Y73.055 E24.24966
G1 X121.172 Y73.157 E24.28698
G1 X121.671 Y73.272 E24.31252
G1 X122.005 Y73.362 E24.32978
G1 X122.716 Y73.595 E24.36711
G1 X123.163 Y73.786 E24.39136
G1 X123.482 Y73.936 E24.40895
G1 X124.141 Y74.29 E24.44627
G1 X124.51 Y74.532 E24.46828
G1 X124.795 Y74.731 E24.48563
G1 X125.385 Y75.191 E24.52295
G1 X125.748 Y75.53 E24.54773
G1 X125.996 Y75.779 E24.56526
G1 X126.495 Y76.337 E24.60261
G1 X126.778 Y76.716 E24.62621
G1 X126.976 Y77 E24.64348
G1 X127.371 Y77.635 E24.68079
G1 X127.588 Y78.066 E24.70486
G1 X127.735 Y78.384 E24.72234
G1 X128.012 Y79.079 E24.75967
G1 X128.145 Y79.519 E24.7826
G1 X128.234 Y79.853 E24.79985
G1 X128.388 Y80.585 E24.83716
G1 X128.444 Y81.047 E24.86038
G1 X128.474 Y81.391 E24.87761
G1 X128.5 Y81.999 E24.90797
G1 X128.5 Y117.639 E26.68606
G1 X128.493 Y117.943 E26.70123
G1 X128.462 Y118.656 E26.73683
G1 X128.39 Y119.401 E26.77418
G1 X128.225 Y120.183 E26.81405
G1 X128.135 Y120.515 E26.83121
G1 X127.901 Y121.226 E26.86855
G1 X127.714 Y121.663 E26.89227
G1 X127.564 Y121.982 E26.90985
G1 X127.21 Y122.641 E26.94718
G1 X126.968 Y123.01 E26.96919
G1 X126.769 Y123.295 E26.98653
G1 X126.309 Y123.885 E27.02386
G1 X125.97 Y124.248 E27.04864
G1 X125.721 Y124.496 E27.06617
G1 X125.163 Y124.995 E27.10352
G1 X124.784 Y125.278 E27.12711
G1 X124.5 Y125.476 E27.14439
G1 X123.865 Y125.871 E27.1817
G1 X123.435 Y126.087 E27.2057
G1 X123.115 Y126.235 E27.22329
G1 X122.421 Y126.513 E27.26059
G1 X121.97 Y126.648 E27.28408
G1 X121.638 Y126.736 E27.30121
G1 X120.906 Y126.889 E27.33852
G1 X120.45 Y126.944 E27.36144
G1 X120.104 Y126.974 E27.37876
G1 X119.499 Y127 E27.40898
G1 X117.522 Y127 E27.50761
G1 X116.941 Y126.976 E27.53662
G1 X116.569 Y126.945 E27.55524
G1 X115.828 Y126.843 E27.59256
G1 X115.339 Y126.731 E27.61759
G1 X115.003 Y126.641 E27.63494
G1 X114.292 Y126.409 E27.67225
G1 X113.844 Y126.218 E27.69655
G1 X113.526 Y126.069 E27.71407
G1 X112.867 Y125.716 E27.75137
G1 X112.479 Y125.463 E27.77448
G1 X112.195 Y125.264 E27.79178
G1 X111.606 Y124.802 E27.82913
G1 X111.242 Y124.461 E27.85401
G1 X110.994 Y124.211 E27.87158
G1 X110.497 Y123.652 E27.9089
G1 X110.212 Y123.271 E27.93263
G1 X110.015 Y122.987 E27.94988
G1 X109.622 Y122.35 E27.98722
G1 X109.445 Y122 E28.00679
G1 X90.554 Y122 E28.94926
G1 X90.21 Y122.641 E28.98556
G1 X89.968 Y123.01 E29.00757
G1 X89.769 Y123.295 E29.02491
G1 X89.309 Y123.885 E29.06224
G1 X88.97 Y124.248 E29.08702
G1 X88.721 Y124.496 E29.10455
G1 X88.163 Y124.995 E29.1419
G1 X87.784 Y125.278 E29.1655
G1 X87.5 Y125.476 E29.18277
G1 X86.865 Y125.871 E29.22008
