;FLAVOR:Marlin
;TIME:5977
;Filament used: 2.76588m
;Layer height: 0.1
;MINX:50.609
;MINY:70.681
;MINZ:0.3
;MAXX:156.628
;MAXY:129.311
;MAXZ:15
;Generated with Cura_SteamEngine 4.1.0
M140 S60
M105
M190 S60
M104 S200
M105
M109 S200
M82 ;absolute extrusion mode
G21 ;metric values
 G90 ;absolute positioning
 M82 ;set extruder to absolute mode
 M107 ;start with the fan off
 G28 X0 Y0 ;move X/Y to min endstops
 G28 Z0 ;move Z to min endstops
 G1 Z15.0 F120 ;move the platform down 15mm
 G92 E0 ;zero the extruded length
 G1 F200 E6 ;extrude 6 mm of feed stock
 G92 E0 ;zero the extruded length again
 G1 F120 
 ;Put printing message on LCD screen
 M117 Printing...
G92 E0
G92 E0
G1 F1500 E-6.5
;LAYER_COUNT:148
;LAYER:0
M107
G0 F3600 X54.667 Y75.577 Z0.3
;TYPE:SKIRT
G1 F1500 E0
G1 F1800 X54.951 Y75.379 E0.01727
G1 X55.621 Y74.96 E0.0567
G1 X56.138 Y74.698 E0.08561
G1 X56.458 Y74.55 E0.1032
G1 X57.19 Y74.255 E0.14258
G1 X57.749 Y74.085 E0.17173
G1 X58.08 Y73.998 E0.1888
G1 X58.853 Y73.836 E0.2282
G1 X59.369 Y73.773 E0.25414
G1 X59.716 Y73.742 E0.27152
G1 X60.41 Y73.711 E0.30618
G1 X62.387 Y73.711 E0.40481
G1 X63.176 Y73.751 E0.44422
G1 X63.718 Y73.825 E0.47152
G1 X64.428 Y73.948 E0.50747
G1 X65.199 Y74.122 E0.5469
G1 X65.947 Y74.373 E0.58626
G1 X66.387 Y74.562 E0.61015
G1 X66.703 Y74.709 E0.62754
G1 X67.401 Y75.078 E0.66693
G1 X67.9 Y75.401 E0.69659
G1 X68.183 Y75.6 E0.71385
G1 X68.805 Y76.086 E0.75323
G1 X69.233 Y76.487 E0.78249
G1 X69.482 Y76.738 E0.80013
G1 X70.01 Y77.326 E0.83955
G1 X70.347 Y77.775 E0.86756
G1 X70.544 Y78.058 E0.88476
G1 X70.95 Y78.711 E0.92313
G1 X88.877 Y78.711 E1.81751
G1 X89.004 Y78.475 E1.83088
G1 X89.292 Y78.032 E1.85724
G1 X89.491 Y77.748 E1.87454
G1 X89.976 Y77.125 E1.91393
G1 X90.364 Y76.709 E1.94231
G1 X90.613 Y76.46 E1.95988
G1 X91.199 Y75.93 E1.9993
G1 X91.667 Y75.577 E2.02854
G1 X91.951 Y75.379 E2.04582
G1 X92.621 Y74.96 E2.08524
G1 X93.138 Y74.698 E2.11416
G1 X93.458 Y74.55 E2.13175
G1 X94.19 Y74.255 E2.17112
G1 X94.749 Y74.085 E2.20027
G1 X95.08 Y73.998 E2.21735
G1 X95.853 Y73.836 E2.25675
G1 X96.369 Y73.773 E2.28268
G1 X96.716 Y73.742 E2.30006
G1 X97.41 Y73.711 E2.33472
G1 X99.387 Y73.711 E2.43336
G1 X100.055 Y73.74 E2.46671
G1 X100.427 Y73.772 E2.48534
G1 X100.678 Y73.806 E2.49798
G1 X100.819 Y73.643 E2.50873
G1 X101.029 Y73.433 E2.52355
G1 X101.615 Y72.903 E2.56297
G1 X102.062 Y72.564 E2.59095
G1 X102.344 Y72.366 E2.60815
G1 X103.012 Y71.946 E2.64751
G1 X103.517 Y71.687 E2.67583
G1 X103.835 Y71.538 E2.69335
G1 X104.566 Y71.239 E2.73275
G1 X105.147 Y71.061 E2.76307
G1 X105.483 Y70.972 E2.78041
G1 X106.255 Y70.809 E2.81977
G1 X106.79 Y70.743 E2.84667
G1 X107.139 Y70.712 E2.86415
G1 X107.829 Y70.681 E2.8986
G1 X109.526 Y70.681 E2.98327
G1 X110.482 Y70.74 E3.03105
G1 X111.47 Y70.862 E3.08072
G1 X112.248 Y70.998 E3.12012
G1 X113.008 Y71.212 E3.15951
G1 X113.801 Y71.53 E3.20214
G1 X114.113 Y71.675 E3.2193
G1 X114.812 Y72.043 E3.25871
G1 X115.438 Y72.457 E3.29616
G1 X115.764 Y72.696 E3.31632
G1 X116.376 Y73.195 E3.35572
G1 X116.681 Y73.485 E3.37672
G1 X116.89 Y73.695 E3.3915
G1 X117.418 Y74.282 E3.43089
G1 X117.752 Y74.726 E3.45861
G1 X117.95 Y75.009 E3.47584
G1 X118.369 Y75.678 E3.51522
G1 X118.371 Y75.681 E3.5154
G1 X136.294 Y75.681 E4.40958
G1 X136.397 Y75.487 E4.42054
G1 X136.811 Y74.862 E4.45794
G1 X137.05 Y74.537 E4.47807
G1 X137.819 Y73.643 E4.5369
G1 X138.029 Y73.433 E4.55172
G1 X138.615 Y72.903 E4.59114
G1 X139.062 Y72.564 E4.61913
G1 X139.344 Y72.366 E4.63632
G1 X140.012 Y71.946 E4.67568
G1 X140.517 Y71.687 E4.704
G1 X140.835 Y71.538 E4.72152
G1 X141.566 Y71.239 E4.76092
G1 X142.147 Y71.061 E4.79124
G1 X142.483 Y70.972 E4.80858
G1 X143.255 Y70.809 E4.84794
G1 X143.79 Y70.743 E4.87484
G1 X144.139 Y70.712 E4.89232
G1 X144.829 Y70.681 E4.92678
G1 X146.527 Y70.681 E5.01149
G1 X146.899 Y70.69 E5.03005
G1 X147.548 Y70.721 E5.06247
G1 X148.334 Y70.798 E5.10187
G1 X149.173 Y70.972 E5.14462
G1 X149.509 Y71.061 E5.16196
G1 X150.261 Y71.302 E5.20136
G1 X150.819 Y71.537 E5.23157
G1 X151.133 Y71.684 E5.24886
G1 X151.83 Y72.054 E5.28823
G1 X152.438 Y72.457 E5.32462
G1 X152.764 Y72.696 E5.34479
G1 X153.376 Y73.195 E5.38419
G1 X153.681 Y73.485 E5.40518
G1 X153.89 Y73.695 E5.41996
G1 X154.418 Y74.282 E5.45935
G1 X154.752 Y74.726 E5.48707
G1 X154.95 Y75.009 E5.5043
G1 X155.369 Y75.678 E5.54369
G1 X155.618 Y76.161 E5.5708
G1 X155.768 Y76.48 E5.58838
G1 X156.067 Y77.211 E5.62779
G1 X156.246 Y77.791 E5.65807
G1 X156.335 Y78.125 E5.67531
G1 X156.499 Y78.897 E5.71469
G1 X156.569 Y79.461 E5.74304
G1 X156.599 Y79.808 E5.76042
G1 X156.628 Y80.48 E5.79398
G1 X156.628 Y116.48 E7.59002
G1 X156.6 Y117.146 E7.62328
G1 X156.57 Y117.496 E7.64081
G1 X156.462 Y118.279 E7.68024
G1 X156.334 Y118.844 E7.70914
G1 X156.245 Y119.177 E7.72634
G1 X156.002 Y119.929 E7.76577
G1 X155.768 Y120.481 E7.79568
G1 X155.619 Y120.798 E7.81315
G1 X155.247 Y121.495 E7.85257
G1 X154.853 Y122.088 E7.88809
G1 X154.615 Y122.413 E7.90819
G1 X153.851 Y123.307 E7.96686
G1 X153.642 Y123.517 E7.98164
G1 X153.057 Y124.048 E8.02105
G1 X152.559 Y124.424 E8.05219
G1 X152.275 Y124.621 E8.06943
G1 X151.604 Y125.038 E8.10884
G1 X151.148 Y125.271 E8.13439
G1 X150.829 Y125.421 E8.15198
G1 X150.098 Y125.72 E8.19138
G1 X149.524 Y125.898 E8.22136
G1 X149.191 Y125.987 E8.23856
G1 X148.419 Y126.152 E8.27794
G1 X147.291 Y126.25 E8.33443
G1 X145.244 Y126.28 E8.43657
G1 X144.771 Y126.273 E8.46017
G1 X144.12 Y126.243 E8.49268
G1 X143.334 Y126.166 E8.53208
G1 X142.465 Y125.987 E8.57635
G1 X142.132 Y125.898 E8.59355
G1 X141.38 Y125.655 E8.63297
G1 X140.827 Y125.421 E8.66293
G1 X140.508 Y125.271 E8.68052
G1 X139.811 Y124.899 E8.71993
G1 X139.216 Y124.503 E8.75559
G1 X138.894 Y124.267 E8.77551
G1 X138.282 Y123.769 E8.81487
G1 X137.99 Y123.491 E8.83499
G1 X137.78 Y123.281 E8.8498
G1 X137.25 Y122.695 E8.88922
G1 X136.904 Y122.237 E8.91786
G1 X136.706 Y121.954 E8.93509
G1 X136.287 Y121.285 E8.97447
G1 X136.285 Y121.281 E8.9747
G1 X118.361 Y121.281 E9.86893
G1 X118.247 Y121.495 E9.88103
G1 X117.853 Y122.088 E9.91655
G1 X117.615 Y122.413 E9.93664
G1 X116.851 Y123.307 E9.99531
G1 X116.642 Y123.517 E10.01009
G1 X116.057 Y124.048 E10.04951
G1 X115.559 Y124.424 E10.08064
G1 X115.275 Y124.621 E10.09789
G1 X114.604 Y125.038 E10.1373
G1 X114.148 Y125.271 E10.16285
G1 X113.829 Y125.421 E10.18043
G1 X113.098 Y125.72 E10.21984
G1 X112.524 Y125.898 E10.24982
G1 X112.191 Y125.987 E10.26702
G1 X111.419 Y126.152 E10.3064
G1 X110.291 Y126.25 E10.36289
G1 X108.244 Y126.28 E10.46503
G1 X107.771 Y126.273 E10.48863
G1 X107.12 Y126.243 E10.52114
G1 X106.57 Y126.189 E10.54871
G1 X106.443 Y126.325 E10.55799
G1 X106.193 Y126.574 E10.5756
G1 X105.606 Y127.103 E10.61502
G1 X105.16 Y127.439 E10.64288
G1 X104.877 Y127.637 E10.66011
G1 X104.208 Y128.056 E10.69949
G1 X103.68 Y128.325 E10.72906
G1 X103.36 Y128.473 E10.74665
G1 X102.628 Y128.768 E10.78602
G1 X102.063 Y128.939 E10.81547
G1 X101.731 Y129.026 E10.83259
G1 X100.958 Y129.187 E10.87199
G1 X100.428 Y129.252 E10.89863
G1 X100.082 Y129.282 E10.91595
G1 X99.408 Y129.311 E10.94961
G1 X97.431 Y129.311 E11.04824
G1 X96.785 Y129.284 E11.0805
G1 X96.412 Y129.253 E11.09917
G1 X95.629 Y129.148 E11.13859
G1 X95.055 Y129.018 E11.16795
G1 X94.72 Y128.929 E11.18524
G1 X93.968 Y128.688 E11.22464
G1 X93.414 Y128.454 E11.25464
G1 X93.096 Y128.305 E11.27216
G1 X92.398 Y127.934 E11.3116
G1 X91.929 Y127.63 E11.33948
G1 X91.645 Y127.431 E11.35679
G1 X91.022 Y126.946 E11.39618
G1 X90.573 Y126.525 E11.42688
G1 X90.325 Y126.274 E11.44449
G1 X89.799 Y125.685 E11.48388
G1 X89.464 Y125.238 E11.51175
G1 X89.267 Y124.954 E11.529
G1 X88.867 Y124.311 E11.56678
G1 X70.943 Y124.311 E12.46101
G1 X70.83 Y124.524 E12.47304
G1 X70.518 Y125.003 E12.50156
G1 X70.319 Y125.286 E12.51882
G1 X69.833 Y125.908 E12.5582
G1 X69.443 Y126.325 E12.58668
G1 X69.193 Y126.574 E12.60429
G1 X68.606 Y127.103 E12.64371
G1 X68.16 Y127.439 E12.67157
G1 X67.877 Y127.637 E12.6888
G1 X67.208 Y128.056 E12.72818
G1 X66.68 Y128.325 E12.75775
G1 X66.36 Y128.473 E12.77534
G1 X65.628 Y128.768 E12.81471
G1 X65.063 Y128.939 E12.84416
G1 X64.731 Y129.026 E12.86128
G1 X63.958 Y129.187 E12.90068
G1 X63.428 Y129.252 E12.92732
G1 X63.082 Y129.282 E12.94464
G1 X62.408 Y129.311 E12.9783
G1 X60.431 Y129.311 E13.07693
G1 X59.785 Y129.284 E13.10919
G1 X59.412 Y129.253 E13.12786
G1 X58.629 Y129.148 E13.16728
G1 X58.044 Y129.016 E13.1972
G1 X57.711 Y128.927 E13.21439
G1 X56.959 Y128.684 E13.25382
G1 X56.406 Y128.45 E13.28378
G1 X56.087 Y128.3 E13.30137
G1 X55.39 Y127.928 E13.34078
G1 X54.941 Y127.636 E13.3675
G1 X54.656 Y127.437 E13.38484
G1 X54.032 Y126.953 E13.42424
G1 X53.583 Y126.535 E13.45485
G1 X53.335 Y126.285 E13.47242
G1 X52.808 Y125.697 E13.51181
G1 X52.475 Y125.253 E13.5395
G1 X52.277 Y124.969 E13.55677
G1 X51.858 Y124.299 E13.5962
G1 X51.6 Y123.792 E13.62458
G1 X51.451 Y123.471 E13.64223
G1 X51.155 Y122.739 E13.68163
G1 X50.984 Y122.175 E13.71103
G1 X50.897 Y121.845 E13.72805
G1 X50.734 Y121.073 E13.76742
G1 X50.645 Y120.173 E13.81254
G1 X50.615 Y119.433 E13.84949
G1 X50.609 Y119.117 E13.86526
G1 X50.609 Y83.564 E15.639
G1 X50.632 Y82.966 E15.66886
G1 X50.663 Y82.563 E15.68902
G1 X50.763 Y81.779 E15.72846
G1 X50.903 Y81.153 E15.76046
G1 X50.992 Y80.819 E15.7777
G1 X51.234 Y80.067 E15.81712
G1 X51.479 Y79.49 E15.84839
G1 X51.63 Y79.171 E15.866
G1 X52.004 Y78.475 E15.90542
G1 X52.292 Y78.032 E15.93178
G1 X52.491 Y77.748 E15.94908
G1 X52.976 Y77.125 E15.98847
G1 X53.364 Y76.709 E16.01685
G1 X53.613 Y76.46 E16.03442
G1 X54.199 Y75.93 E16.07384
G1 X54.667 Y75.577 E16.10308
G0 F3600 X54.896 Y75.905
G1 F1800 X55.18 Y75.707 E16.12035
G1 X55.833 Y75.3 E16.15874
G1 X56.306 Y75.061 E16.18518
G1 X56.626 Y74.913 E16.20277
G1 X57.34 Y74.626 E16.24116
G1 X57.851 Y74.472 E16.26779
G1 X58.182 Y74.385 E16.28486
G1 X58.935 Y74.228 E16.32324
G1 X59.405 Y74.171 E16.34686
G1 X59.752 Y74.14 E16.36424
G1 X60.41 Y74.111 E16.3971
G1 X62.387 Y74.111 E16.49573
G1 X63.155 Y74.151 E16.5341
G1 X63.65 Y74.22 E16.55904
G1 X64.36 Y74.343 E16.59499
G1 X65.11 Y74.513 E16.63335
G1 X65.838 Y74.761 E16.67172
G1 X66.218 Y74.924 E16.69235
G1 X66.534 Y75.071 E16.70974
G1 X67.214 Y75.432 E16.74815
G1 X67.67 Y75.728 E16.77527
G1 X67.953 Y75.927 E16.79253
G1 X68.558 Y76.401 E16.83087
G1 X68.949 Y76.768 E16.85763
G1 X69.198 Y77.019 E16.87527
G1 X69.711 Y77.593 E16.91368
G1 X70.018 Y78.003 E16.93923
G1 X70.215 Y78.286 E16.95643
G1 X70.621 Y78.939 E16.99479
G1 X70.709 Y79.111 E17.00443
G1 X89.116 Y79.111 E17.92276
G1 X89.356 Y78.665 E17.94803
G1 X89.62 Y78.262 E17.97207
G1 X89.819 Y77.978 E17.98937
G1 X90.292 Y77.371 E18.02776
G1 X90.646 Y76.991 E18.05367
G1 X90.895 Y76.742 E18.07124
G1 X91.467 Y76.228 E18.1096
G1 X91.896 Y75.905 E18.13639
G1 X92.18 Y75.707 E18.15367
G1 X92.833 Y75.3 E18.19205
G1 X93.306 Y75.061 E18.21849
G1 X93.626 Y74.913 E18.23608
G1 X94.34 Y74.626 E18.27448
G1 X94.851 Y74.472 E18.3011
G1 X95.182 Y74.385 E18.31818
G1 X95.935 Y74.228 E18.35655
G1 X96.405 Y74.171 E18.38017
G1 X96.752 Y74.14 E18.39755
G1 X97.41 Y74.111 E18.43041
G1 X99.387 Y74.111 E18.52905
G1 X100.021 Y74.138 E18.5607
G1 X100.393 Y74.17 E18.57933
G1 X100.838 Y74.232 E18.60175
G1 X101.101 Y73.925 E18.62192
G1 X101.311 Y73.715 E18.63673
G1 X101.883 Y73.201 E18.6751
G1 X102.292 Y72.892 E18.70067
G1 X102.574 Y72.694 E18.71786
G1 X103.225 Y72.285 E18.75622
G1 X103.686 Y72.049 E18.78206
G1 X104.004 Y71.9 E18.79958
G1 X104.717 Y71.61 E18.83798
G1 X105.249 Y71.448 E18.86572
G1 X105.585 Y71.359 E18.88307
G1 X106.338 Y71.201 E18.92145
G1 X106.825 Y71.141 E18.94593
G1 X107.174 Y71.11 E18.96341
G1 X107.829 Y71.081 E18.99612
G1 X109.526 Y71.081 E19.08078
G1 X110.433 Y71.137 E19.12612
G1 X111.421 Y71.259 E19.17579
G1 X112.178 Y71.393 E19.21414
G1 X112.918 Y71.604 E19.25253
G1 X113.633 Y71.892 E19.29099
G1 X113.945 Y72.037 E19.30815
G1 X114.624 Y72.397 E19.34649
G1 X115.201 Y72.78 E19.38105
G1 X115.527 Y73.019 E19.40121
G1 X116.397 Y73.767 E19.45845
G1 X116.606 Y73.977 E19.47324
G1 X117.12 Y74.55 E19.51164
G1 X117.424 Y74.955 E19.5369
G1 X117.622 Y75.238 E19.55413
G1 X118.03 Y75.89 E19.59251
G1 X118.128 Y76.081 E19.60322
G1 X136.534 Y76.081 E20.5215
G1 X136.75 Y75.674 E20.54448
G1 X137.133 Y75.099 E20.57895
G1 X137.372 Y74.774 E20.59908
G1 X138.101 Y73.925 E20.65491
G1 X138.311 Y73.715 E20.66972
G1 X138.883 Y73.201 E20.70809
G1 X139.292 Y72.892 E20.73366
G1 X139.574 Y72.694 E20.75086
G1 X140.225 Y72.285 E20.78921
G1 X140.686 Y72.049 E20.81505
G1 X141.004 Y71.9 E20.83257
G1 X141.717 Y71.61 E20.87097
G1 X142.249 Y71.448 E20.89872
G1 X142.585 Y71.359 E20.91606
G1 X143.338 Y71.201 E20.95444
G1 X143.825 Y71.141 E20.97892
G1 X144.174 Y71.11 E20.9964
G1 X144.829 Y71.081 E21.02911
G1 X146.527 Y71.081 E21.11383
G1 X146.88 Y71.089 E21.13144
G1 X147.529 Y71.12 E21.16386
G1 X148.294 Y71.197 E21.20222
G1 X149.071 Y71.359 E21.24182
G1 X149.407 Y71.448 E21.25916
G1 X150.139 Y71.683 E21.29751
G1 X150.65 Y71.899 E21.32519
G1 X150.964 Y72.046 E21.34249
G1 X151.642 Y72.408 E21.38083
G1 X152.201 Y72.78 E21.41433
G1 X152.527 Y73.019 E21.4345
G1 X153.397 Y73.767 E21.49174
G1 X153.606 Y73.977 E21.50652
G1 X154.12 Y74.55 E21.54492
G1 X154.424 Y74.955 E21.57019
G1 X154.622 Y75.238 E21.58742
G1 X155.03 Y75.89 E21.62579
G1 X155.256 Y76.331 E21.65052
G1 X155.406 Y76.65 E21.6681
G1 X155.696 Y77.362 E21.70646
G1 X155.859 Y77.894 E21.73422
G1 X155.948 Y78.228 E21.75146
G1 X156.108 Y78.98 E21.78982
G1 X156.17 Y79.496 E21.81575
G1 X156.2 Y79.843 E21.83312
G1 X156.228 Y80.48 E21.86493
G1 X156.228 Y116.48 E23.66098
G1 X156.201 Y117.112 E23.69254
G1 X156.171 Y117.462 E23.71007
G1 X156.066 Y118.224 E23.74844
G1 X155.947 Y118.741 E23.77491
G1 X155.858 Y119.074 E23.79211
G1 X155.621 Y119.805 E23.83045
G1 X155.406 Y120.311 E23.85787
G1 X155.257 Y120.628 E23.87535
G1 X154.894 Y121.306 E23.91372
G1 X154.53 Y121.852 E23.94646
G1 X154.292 Y122.177 E23.96655
G1 X153.567 Y123.025 E24.02221
G1 X153.358 Y123.235 E24.037
G1 X152.788 Y123.751 E24.07535
G1 X152.331 Y124.095 E24.10389
G1 X152.047 Y124.292 E24.12114
G1 X151.393 Y124.697 E24.15951
G1 X150.978 Y124.909 E24.18276
G1 X150.659 Y125.059 E24.20035
G1 X149.947 Y125.349 E24.23871
G1 X149.421 Y125.511 E24.26616
G1 X149.088 Y125.6 E24.28336
G1 X148.335 Y125.76 E24.32177
G1 X147.285 Y125.85 E24.37434
G1 X145.238 Y125.88 E24.47648
G1 X144.789 Y125.873 E24.49888
G1 X144.138 Y125.843 E24.5314
G1 X143.373 Y125.768 E24.56974
G1 X142.568 Y125.6 E24.61077
G1 X142.235 Y125.511 E24.62797
G1 X141.504 Y125.274 E24.66631
G1 X140.997 Y125.059 E24.69378
G1 X140.678 Y124.909 E24.71137
G1 X140 Y124.546 E24.74974
G1 X139.453 Y124.181 E24.78254
G1 X139.131 Y123.945 E24.80246
G1 X138.272 Y123.209 E24.8589
G1 X138.062 Y122.999 E24.87371
G1 X137.548 Y122.427 E24.91208
G1 X137.232 Y122.008 E24.93826
G1 X137.034 Y121.725 E24.95549
G1 X136.626 Y121.073 E24.99387
G1 X136.528 Y120.881 E25.00462
G1 X118.122 Y120.881 E25.9229
G1 X117.894 Y121.306 E25.94696
G1 X117.53 Y121.852 E25.9797
G1 X117.292 Y122.177 E25.9998
G1 X116.567 Y123.025 E26.05546
G1 X116.358 Y123.235 E26.07024
G1 X115.788 Y123.751 E26.1086
G1 X115.331 Y124.095 E26.13714
G1 X115.047 Y124.292 E26.15438
G1 X114.393 Y124.697 E26.19276
G1 X113.978 Y124.909 E26.21601
G1 X113.659 Y125.059 E26.23359
G1 X112.947 Y125.349 E26.27195
G1 X112.421 Y125.511 E26.29941
G1 X112.088 Y125.6 E26.3166
G1 X111.335 Y125.76 E26.35501
G1 X110.285 Y125.85 E26.40759
G1 X108.238 Y125.88 E26.50972
G1 X107.789 Y125.873 E26.53213
G1 X107.138 Y125.843 E26.56464
G1 X106.414 Y125.772 E26.60093
G1 X106.161 Y126.042 E26.61939
G1 X105.911 Y126.291 E26.637
G1 X105.339 Y126.805 E26.67536
G1 X104.931 Y127.111 E26.70081
G1 X104.648 Y127.309 E26.71804
G1 X103.996 Y127.717 E26.75641
G1 X103.512 Y127.962 E26.78347
G1 X103.192 Y128.11 E26.80106
G1 X102.478 Y128.397 E26.83946
G1 X101.962 Y128.552 E26.86634
G1 X101.63 Y128.639 E26.88346
G1 X100.877 Y128.795 E26.92182
G1 X100.393 Y128.853 E26.94614
G1 X100.047 Y128.883 E26.96347
G1 X99.408 Y128.911 E26.99538
G1 X97.431 Y128.911 E27.09401
G1 X96.818 Y128.886 E27.12462
G1 X96.445 Y128.855 E27.14329
G1 X95.683 Y128.751 E27.18166
G1 X95.158 Y128.632 E27.20852
G1 X94.823 Y128.543 E27.22581
G1 X94.091 Y128.307 E27.26418
