;FLAVOR:Marlin
;TIME:1488
;Filament used: 0.918011m
;Layer height: 0.1
;MINX:70.7
;MINY:72.201
;MINZ:0.3
;MAXX:129.3
;MAXY:127.799
;MAXZ:4
;Generated with Cura_SteamEngine 4.1.0
M140 S60
M105
M190 S60
M104 S200
M105
M109 S200
M82 ;absolute extrusion mode
G21 ;metric values
 G90 ;absolute positioning
 M82 ;set extruder to absolute mode
 M107 ;start with the fan off
 G28 X0 Y0 ;move X/Y to min endstops
 G28 Z0 ;move Z to min endstops
 G1 Z15.0 F120 ;move the platform down 15mm
 G92 E0 ;zero the extruded length
 G1 F200 E6 ;extrude 6 mm of feed stock
 G92 E0 ;zero the extruded length again
 G1 F120 
 ;Put printing message on LCD screen
 M117 Printing...
G92 E0
G92 E0
G1 F1500 E-6.5
;LAYER_COUNT:38
;LAYER:0
M107
G0 F3600 X73.7 Y74.952 Z0.3
;TYPE:SKIRT
G1 F1500 E0
G1 F1800 X74.286 Y74.422 E0.03942
G1 X74.744 Y74.076 E0.06806
G1 X75.027 Y73.878 E0.08529
G1 X75.696 Y73.459 E0.12467
G1 X76.189 Y73.206 E0.15232
G1 X76.507 Y73.057 E0.16984
G1 X77.238 Y72.758 E0.20924
G1 X77.792 Y72.587 E0.23816
G1 X78.127 Y72.497 E0.25547
G1 X78.899 Y72.331 E0.29487
G1 X80.037 Y72.231 E0.35186
G1 X82.084 Y72.201 E0.454
G1 X82.557 Y72.208 E0.4776
G1 X83.208 Y72.238 E0.51011
G1 X83.994 Y72.315 E0.54951
G1 X84.873 Y72.497 E0.59429
G1 X85.208 Y72.587 E0.6116
G1 X85.959 Y72.83 E0.65098
G1 X86.491 Y73.056 E0.67982
G1 X86.805 Y73.203 E0.69712
G1 X87.502 Y73.573 E0.73648
G1 X88.11 Y73.976 E0.77288
G1 X88.436 Y74.215 E0.79304
G1 X89.048 Y74.714 E0.83244
G1 X89.339 Y74.991 E0.85248
G1 X89.548 Y75.2 E0.86723
G1 X90.078 Y75.786 E0.90665
G1 X90.424 Y76.244 E0.93529
G1 X90.622 Y76.527 E0.95252
G1 X91.041 Y77.196 E0.9919
G1 X91.043 Y77.2 E0.99212
G1 X108.966 Y77.2 E1.8863
G1 X109.069 Y77.006 E1.89726
G1 X109.476 Y76.39 E1.9341
G1 X109.715 Y76.064 E1.95426
G1 X110.214 Y75.452 E1.99366
G1 X110.491 Y75.161 E2.0137
G1 X110.7 Y74.952 E2.02845
G1 X111.286 Y74.422 E2.06787
G1 X111.744 Y74.076 E2.09651
G1 X112.027 Y73.878 E2.11374
G1 X112.696 Y73.459 E2.15312
G1 X113.189 Y73.206 E2.18077
G1 X113.507 Y73.057 E2.19829
G1 X114.238 Y72.758 E2.23769
G1 X114.792 Y72.587 E2.26661
G1 X115.127 Y72.497 E2.28392
G1 X115.899 Y72.331 E2.32332
G1 X117.037 Y72.231 E2.38031
G1 X119.084 Y72.201 E2.48245
G1 X120.154 Y72.259 E2.53591
G1 X121.142 Y72.381 E2.58557
G1 X121.92 Y72.517 E2.62498
G1 X122.68 Y72.731 E2.66437
G1 X123.473 Y73.049 E2.70699
G1 X123.785 Y73.194 E2.72416
G1 X124.484 Y73.562 E2.76357
G1 X125.11 Y73.976 E2.80101
G1 X125.436 Y74.215 E2.82118
G1 X126.048 Y74.714 E2.86057
G1 X126.339 Y74.991 E2.88062
G1 X126.548 Y75.2 E2.89536
G1 X127.078 Y75.786 E2.93478
G1 X127.424 Y76.244 E2.96342
G1 X127.622 Y76.527 E2.98065
G1 X128.041 Y77.196 E3.02003
G1 X128.295 Y77.69 E3.04775
G1 X128.443 Y78.006 E3.06516
G1 X128.741 Y78.737 E3.10454
G1 X128.911 Y79.286 E3.13321
G1 X129.002 Y79.624 E3.15068
G1 X129.168 Y80.396 E3.19007
G1 X129.241 Y80.98 E3.21943
G1 X129.271 Y81.327 E3.23681
G1 X129.3 Y81.999 E3.27037
G1 X129.3 Y117.999 E5.06641
G1 X129.271 Y118.667 E5.09977
G1 X129.241 Y119.016 E5.11725
G1 X129.134 Y119.798 E5.15663
G1 X129.003 Y120.372 E5.186
G1 X128.913 Y120.707 E5.20331
G1 X128.67 Y121.458 E5.24269
G1 X128.448 Y121.982 E5.27108
G1 X128.301 Y122.297 E5.28842
G1 X127.931 Y122.994 E5.32779
G1 X127.524 Y123.61 E5.36462
G1 X127.285 Y123.936 E5.38479
G1 X126.786 Y124.548 E5.42419
G1 X126.509 Y124.839 E5.44423
G1 X126.3 Y125.048 E5.45898
G1 X125.714 Y125.578 E5.4984
G1 X125.256 Y125.924 E5.52703
G1 X124.973 Y126.122 E5.54426
G1 X124.304 Y126.541 E5.58365
G1 X123.811 Y126.794 E5.61129
G1 X123.493 Y126.943 E5.62881
G1 X122.762 Y127.242 E5.66821
G1 X122.208 Y127.413 E5.69714
G1 X121.873 Y127.503 E5.71445
G1 X121.101 Y127.669 E5.75384
G1 X119.963 Y127.769 E5.81084
G1 X117.916 Y127.799 E5.91297
G1 X117.443 Y127.792 E5.93657
G1 X116.792 Y127.762 E5.96909
G1 X116.006 Y127.685 E6.00849
G1 X115.127 Y127.503 E6.05327
G1 X114.792 Y127.413 E6.07058
G1 X114.041 Y127.17 E6.10996
G1 X113.509 Y126.944 E6.13879
G1 X113.195 Y126.797 E6.15609
G1 X112.498 Y126.427 E6.19546
G1 X111.89 Y126.024 E6.23185
G1 X111.564 Y125.785 E6.25202
G1 X110.952 Y125.286 E6.29141
G1 X110.661 Y125.009 E6.31146
G1 X110.452 Y124.8 E6.3262
G1 X109.922 Y124.214 E6.36562
G1 X109.576 Y123.756 E6.39426
G1 X109.378 Y123.473 E6.41149
G1 X108.959 Y122.804 E6.45088
G1 X108.957 Y122.8 E6.4511
G1 X91.034 Y122.8 E7.34528
G1 X90.931 Y122.994 E7.35624
G1 X90.524 Y123.61 E7.39307
G1 X90.285 Y123.936 E7.41324
G1 X89.786 Y124.548 E7.45264
G1 X89.509 Y124.839 E7.47268
G1 X89.3 Y125.048 E7.48743
G1 X88.714 Y125.578 E7.52685
G1 X88.256 Y125.924 E7.55548
G1 X87.973 Y126.122 E7.57271
G1 X87.304 Y126.541 E7.6121
G1 X86.811 Y126.794 E7.63974
G1 X86.493 Y126.943 E7.65726
G1 X85.762 Y127.242 E7.69666
G1 X85.208 Y127.413 E7.72559
G1 X84.873 Y127.503 E7.7429
G1 X84.101 Y127.669 E7.78229
G1 X82.963 Y127.769 E7.83929
G1 X80.916 Y127.799 E7.94142
G1 X80.443 Y127.792 E7.96502
G1 X79.792 Y127.762 E7.99754
G1 X79.006 Y127.685 E8.03694
G1 X78.127 Y127.503 E8.08172
G1 X77.792 Y127.413 E8.09903
G1 X77.041 Y127.17 E8.13841
G1 X76.509 Y126.944 E8.16724
G1 X76.195 Y126.797 E8.18454
G1 X75.498 Y126.427 E8.22391
G1 X74.89 Y126.024 E8.2603
G1 X74.564 Y125.785 E8.28047
G1 X73.952 Y125.286 E8.31986
G1 X73.661 Y125.009 E8.33991
G1 X73.452 Y124.8 E8.35465
G1 X72.922 Y124.214 E8.39407
G1 X72.576 Y123.756 E8.42271
G1 X72.378 Y123.473 E8.43994
G1 X71.959 Y122.804 E8.47932
G1 X71.702 Y122.303 E8.50742
G1 X71.553 Y121.984 E8.52498
G1 X71.255 Y121.252 E8.56441
G1 X71.087 Y120.707 E8.59286
G1 X70.997 Y120.372 E8.61017
G1 X70.831 Y119.6 E8.64957
G1 X70.759 Y119.02 E8.67872
G1 X70.729 Y118.673 E8.6961
G1 X70.7 Y118.001 E8.72966
G1 X70.7 Y82.001 E10.52571
G1 X70.729 Y81.333 E10.55906
G1 X70.759 Y80.984 E10.57654
G1 X70.866 Y80.202 E10.61592
G1 X70.997 Y79.628 E10.64529
G1 X71.087 Y79.293 E10.6626
G1 X71.33 Y78.542 E10.70198
G1 X71.552 Y78.018 E10.73037
G1 X71.699 Y77.703 E10.74771
G1 X72.069 Y77.006 E10.78708
G1 X72.476 Y76.39 E10.82391
G1 X72.715 Y76.064 E10.84408
G1 X73.214 Y75.452 E10.88348
G1 X73.491 Y75.161 E10.90352
G1 X73.7 Y74.952 E10.91827
G0 F3600 X73.982 Y75.234
G1 F1800 X74.554 Y74.72 E10.95663
G1 X74.973 Y74.404 E10.98282
G1 X75.256 Y74.206 E11.00005
G1 X75.908 Y73.798 E11.03842
G1 X76.358 Y73.568 E11.06363
G1 X76.676 Y73.419 E11.08115
G1 X77.389 Y73.129 E11.11955
G1 X77.896 Y72.973 E11.14602
G1 X78.231 Y72.883 E11.16332
G1 X78.983 Y72.723 E11.20168
G1 X80.043 Y72.631 E11.25476
G1 X82.09 Y72.601 E11.3569
G1 X82.539 Y72.608 E11.3793
G1 X83.19 Y72.638 E11.41182
G1 X83.955 Y72.713 E11.45017
G1 X84.769 Y72.883 E11.49165
G1 X85.104 Y72.973 E11.50896
G1 X85.835 Y73.211 E11.54731
G1 X86.322 Y73.418 E11.57371
G1 X86.636 Y73.565 E11.59101
G1 X87.314 Y73.927 E11.62936
G1 X87.873 Y74.299 E11.66285
G1 X88.199 Y74.538 E11.68302
G1 X89.057 Y75.273 E11.73939
G1 X89.266 Y75.482 E11.75413
G1 X89.78 Y76.054 E11.7925
G1 X90.096 Y76.473 E11.81868
G1 X90.294 Y76.756 E11.83591
G1 X90.702 Y77.408 E11.87428
G1 X90.8 Y77.6 E11.88504
G1 X109.206 Y77.6 E12.80332
G1 X109.422 Y77.193 E12.82631
G1 X109.799 Y76.627 E12.86023
G1 X110.038 Y76.301 E12.8804
G1 X110.773 Y75.443 E12.93677
G1 X110.982 Y75.234 E12.95151
G1 X111.554 Y74.72 E12.98988
G1 X111.973 Y74.404 E13.01606
G1 X112.256 Y74.206 E13.03329
G1 X112.908 Y73.798 E13.07166
G1 X113.358 Y73.568 E13.09688
G1 X113.676 Y73.419 E13.1144
G1 X114.389 Y73.129 E13.1528
G1 X114.896 Y72.973 E13.17926
G1 X115.231 Y72.883 E13.19657
G1 X115.983 Y72.723 E13.23493
G1 X117.043 Y72.631 E13.28801
G1 X119.09 Y72.601 E13.39015
G1 X120.105 Y72.656 E13.44086
G1 X121.093 Y72.778 E13.49052
G1 X121.85 Y72.912 E13.52888
G1 X122.59 Y73.123 E13.56727
G1 X123.305 Y73.411 E13.60573
G1 X123.617 Y73.556 E13.62289
G1 X124.296 Y73.916 E13.66123
G1 X124.873 Y74.299 E13.69578
G1 X125.199 Y74.538 E13.71595
G1 X126.057 Y75.273 E13.77231
G1 X126.266 Y75.482 E13.78706
G1 X126.78 Y76.054 E13.82543
G1 X127.096 Y76.473 E13.85161
G1 X127.294 Y76.756 E13.86884
G1 X127.702 Y77.408 E13.90721
G1 X127.932 Y77.859 E13.93247
G1 X128.08 Y78.175 E13.94988
G1 X128.37 Y78.888 E13.98828
G1 X128.525 Y79.39 E14.01449
G1 X128.616 Y79.728 E14.03196
G1 X128.777 Y80.48 E14.07032
G1 X128.842 Y81.015 E14.09721
G1 X128.872 Y81.362 E14.11459
G1 X128.9 Y81.999 E14.1464
G1 X128.9 Y117.999 E15.94245
G1 X128.873 Y118.633 E15.9741
G1 X128.843 Y118.982 E15.99158
G1 X128.737 Y119.744 E16.02996
G1 X128.617 Y120.268 E16.05678
G1 X128.527 Y120.603 E16.07409
G1 X128.289 Y121.334 E16.11244
G1 X128.086 Y121.812 E16.13835
G1 X127.939 Y122.127 E16.15569
G1 X127.578 Y122.807 E16.1941
G1 X127.201 Y123.373 E16.22803
G1 X126.962 Y123.699 E16.2482
G1 X126.227 Y124.557 E16.30456
G1 X126.018 Y124.766 E16.31931
G1 X125.446 Y125.28 E16.35768
G1 X125.027 Y125.596 E16.38386
G1 X124.744 Y125.794 E16.40109
G1 X124.092 Y126.202 E16.43946
G1 X123.642 Y126.432 E16.46467
G1 X123.324 Y126.581 E16.48219
G1 X122.611 Y126.871 E16.5206
G1 X122.104 Y127.027 E16.54706
G1 X121.769 Y127.117 E16.56437
G1 X121.017 Y127.277 E16.60272
G1 X119.957 Y127.369 E16.65581
G1 X117.91 Y127.399 E16.75794
G1 X117.461 Y127.392 E16.78035
G1 X116.81 Y127.362 E16.81286
G1 X116.045 Y127.287 E16.85121
G1 X115.231 Y127.117 E16.89269
G1 X114.896 Y127.027 E16.91
G1 X114.165 Y126.789 E16.94835
G1 X113.678 Y126.582 E16.97475
G1 X113.364 Y126.435 E16.99205
G1 X112.686 Y126.073 E17.0304
G1 X112.127 Y125.701 E17.0639
G1 X111.801 Y125.462 E17.08406
G1 X110.943 Y124.727 E17.14043
G1 X110.734 Y124.518 E17.15517
G1 X110.22 Y123.946 E17.19354
G1 X109.904 Y123.527 E17.21972
G1 X109.706 Y123.244 E17.23695
G1 X109.298 Y122.592 E17.27533
G1 X109.2 Y122.4 E17.28608
G1 X90.794 Y122.4 E18.20436
G1 X90.578 Y122.807 E18.22735
G1 X90.201 Y123.373 E18.26128
G1 X89.962 Y123.699 E18.28144
G1 X89.227 Y124.557 E18.33781
G1 X89.018 Y124.766 E18.35255
G1 X88.446 Y125.28 E18.39092
G1 X88.027 Y125.596 E18.4171
G1 X87.744 Y125.794 E18.43433
G1 X87.092 Y126.202 E18.47271
G1 X86.642 Y126.432 E18.49792
G1 X86.324 Y126.581 E18.51544
G1 X85.611 Y126.871 E18.55384
G1 X85.104 Y127.027 E18.58031
G1 X84.769 Y127.117 E18.59761
G1 X84.017 Y127.277 E18.63597
G1 X82.957 Y127.369 E18.68905
G1 X80.91 Y127.399 E18.79119
G1 X80.461 Y127.392 E18.81359
G1 X79.81 Y127.362 E18.8461
G1 X79.045 Y127.287 E18.88445
G1 X78.231 Y127.117 E18.92594
G1 X77.896 Y127.027 E18.94325
G1 X77.165 Y126.789 E18.9816
G1 X76.678 Y126.582 E19.008
G1 X76.364 Y126.435 E19.0253
G1 X75.686 Y126.073 E19.06364
G1 X75.127 Y125.701 E19.09714
G1 X74.801 Y125.462 E19.11731
G1 X73.943 Y124.727 E19.17367
G1 X73.734 Y124.518 E19.18842
G1 X73.22 Y123.946 E19.22679
G1 X72.904 Y123.527 E19.25297
G1 X72.706 Y123.244 E19.2702
G1 X72.298 Y122.592 E19.30857
G1 X72.064 Y122.134 E19.33423
G1 X71.915 Y121.815 E19.3518
G1 X71.626 Y121.102 E19.39018
G1 X71.473 Y120.603 E19.41622
G1 X71.383 Y120.268 E19.43352
G1 X71.223 Y119.516 E19.47188
G1 X71.158 Y118.985 E19.49857
G1 X71.128 Y118.638 E19.51595
G1 X71.1 Y118.001 E19.54776
G1 X71.1 Y82.001 E21.34381
G1 X71.127 Y81.367 E21.37546
G1 X71.157 Y81.018 E21.39294
G1 X71.263 Y80.256 E21.43132
G1 X71.383 Y79.732 E21.45814
G1 X71.473 Y79.397 E21.47545
G1 X71.711 Y78.666 E21.5138
G1 X71.914 Y78.188 E21.53971
G1 X72.061 Y77.873 E21.55705
G1 X72.422 Y77.193 E21.59546
G1 X72.799 Y76.627 E21.62939
G1 X73.038 Y76.301 E21.64956
G1 X73.773 Y75.443 E21.70592
G1 X73.982 Y75.234 E21.72067
G0 F3600 X74.265 Y75.517
G1 F1800 X74.822 Y75.017 E21.75801
G1 X75.202 Y74.731 E21.78174
G1 X75.485 Y74.533 E21.79897
G1 X76.12 Y74.138 E21.83628
G1 X76.528 Y73.93 E21.85913
G1 X76.846 Y73.781 E21.87665
G1 X77.539 Y73.501 E21.91394
G1 X78 Y73.36 E21.93799
G1 X78.335 Y73.27 E21.95529
G1 X79.067 Y73.115 E21.99262
G1 X80.048 Y73.031 E22.04175
G1 X82.095 Y73.001 E22.14388
G1 X82.52 Y73.007 E22.16509
G1 X83.171 Y73.037 E22.1976
G1 X83.916 Y73.112 E22.23496
G1 X84.665 Y73.27 E22.27315
G1 X85 Y73.36 E22.29045
G1 X85.711 Y73.592 E22.32776
G1 X86.152 Y73.78 E22.35168
G1 X86.466 Y73.927 E22.36898
G1 X87.126 Y74.28 E22.40632
G1 X87.637 Y74.622 E22.437
G1 X87.963 Y74.861 E22.45716
G1 X88.774 Y75.556 E22.51045
G1 X88.983 Y75.765 E22.5252
G1 X89.483 Y76.322 E22.56254
G1 X89.769 Y76.702 E22.58627
G1 X89.967 Y76.985 E22.6035
G1 X90.362 Y77.62 E22.64081
G1 X90.555 Y78 E22.66207
G1 X109.446 Y78 E23.60455
G1 X109.776 Y77.382 E23.6395
G1 X110.122 Y76.863 E23.67062
G1 X110.361 Y76.537 E23.69079
G1 X111.056 Y75.726 E23.74407
G1 X111.265 Y75.517 E23.75882
G1 X111.822 Y75.017 E23.79616
G1 X112.202 Y74.731 E23.81989
G1 X112.485 Y74.533 E23.83712
G1 X113.12 Y74.138 E23.87443
G1 X113.528 Y73.93 E23.89728
G1 X113.846 Y73.781 E23.9148
G1 X114.539 Y73.501 E23.95209
G1 X115 Y73.36 E23.97614
G1 X115.335 Y73.27 E23.99344
G1 X116.067 Y73.115 E24.03077
G1 X117.048 Y73.031 E24.07989
G1 X119.095 Y73.001 E24.18203
G1 X120.056 Y73.053 E24.23004
G1 X121.044 Y73.175 E24.27971
G1 X121.78 Y73.306 E24.31701
G1 X122.499 Y73.515 E24.35436
G1 X123.136 Y73.774 E24.38867
G1 X123.448 Y73.919 E24.40583
G1 X124.109 Y74.27 E24.44317
G1 X124.637 Y74.622 E24.47483
G1 X124.963 Y74.861 E24.495
G1 X125.774 Y75.556 E24.54828
G1 X125.983 Y75.765 E24.56303
G1 X126.483 Y76.322 E24.60037
G1 X126.769 Y76.702 E24.6241
G1 X126.967 Y76.985 E24.64133
G1 X127.362 Y77.62 E24.67864
G1 X127.57 Y78.029 E24.70153
G1 X127.718 Y78.345 E24.71894
G1 X127.999 Y79.038 E24.75625
G1 X128.138 Y79.494 E24.78003
G1 X128.229 Y79.832 E24.7975
G1 X128.385 Y80.564 E24.83484
G1 X128.444 Y81.049 E24.85921
G1 X128.474 Y81.396 E24.87659
G1 X128.5 Y81.999 E24.9067
G1 X128.5 Y117.999 E26.70275
G1 X128.474 Y118.599 E26.73271
G1 X128.444 Y118.948 E26.75019
G1 X128.34 Y119.688 E26.78747
G1 X128.23 Y120.164 E26.81184
G1 X128.14 Y120.499 E26.82915
G1 X127.908 Y121.21 E26.86646
G1 X127.723 Y121.643 E26.88995
G1 X127.576 Y121.958 E26.90729
G1 X127.224 Y122.618 E26.94461
G1 X126.878 Y123.137 E26.97573
G1 X126.639 Y123.463 E26.9959
G1 X125.944 Y124.274 E27.04918
G1 X125.735 Y124.483 E27.06393
G1 X125.178 Y124.983 E27.10127
G1 X124.798 Y125.269 E27.125
G1 X124.515 Y125.467 E27.14223
G1 X123.88 Y125.862 E27.17954
G1 X123.472 Y126.07 E27.20239
G1 X123.154 Y126.219 E27.21991
G1 X122.461 Y126.499 E27.2572
G1 X122 Y126.64 E27.28125
G1 X121.665 Y126.73 E27.29855
G1 X120.933 Y126.885 E27.33588
G1 X119.952 Y126.969 E27.38501
G1 X117.905 Y126.999 E27.48714
G1 X117.48 Y126.993 E27.50835
G1 X116.829 Y126.963 E27.54086
G1 X116.084 Y126.888 E27.57822
G1 X115.335 Y126.73 E27.61641
G1 X115 Y126.64 E27.63371
G1 X114.289 Y126.408 E27.67102
G1 X113.848 Y126.22 E27.69494
G1 X113.534 Y126.073 E27.71224
G1 X112.874 Y125.72 E27.74958
G1 X112.363 Y125.378 E27.78026
G1 X112.037 Y125.139 E27.80042
G1 X111.226 Y124.444 E27.85371
G1 X111.017 Y124.235 E27.86846
G1 X110.517 Y123.678 E27.9058
G1 X110.231 Y123.298 E27.92953
G1 X110.033 Y123.015 E27.94676
G1 X109.638 Y122.38 E27.98407
G1 X109.445 Y122 E28.00533
G1 X90.554 Y122 E28.94781
G1 X90.224 Y122.618 E28.98276
G1 X89.878 Y123.137 E29.01388
G1 X89.639 Y123.463 E29.03405
G1 X88.944 Y124.274 E29.08733
G1 X88.735 Y124.483 E29.10208
G1 X88.178 Y124.983 E29.13942
G1 X87.798 Y125.269 E29.16315
G1 X87.515 Y125.467 E29.18038
G1 X86.88 Y125.862 E29.21769
G1 X86.472 Y126.07 E29.24054
G1 X86.154 Y126.219 E29.25806
G1 X85.461 Y126.499 E29.29535
G1 X85 Y126.64 E29.3194
G1 X84.665 Y126.73 E29.3367
G1 X83.933 Y126.885 E29.37403
G1 X82.952 Y126.969 E29.42315
G1 X80.905 Y126.999 E29.52529
G1 X80.48 Y126.993 E29.5465
G1 X79.829 Y126.963 E29.57901
G1 X79.084 Y126.888 E29.61636
G1 X78.335 Y126.73 E29.65455
G1 X78 Y126.64 E29.67186
G1 X77.289 Y126.408 E29.70917
G1 X76.848 Y126.22 E29.73309
G1 X76.534 Y126.073 E29.75039
G1 X75.874 Y125.72 E29.78773
G1 X75.363 Y125.378 E29.81841
G1 X75.037 Y125.139 E29.83857
G1 X74.226 Y124.444 E29.89186
G1 X74.017 Y124.235 E29.9066
G1 X73.517 Y123.678 E29.94395
G1 X73.231 Y123.298 E29.96767
G1 X73.033 Y123.015 E29.98491
G1 X72.638 Y122.38 E30.02222
G1 X72.427 Y121.964 E30.04549
G1 X72.278 Y121.645 E30.06305
G1 X71.998 Y120.952 E30.10034
G1 X71.86 Y120.499 E30.12397
G1 X71.77 Y120.164 E30.14127
G1 X71.615 Y119.432 E30.1786
G1 X71.556 Y118.951 E30.20278
G1 X71.526 Y118.604 E30.22016
G1 X71.5 Y118.001 E30.25027
G1 X71.5 Y82.001 E32.04632
G1 X71.526 Y81.401 E32.07628
G1 X71.556 Y81.052 E32.09375
