;FLAVOR:Marlin
;TIME:2738
;Filament used: 1.42592m
;Layer height: 0.1
;MINX:57.4
;MINY:83.653
;MINZ:0.3
;MAXX:142.148
;MAXY:114.059
;MAXZ:15.9
;Generated with Cura_SteamEngine 4.1.0
M140 S60
M105
M190 S60
M104 S200
M105
M109 S200
M82 ;absolute extrusion mode
G21 ;metric values
 G90 ;absolute positioning
 M82 ;set extruder to absolute mode
 M107 ;start with the fan off
 G28 X0 Y0 ;move X/Y to min endstops
 G28 Z0 ;move Z to min endstops
 G1 Z15.0 F120 ;move the platform down 15mm
 G92 E0 ;zero the extruded length
 G1 F200 E6 ;extrude 6 mm of feed stock
 G92 E0 ;zero the extruded length again
 G1 F120 
 ;Put printing message on LCD screen
 M117 Printing...
G92 E0
G92 E0
G1 F1500 E-6.5
;LAYER_COUNT:157
;LAYER:0
M107
G0 F3600 X60.422 Y86.667 Z0.3
;TYPE:SKIRT
G1 F1500 E0
G1 F1800 X61.07 Y86.216 E0.03939
G1 X61.761 Y85.832 E0.07883
G1 X62.486 Y85.52 E0.11821
G1 X63.239 Y85.283 E0.15759
G1 X64.013 Y85.124 E0.19701
G1 X64.798 Y85.043 E0.23638
G1 X65.197 Y85.033 E0.2563
G1 X90.263 Y85.024 E1.50684
G1 X107.085 Y85.009 E2.3461
G1 X107.089 Y85.009 E2.3463
G1 X132.065 Y85 E3.59235
G1 X132.854 Y85.04 E3.63177
G1 X133.635 Y85.159 E3.67118
G1 X134.399 Y85.356 E3.71054
G1 X135.14 Y85.63 E3.74996
G1 X135.849 Y85.978 E3.78936
G1 X136.519 Y86.395 E3.82873
G1 X137.144 Y86.878 E3.86814
G1 X137.717 Y87.421 E3.90753
G1 X138.232 Y88.02 E3.94694
G1 X138.614 Y88.558 E3.97986
G1 X139.065 Y89.254 E4.02123
G1 X139.242 Y89.541 E4.03805
G1 X139.522 Y90.017 E4.06561
G1 X139.674 Y90.287 E4.08106
G1 X139.912 Y90.731 E4.1062
G1 X140.014 Y90.928 E4.11727
G1 X140.269 Y91.438 E4.14571
G1 X140.416 Y91.749 E4.16287
G1 X140.651 Y92.276 E4.19166
G1 X140.732 Y92.466 E4.20197
G1 X140.926 Y92.934 E4.22724
G1 X141.038 Y93.219 E4.24252
G1 X141.213 Y93.693 E4.26773
G1 X141.294 Y93.924 E4.27994
G1 X141.46 Y94.421 E4.30608
G1 X141.532 Y94.648 E4.31796
G1 X141.693 Y95.184 E4.34588
G1 X141.768 Y95.449 E4.35962
G1 X141.902 Y95.96 E4.38598
G1 X142.063 Y96.734 E4.42542
G1 X142.146 Y97.519 E4.4648
G1 X142.148 Y98.309 E4.50422
G1 X142.071 Y99.094 E4.54357
G1 X141.915 Y99.869 E4.58301
G1 X141.681 Y100.623 E4.6224
G1 X141.372 Y101.35 E4.66181
G1 X140.991 Y102.041 E4.70117
G1 X140.542 Y102.691 E4.74059
G1 X140.03 Y103.292 E4.77998
G1 X139.46 Y103.838 E4.81936
G1 X138.837 Y104.324 E4.85878
G1 X138.169 Y104.744 E4.89814
G1 X137.461 Y105.095 E4.93757
G1 X136.721 Y105.372 E4.97699
G1 X135.958 Y105.573 E5.01635
G1 X135.178 Y105.696 E5.05575
G1 X134.359 Y105.739 E5.09666
G1 X67.867 Y105.757 E8.41396
G1 X67.859 Y105.757 E8.41436
G1 X65.194 Y105.755 E8.54732
G1 X64.406 Y105.714 E8.58669
G1 X63.625 Y105.594 E8.62611
G1 X62.861 Y105.396 E8.66548
G1 X62.12 Y105.121 E8.70492
G1 X61.411 Y104.773 E8.74432
G1 X60.741 Y104.355 E8.78372
G1 X60.117 Y103.872 E8.82309
G1 X59.545 Y103.327 E8.8625
G1 X59.031 Y102.728 E8.90188
G1 X58.58 Y102.08 E8.94127
G1 X58.197 Y101.389 E8.98068
G1 X57.885 Y100.663 E9.02011
G1 X57.649 Y99.91 E9.05948
G1 X57.49 Y99.136 E9.0989
G1 X57.41 Y98.351 E9.13827
G1 X57.4 Y97.955 E9.15803
G1 X57.4 Y92.833 E9.41357
G1 X57.44 Y92.044 E9.45298
G1 X57.559 Y91.264 E9.49234
G1 X57.757 Y90.499 E9.53177
G1 X58.031 Y89.759 E9.57114
G1 X58.379 Y89.05 E9.61054
G1 X58.797 Y88.379 E9.64998
G1 X59.28 Y87.755 E9.68935
G1 X59.823 Y87.182 E9.72873
G1 X60.422 Y86.667 E9.76814
G0 F3600 X60.811 Y86.875
G1 F1800 X61.453 Y86.452 E9.8065
G1 X62.136 Y86.097 E9.8449
G1 X62.851 Y85.816 E9.88323
G1 X63.593 Y85.61 E9.92165
G1 X64.351 Y85.482 E9.96
G1 X65.197 Y85.433 E10.00228
G1 X90.263 Y85.424 E11.25283
G1 X107.085 Y85.409 E12.09208
G1 X107.089 Y85.409 E12.09228
G1 X132.065 Y85.4 E13.33834
G1 X132.833 Y85.44 E13.37671
G1 X133.593 Y85.559 E13.41508
G1 X134.337 Y85.756 E13.45348
G1 X135.056 Y86.03 E13.49187
G1 X135.742 Y86.377 E13.53022
G1 X136.389 Y86.793 E13.5686
G1 X136.989 Y87.274 E13.60696
G1 X137.536 Y87.814 E13.64531
G1 X138.024 Y88.409 E13.6837
G1 X138.278 Y88.776 E13.70597
G1 X138.729 Y89.472 E13.74735
G1 X138.897 Y89.744 E13.7633
G1 X139.177 Y90.22 E13.79085
G1 X139.321 Y90.476 E13.8055
G1 X139.559 Y90.92 E13.83064
G1 X139.656 Y91.107 E13.84115
G1 X139.911 Y91.617 E13.86959
G1 X140.05 Y91.912 E13.88586
G1 X140.285 Y92.439 E13.91465
G1 X140.363 Y92.619 E13.92444
G1 X140.557 Y93.087 E13.94971
G1 X140.663 Y93.358 E13.96423
G1 X140.838 Y93.832 E13.98944
G1 X140.915 Y94.051 E14.00102
G1 X141.081 Y94.548 E14.02716
G1 X141.149 Y94.763 E14.03841
G1 X141.31 Y95.299 E14.06633
G1 X141.381 Y95.551 E14.07939
G1 X141.515 Y96.062 E14.10575
G1 X141.671 Y96.815 E14.14412
G1 X141.748 Y97.58 E14.18247
G1 X141.746 Y98.35 E14.22089
G1 X141.663 Y99.114 E14.25923
G1 X141.502 Y99.866 E14.2976
G1 X141.263 Y100.597 E14.33597
G1 X140.95 Y101.3 E14.37436
G1 X140.565 Y101.966 E14.41274
G1 X140.114 Y102.589 E14.45111
G1 X139.6 Y103.161 E14.48948
G1 X139.03 Y103.677 E14.52784
G1 X138.409 Y104.131 E14.56621
G1 X137.744 Y104.518 E14.6046
G1 X137.043 Y104.834 E14.64296
G1 X136.313 Y105.076 E14.68133
G1 X135.561 Y105.24 E14.71973
G1 X134.797 Y105.326 E14.75809
G1 X134.359 Y105.339 E14.77995
G1 X67.867 Y105.357 E18.09725
G1 X67.859 Y105.357 E18.09765
G1 X65.194 Y105.355 E18.2306
G1 X64.426 Y105.314 E18.26897
G1 X63.667 Y105.194 E18.30731
G1 X62.923 Y104.996 E18.34572
G1 X62.205 Y104.722 E18.38406
G1 X61.519 Y104.374 E18.42244
G1 X60.872 Y103.958 E18.46081
G1 X60.273 Y103.476 E18.49917
G1 X59.726 Y102.935 E18.53756
G1 X59.239 Y102.34 E18.57592
G1 X58.816 Y101.697 E18.61431
G1 X58.462 Y101.014 E18.65269
G1 X58.181 Y100.298 E18.69107
G1 X57.975 Y99.557 E18.72944
G1 X57.848 Y98.798 E18.76783
G1 X57.8 Y97.955 E18.80996
G1 X57.8 Y92.833 E19.06549
G1 X57.84 Y92.065 E19.10386
G1 X57.959 Y91.305 E19.14224
G1 X58.157 Y90.562 E19.1806
G1 X58.431 Y89.843 E19.21899
G1 X58.778 Y89.157 E19.25734
G1 X59.194 Y88.51 E19.29572
G1 X59.675 Y87.91 E19.33409
G1 X60.216 Y87.363 E19.37247
G1 X60.811 Y86.875 E19.41086
G0 F3600 X61.198 Y87.09
G1 F1800 X61.834 Y86.695 E19.44821
G1 X62.508 Y86.371 E19.48552
G1 X63.213 Y86.121 E19.52284
G1 X63.941 Y85.947 E19.56018
G1 X64.683 Y85.852 E19.5975
G1 X65.197 Y85.833 E19.62316
G1 X90.264 Y85.824 E20.87376
G1 X107.086 Y85.809 E21.71302
G1 X107.089 Y85.809 E21.71317
G1 X132.065 Y85.8 E22.95922
G1 X132.812 Y85.84 E22.99654
G1 X133.551 Y85.959 E23.03389
G1 X134.273 Y86.156 E23.07123
G1 X134.969 Y86.429 E23.10853
G1 X135.632 Y86.775 E23.14584
G1 X136.255 Y87.19 E23.18318
G1 X136.83 Y87.669 E23.22052
G1 X137.35 Y88.206 E23.25781
G1 X137.942 Y88.993 E23.30694
G1 X138.393 Y89.689 E23.34832
G1 X138.553 Y89.947 E23.36347
G1 X138.833 Y90.423 E23.39102
G1 X138.969 Y90.665 E23.40487
G1 X139.207 Y91.109 E23.43
G1 X139.298 Y91.286 E23.43993
G1 X139.553 Y91.796 E23.46838
G1 X139.685 Y92.075 E23.48378
G1 X139.92 Y92.602 E23.51256
G1 X139.993 Y92.772 E23.52179
G1 X140.187 Y93.24 E23.54707
G1 X140.288 Y93.497 E23.56084
G1 X140.463 Y93.971 E23.58605
G1 X140.535 Y94.177 E23.59694
G1 X140.701 Y94.674 E23.62308
G1 X140.766 Y94.878 E23.63376
G1 X140.927 Y95.414 E23.66169
G1 X140.994 Y95.652 E23.67402
G1 X141.128 Y96.163 E23.70038
G1 X141.279 Y96.896 E23.73771
G1 X141.351 Y97.641 E23.77506
G1 X141.343 Y98.389 E23.81238
G1 X141.255 Y99.132 E23.8497
G1 X141.088 Y99.861 E23.88701
G1 X140.844 Y100.568 E23.92433
G1 X140.527 Y101.246 E23.96167
G1 X140.139 Y101.885 E23.99897
G1 X139.685 Y102.479 E24.03626
G1 X139.17 Y103.022 E24.0736
G1 X138.6 Y103.507 E24.11094
G1 X137.981 Y103.928 E24.14829
G1 X137.322 Y104.28 E24.18556
G1 X136.628 Y104.56 E24.2229
G1 X135.908 Y104.765 E24.26025
G1 X135.171 Y104.891 E24.29755
G1 X134.359 Y104.939 E24.33813
G1 X67.867 Y104.957 E27.65543
G1 X67.86 Y104.957 E27.65578
G1 X65.195 Y104.955 E27.78874
G1 X64.448 Y104.914 E27.82606
G1 X63.709 Y104.794 E27.86341
G1 X62.988 Y104.596 E27.90071
G1 X62.292 Y104.322 E27.93803
G1 X61.629 Y103.976 E27.97534
G1 X61.007 Y103.56 E28.01268
G1 X60.433 Y103.081 E28.04997
G1 X59.913 Y102.543 E28.0873
G1 X59.454 Y101.952 E28.12464
G1 X59.06 Y101.316 E28.16196
G1 X58.736 Y100.642 E28.19927
G1 X58.486 Y99.937 E28.23659
G1 X58.313 Y99.209 E28.27392
G1 X58.219 Y98.467 E28.31124
G1 X58.2 Y97.955 E28.3368
G1 X58.2 Y92.833 E28.59233
G1 X58.24 Y92.086 E28.62966
G1 X58.359 Y91.348 E28.66695
G1 X58.557 Y90.626 E28.7043
G1 X58.83 Y89.93 E28.7416
G1 X59.177 Y89.267 E28.77893
G1 X59.592 Y88.644 E28.81628
G1 X60.071 Y88.07 E28.85358
G1 X60.608 Y87.549 E28.89091
G1 X61.198 Y87.09 E28.9282
G0 F3600 X60.999 Y87.742
G1 F1800 X61.584 Y87.312 E28.96442
G1 X62.213 Y86.948 E29.00068
G1 X62.878 Y86.655 E29.03693
G1 X63.571 Y86.437 E29.07318
G1 X64.283 Y86.297 E29.10938
G1 X65.198 Y86.233 E29.15514
G1 X90.264 Y86.224 E30.40569
G1 X107.086 Y86.209 E31.24494
G1 X107.09 Y86.209 E31.24514
G1 X132.066 Y86.2 E32.4912
G1 X132.791 Y86.24 E32.52742
G1 X133.507 Y86.359 E32.56364
G1 X134.206 Y86.556 E32.59987
G1 X134.88 Y86.829 E32.63615
G1 X135.519 Y87.174 E32.67238
G1 X136.116 Y87.587 E32.70859
G1 X136.664 Y88.064 E32.74484
G1 X137.157 Y88.597 E32.78106
G1 X137.607 Y89.211 E32.81904
G1 X138.058 Y89.907 E32.86042
G1 X138.208 Y90.15 E32.87466
G1 X138.488 Y90.626 E32.90222
G1 X138.616 Y90.854 E32.91526
G1 X138.854 Y91.298 E32.94039
G1 X138.94 Y91.464 E32.94972
G1 X139.195 Y91.974 E32.97817
G1 X139.32 Y92.238 E32.99274
G1 X139.555 Y92.765 E33.02153
G1 X139.624 Y92.926 E33.03027
G1 X139.818 Y93.394 E33.05554
G1 X139.913 Y93.635 E33.06847
G1 X140.088 Y94.109 E33.09368
G1 X140.156 Y94.304 E33.10398
G1 X140.322 Y94.801 E33.13012
G1 X140.383 Y94.993 E33.14017
G1 X140.544 Y95.529 E33.16809
G1 X140.607 Y95.754 E33.17975
G1 X140.741 Y96.265 E33.20611
G1 X140.886 Y96.977 E33.24236
G1 X140.953 Y97.7 E33.27858
G1 X140.939 Y98.426 E33.31481
G1 X140.846 Y99.146 E33.35103
G1 X140.674 Y99.852 E33.38728
G1 X140.425 Y100.535 E33.42355
G1 X140.103 Y101.186 E33.45978
G1 X139.712 Y101.798 E33.49602
G1 X139.255 Y102.363 E33.53227
G1 X138.739 Y102.874 E33.5685
G1 X138.171 Y103.326 E33.60472
G1 X137.555 Y103.712 E33.64098
G1 X136.902 Y104.029 E33.6772
G1 X136.217 Y104.271 E33.71344
G1 X135.51 Y104.438 E33.74969
G1 X134.789 Y104.525 E33.78592
G1 X134.359 Y104.539 E33.80738
G1 X67.867 Y104.557 E37.12468
G1 X67.86 Y104.557 E37.12503
G1 X65.195 Y104.555 E37.25799
G1 X64.47 Y104.514 E37.29422
G1 X63.753 Y104.395 E37.33048
G1 X63.055 Y104.197 E37.36667
G1 X62.382 Y103.923 E37.40293
G1 X61.743 Y103.577 E37.43918
G1 X61.146 Y103.163 E37.47543
G1 X60.598 Y102.686 E37.51167
G1 X60.106 Y102.152 E37.5479
G1 X59.676 Y101.567 E37.58412
G1 X59.312 Y100.938 E37.62038
G1 X59.02 Y100.273 E37.65661
G1 X58.803 Y99.58 E37.69284
G1 X58.663 Y98.867 E37.72909
G1 X58.6 Y97.955 E37.7747
G1 X58.6 Y92.833 E38.03024
G1 X58.64 Y92.108 E38.06646
G1 X58.759 Y91.391 E38.10272
G1 X58.957 Y90.692 E38.13897
G1 X59.23 Y90.019 E38.1752
G1 X59.575 Y89.38 E38.21143
G1 X59.989 Y88.783 E38.24768
G1 X60.465 Y88.235 E38.28389
G1 X60.999 Y87.742 E38.32015
G0 F3600 X61.389 Y87.942
G1 F1800 X61.968 Y87.542 E38.35526
G1 X62.589 Y87.21 E38.39039
G1 X63.243 Y86.95 E38.4255
G1 X63.923 Y86.766 E38.46065
G1 X64.619 Y86.66 E38.49577
G1 X65.198 Y86.633 E38.52469
G1 X90.264 Y86.624 E39.77524
G1 X107.086 Y86.609 E40.61449
G1 X107.09 Y86.609 E40.61469
G1 X132.066 Y86.6 E41.86075
G1 X132.769 Y86.64 E41.89588
G1 X133.462 Y86.759 E41.93096
G1 X134.138 Y86.956 E41.96609
G1 X134.787 Y87.228 E42.00119
G1 X135.402 Y87.572 E42.03635
G1 X135.973 Y87.984 E42.07148
G1 X136.493 Y88.458 E42.10658
G1 X136.957 Y88.987 E42.14169
G1 X137.271 Y89.428 E42.1687
G1 X137.722 Y90.124 E42.21007
G1 X137.863 Y90.352 E42.22345
G1 X138.143 Y90.828 E42.251
G1 X138.263 Y91.043 E42.26328
G1 X138.501 Y91.487 E42.28841
G1 X138.582 Y91.643 E42.29718
G1 X138.837 Y92.153 E42.32563
G1 X138.955 Y92.401 E42.33933
G1 X139.19 Y92.928 E42.36812
G1 X139.254 Y93.079 E42.3763
G1 X139.448 Y93.547 E42.40158
G1 X139.537 Y93.774 E42.41374
G1 X139.712 Y94.248 E42.43895
G1 X139.777 Y94.431 E42.44864
G1 X139.943 Y94.928 E42.47478
G1 X140 Y95.108 E42.4842
G1 X140.161 Y95.644 E42.51212
G1 X140.22 Y95.855 E42.52305
G1 X140.354 Y96.366 E42.54941
G1 X140.494 Y97.056 E42.58454
G1 X140.554 Y97.758 E42.61969
G1 X140.535 Y98.461 E42.65477
G1 X140.436 Y99.158 E42.68989
G1 X140.258 Y99.84 E42.72506
G1 X140.005 Y100.496 E42.76014
G1 X139.679 Y101.12 E42.79526
G1 X139.284 Y101.703 E42.83039
G1 X138.825 Y102.237 E42.86552
G1 X138.309 Y102.716 E42.90065
G1 X137.742 Y103.133 E42.93576
G1 X137.131 Y103.484 E42.97092
G1 X136.485 Y103.762 E43.00601
G1 X135.811 Y103.966 E43.04114
G1 X135.119 Y104.092 E43.07623
G1 X134.359 Y104.139 E43.11422
G1 X67.867 Y104.157 E46.43152
G1 X67.86 Y104.157 E46.43187
G1 X65.195 Y104.155 E46.56482
G1 X64.493 Y104.115 E46.5999
G1 X63.799 Y103.995 E46.63504
G1 X63.123 Y103.797 E46.67018
G1 X62.474 Y103.524 E46.70531
G1 X61.861 Y103.179 E46.74041
G1 X61.29 Y102.767 E46.77553
G1 X60.77 Y102.292 E46.81067
G1 X60.307 Y101.762 E46.84578
G1 X59.907 Y101.183 E46.88089
G1 X59.575 Y100.562 E46.91602
G1 X59.315 Y99.907 E46.95118
G1 X59.132 Y99.228 E46.98627
G1 X59.027 Y98.532 E47.02138
G1 X59 Y97.955 E47.0502
G1 X59 Y92.833 E47.30574
G1 X59.04 Y92.13 E47.34087
G1 X59.159 Y91.436 E47.376
G1 X59.357 Y90.761 E47.41109
G1 X59.629 Y90.112 E47.4462
G1 X59.974 Y89.498 E47.48134
G1 X60.385 Y88.927 E47.51643
G1 X60.859 Y88.406 E47.55158
G1 X61.389 Y87.942 E47.58672
G0 F3600 X61.778 Y88.15
G1 F1800 X62.35 Y87.781 E47.62068
G1 X62.962 Y87.482 E47.65466
G1 X63.604 Y87.257 E47.6886
G1 X64.269 Y87.108 E47.7226
G1 X65.198 Y87.033 E47.7691
G1 X90.265 Y87.024 E49.0197
G1 X107.087 Y87.009 E49.85895
G1 X107.09 Y87.009 E49.8591
G1 X132.066 Y87 E51.10516
G1 X132.746 Y87.04 E51.13914
G1 X133.416 Y87.159 E51.17309
G1 X134.068 Y87.356 E51.20707
G1 X134.692 Y87.628 E51.24103
G1 X135.28 Y87.971 E51.27499
G1 X135.824 Y88.38 E51.30895
G1 X136.316 Y88.851 E51.34293
G1 X136.935 Y89.646 E51.3932
G1 X137.386 Y90.342 E51.43457
G1 X137.518 Y90.555 E51.44708
G1 X137.798 Y91.031 E51.47463
G1 X137.911 Y91.232 E51.48613
G1 X138.149 Y91.676 E51.51126
G1 X138.225 Y91.822 E51.51948
G1 X138.48 Y92.332 E51.54792
G1 X138.589 Y92.564 E51.56071
G1 X138.824 Y93.091 E51.5895
G1 X138.885 Y93.232 E51.59716
G1 X139.079 Y93.7 E51.62244
G1 X139.162 Y93.912 E51.6338
G1 X139.337 Y94.386 E51.65901
G1 X139.397 Y94.558 E51.66809
G1 X139.563 Y95.055 E51.69424
G1 X139.617 Y95.223 E51.70304
G1 X139.778 Y95.759 E51.73096
G1 X139.833 Y95.957 E51.74121
G1 X139.967 Y96.468 E51.76757
G1 X140.101 Y97.135 E51.80151
G1 X140.156 Y97.814 E51.8355
G1 X140.13 Y98.495 E51.8695
G1 X140.025 Y99.167 E51.90343
G1 X139.842 Y99.823 E51.93741
G1 X139.584 Y100.453 E51.97137
G1 X139.253 Y101.048 E52.00534
G1 X138.855 Y101.601 E52.03933
G1 X138.395 Y102.102 E52.07327
G1 X137.879 Y102.547 E52.10726
G1 X137.315 Y102.928 E52.14122
G1 X136.71 Y103.24 E52.17518
G1 X136.072 Y103.48 E52.20918
G1 X135.411 Y103.642 E52.24314
G1 X134.736 Y103.727 E52.27708
G1 X134.359 Y103.739 E52.2959
G1 X67.867 Y103.757 E55.6132
G1 X67.861 Y103.757 E55.6135
G1 X65.196 Y103.755 E55.74645
G1 X64.516 Y103.715 E55.78044
G1 X63.846 Y103.595 E55.8144
G1 X63.194 Y103.397 E55.84839
G1 X62.57 Y103.125 E55.88235
G1 X61.982 Y102.781 E55.91634
G1 X61.439 Y102.37 E55.95031
G1 X60.948 Y101.899 E55.98426
G1 X60.515 Y101.374 E56.01821
G1 X60.146 Y100.801 E56.05221
G1 X59.848 Y100.189 E56.08617
G1 X59.623 Y99.547 E56.12011
G1 X59.475 Y98.882 E56.1541
G1 X59.4 Y97.955 E56.2005
G1 X59.4 Y92.833 E56.45604
G1 X59.44 Y92.153 E56.49002
G1 X59.559 Y91.483 E56.52397
G1 X59.756 Y90.831 E56.55795
G1 X60.028 Y90.207 E56.59191
G1 X60.372 Y89.619 E56.6259
G1 X60.782 Y89.075 E56.65989
G1 X61.253 Y88.584 E56.69383
G1 X61.778 Y88.15 E56.72781
G0 F3600 X61.645 Y88.768
G1 F1800 X62.165 Y88.367 E56.76057
G1 X62.729 Y88.031 E56.79333
G1 X63.331 Y87.767 E56.82612
G1 X63.96 Y87.577 E56.8589
G1 X64.607 Y87.466 E56.89165
G1 X65.198 Y87.433 E56.92118
G1 X90.265 Y87.424 E58.17178
G1 X107.087 Y87.409 E59.01104
G1 X107.09 Y87.409 E59.01119
G1 X132.066 Y87.4 E60.25724
G1 X132.722 Y87.44 E60.29003
G1 X133.368 Y87.559 E60.3228
G1 X133.995 Y87.755 E60.35558
G1 X134.593 Y88.027 E60.38835
G1 X135.154 Y88.369 E60.42113
G1 X135.669 Y88.776 E60.45388
G1 X136.131 Y89.243 E60.48665
G1 X136.6 Y89.863 E60.52544
G1 X137.051 Y90.559 E60.56682
G1 X137.173 Y90.758 E60.57846
