;FLAVOR:Marlin
;TIME:3418
;Filament used: 1.95291m
;Layer height: 0.1
;MINX:50.399
;MINY:77.999
;MINZ:0.36
;MAXX:149.145
;MAXY:114.059
;MAXZ:16.76
;Generated with Cura_SteamEngine 4.1.0
M140 S60
M105
M190 S60
M104 S200
M105
M109 S200
M82 ;absolute extrusion mode
G21 ;metric values
 G90 ;absolute positioning
 M82 ;set extruder to absolute mode
 M107 ;start with the fan off
 G28 X0 Y0 ;move X/Y to min endstops
 G28 Z0 ;move Z to min endstops
 G1 Z15.0 F120 ;move the platform down 15mm
 G92 E0 ;zero the extruded length
 G1 F200 E6 ;extrude 6 mm of feed stock
 G92 E0 ;zero the extruded length again
 G1 F120 
 ;Put printing message on LCD screen
 M117 Printing...
G92 E0
G92 E0
G1 F1500 E-6.5
;LAYER_COUNT:157
;LAYER:-9
M107
G0 F7200 X56.785 Y80.907 Z0.36
;TYPE:SUPPORT-INTERFACE
G1 F1500 E0
G1 F1350 X57.523 Y80.417 E0.10607
G1 X57.649 Y80.341 E0.12369
G1 X58.443 Y79.895 E0.23273
G1 X58.593 Y79.817 E0.25297
G1 X59.408 Y79.434 E0.3608
G1 X59.551 Y79.374 E0.37937
G1 X60.41 Y79.045 E0.48951
G1 X60.56 Y78.993 E0.50852
G1 X61.41 Y78.738 E0.61477
G1 X61.583 Y78.692 E0.63621
G1 X62.478 Y78.491 E0.74604
G1 X62.608 Y78.468 E0.76185
G1 X63.513 Y78.334 E0.87139
G1 X63.682 Y78.316 E0.89174
G1 X64.755 Y78.241 E1.02053
G1 X65.253 Y78.233 E1.08017
G1 X90.255 Y78.224 E4.07382
G1 X107.079 Y78.209 E6.08827
G1 X132.065 Y78.201 E9.08
G1 X133.051 Y78.237 E9.19814
G1 X133.211 Y78.249 E9.21735
G1 X134.103 Y78.346 E9.32479
G1 X134.277 Y78.371 E9.34584
G1 X135.163 Y78.534 E9.4537
G1 X135.304 Y78.566 E9.47101
G1 X136.188 Y78.797 E9.58042
G1 X136.351 Y78.846 E9.6008
G1 X137.193 Y79.133 E9.70731
G1 X137.359 Y79.196 E9.72857
G1 X138.187 Y79.547 E9.83625
G1 X138.327 Y79.613 E9.85478
G1 X139.118 Y80.019 E9.96124
G1 X139.281 Y80.11 E9.9836
G1 X140.041 Y80.573 E10.09015
G1 X140.204 Y80.681 E10.11356
G1 X140.901 Y81.179 E10.21613
G1 X141.046 Y81.291 E10.23807
G1 X141.734 Y81.862 E10.34513
G1 X141.87 Y81.983 E10.36692
G1 X142.508 Y82.598 E10.47303
G1 X142.628 Y82.723 E10.49378
G1 X143.228 Y83.392 E10.60138
G1 X143.34 Y83.526 E10.62229
G1 X143.983 Y84.366 E10.74895
G1 X144.356 Y84.915 E10.82842
G1 X144.771 Y85.556 E10.91985
G1 X145.098 Y86.085 E10.99432
G1 X145.375 Y86.555 E11.05964
G1 X145.673 Y87.086 E11.13255
G1 X145.91 Y87.529 E11.19271
G1 X146.095 Y87.887 E11.24096
G1 X146.35 Y88.397 E11.30923
G1 X146.655 Y89.042 E11.39466
G1 X146.842 Y89.461 E11.4496
G1 X147.028 Y89.897 E11.50636
G1 X147.219 Y90.36 E11.56633
G1 X147.403 Y90.83 E11.62676
G1 X147.591 Y91.337 E11.69151
G1 X147.744 Y91.77 E11.7465
G1 X147.908 Y92.261 E11.80848
G1 X148.045 Y92.692 E11.86263
G1 X148.204 Y93.221 E11.92877
G1 X148.352 Y93.751 E11.99466
G1 X148.498 Y94.32 E12.06499
G1 X148.695 Y95.211 E12.17426
G1 X148.727 Y95.387 E12.19568
G1 X148.857 Y96.273 E12.3029
G1 X148.876 Y96.443 E12.32338
G1 X148.94 Y97.327 E12.4295
G1 X148.947 Y97.516 E12.45215
G1 X148.945 Y98.4 E12.558
G1 X148.939 Y98.562 E12.57741
G1 X148.874 Y99.44 E12.68282
G1 X148.852 Y99.645 E12.70751
G1 X148.695 Y100.673 E12.83203
G1 X148.496 Y101.567 E12.94169
G1 X148.457 Y101.711 E12.95955
G1 X148.198 Y102.57 E13.06698
G1 X148.135 Y102.755 E13.09038
G1 X147.823 Y103.567 E13.19454
G1 X147.748 Y103.744 E13.21756
G1 X147.306 Y104.678 E13.34128
G1 X146.853 Y105.483 E13.45188
G1 X146.775 Y105.61 E13.46973
G1 X146.266 Y106.38 E13.58025
G1 X146.166 Y106.517 E13.60056
G1 X145.644 Y107.192 E13.70273
G1 X145.504 Y107.361 E13.729
G1 X144.92 Y108.012 E13.83372
G1 X144.789 Y108.147 E13.85624
G1 X144.167 Y108.746 E13.95964
G1 X144.02 Y108.878 E13.9833
G1 X143.348 Y109.438 E14.08804
G1 X143.196 Y109.555 E14.111
G1 X142.472 Y110.072 E14.21753
G1 X142.341 Y110.158 E14.23629
G1 X141.562 Y110.633 E14.34554
G1 X141.42 Y110.712 E14.36499
G1 X140.614 Y111.126 E14.47349
G1 X140.474 Y111.192 E14.49202
G1 X139.646 Y111.543 E14.5997
G1 X139.48 Y111.607 E14.621
G1 X138.638 Y111.893 E14.72748
G1 X138.475 Y111.942 E14.74786
G1 X137.45 Y112.205 E14.87456
G1 X136.564 Y112.368 E14.98243
G1 X136.39 Y112.393 E15.00348
G1 X135.501 Y112.49 E15.11056
G1 X135.338 Y112.502 E15.13013
G1 X134.329 Y112.539 E15.25102
G1 X67.869 Y112.557 E23.20871
G1 X65.126 Y112.552 E23.53715
G1 X64.21 Y112.518 E23.6469
G1 X64.049 Y112.506 E23.66623
G1 X63.136 Y112.405 E23.77622
G1 X62.979 Y112.382 E23.79522
G1 X62.111 Y112.221 E23.90092
G1 X61.922 Y112.178 E23.92413
G1 X61.088 Y111.96 E24.02735
G1 X60.886 Y111.899 E24.05261
G1 X60.064 Y111.618 E24.15663
G1 X59.896 Y111.554 E24.17815
G1 X59.07 Y111.203 E24.28561
G1 X58.927 Y111.135 E24.30457
G1 X57.985 Y110.646 E24.43166
G1 X57.224 Y110.18 E24.5385
G1 X57.054 Y110.067 E24.56295
G1 X56.33 Y109.549 E24.66954
G1 X56.217 Y109.46 E24.68676
G1 X55.516 Y108.877 E24.79593
G1 X55.391 Y108.765 E24.81603
G1 X54.745 Y108.141 E24.92357
G1 X54.618 Y108.008 E24.94559
G1 X54.046 Y107.369 E25.04828
G1 X53.923 Y107.222 E25.07123
G1 X53.288 Y106.393 E25.19626
G1 X52.78 Y105.624 E25.30662
G1 X52.692 Y105.48 E25.32682
G1 X52.262 Y104.714 E25.432
G1 X52.164 Y104.523 E25.45771
G1 X51.801 Y103.745 E25.5605
G1 X51.73 Y103.578 E25.58223
G1 X51.416 Y102.755 E25.6877
G1 X51.351 Y102.568 E25.71141
G1 X51.097 Y101.72 E25.8174
G1 X51.055 Y101.557 E25.83756
G1 X50.834 Y100.545 E25.96159
G1 X50.702 Y99.64 E26.07109
G1 X50.682 Y99.44 E26.09516
G1 X50.6 Y97.878 E26.28245
G1 X50.6 Y92.847 E26.88484
G1 X50.636 Y91.843 E27.00513
G1 X50.648 Y91.687 E27.02387
G1 X50.747 Y90.792 E27.13169
G1 X50.773 Y90.615 E27.15311
G1 X50.936 Y89.735 E27.26027
G1 X50.969 Y89.586 E27.27854
G1 X51.196 Y88.717 E27.38608
G1 X51.248 Y88.545 E27.4076
G1 X51.535 Y87.703 E27.51411
G1 X51.598 Y87.537 E27.53537
G1 X51.939 Y86.734 E27.63983
G1 X52.02 Y86.559 E27.66292
G1 X52.501 Y85.634 E27.78776
G1 X52.979 Y84.851 E27.8976
G1 X53.076 Y84.704 E27.91869
G1 X53.587 Y83.99 E28.02382
G1 X53.7 Y83.842 E28.04611
G1 X54.276 Y83.151 E28.15383
G1 X54.377 Y83.038 E28.17197
G1 X55.002 Y82.389 E28.27986
G1 X55.127 Y82.269 E28.3006
G1 X55.798 Y81.666 E28.40862
G1 X55.914 Y81.57 E28.42665
G1 X56.626 Y81.02 E28.53438
G1 X56.785 Y80.907 E28.55773
G0 F7200 X57.6 Y80.37
G1 F1350 X57.6 Y110.41 E32.15462
G0 F7200 X59.2 Y111.258
G1 F1350 X59.2 Y79.531 E35.9535
G0 F7200 X60.8 Y78.921
G1 F1350 X60.8 Y111.869 E39.89858
G0 F7200 X62.4 Y112.274
G1 F1350 X62.4 Y78.508 E43.9416
G0 F7200 X64 Y78.293
G1 F1350 X64 Y112.5 E48.03742
G0 F7200 X65.6 Y112.552
G1 F1350 X65.6 Y78.232 E52.14678
G0 F7200 X67.2 Y78.232
G1 F1350 X67.2 Y112.555 E56.2565
G0 F7200 X68.8 Y112.557
G1 F1350 X68.8 Y78.231 E60.36657
G0 F7200 X70.4 Y78.231
G1 F1350 X70.4 Y112.557 E64.47665
G0 F7200 X72 Y112.556
G1 F1350 X72 Y78.23 E68.58672
G0 F7200 X73.6 Y78.229
G1 F1350 X73.6 Y112.556 E72.69691
G0 F7200 X75.2 Y112.556
G1 F1350 X75.2 Y78.229 E76.80711
G0 F7200 X76.8 Y78.228
G1 F1350 X76.8 Y112.555 E80.9173
G0 F7200 X78.4 Y112.555
G1 F1350 X78.4 Y78.228 E85.0275
G0 F7200 X80 Y78.227
G1 F1350 X80 Y112.554 E89.13769
G0 F7200 X81.6 Y112.554
G1 F1350 X81.6 Y78.227 E93.24789
G0 F7200 X83.2 Y78.226
G1 F1350 X83.2 Y112.553 E97.35808
G0 F7200 X84.8 Y112.553
G1 F1350 X84.8 Y78.225 E101.46839
G0 F7200 X86.4 Y78.225
G1 F1350 X86.4 Y112.552 E105.57859
G0 F7200 X88 Y112.552
G1 F1350 X88 Y78.224 E109.6889
G0 F7200 X89.6 Y78.224
G1 F1350 X89.6 Y112.552 E113.79922
G0 F7200 X91.2 Y112.551
G1 F1350 X91.2 Y78.223 E117.90953
G0 F7200 X92.8 Y78.221
G1 F1350 X92.8 Y112.551 E122.02008
G0 F7200 X94.4 Y112.55
G1 F1350 X94.4 Y78.22 E126.13064
G0 F7200 X96 Y78.218
G1 F1350 X96 Y112.55 E130.24143
G0 F7200 X97.6 Y112.549
G1 F1350 X97.6 Y78.217 E134.35222
G0 F7200 X99.2 Y78.216
G1 F1350 X99.2 Y112.549 E138.46314
G0 F7200 X100.8 Y112.549
G1 F1350 X100.8 Y78.214 E142.57429
G0 F7200 X102.4 Y78.213
G1 F1350 X102.4 Y112.548 E146.68544
G0 F7200 X104 Y112.548
G1 F1350 X104 Y78.211 E150.79683
G0 F7200 X105.6 Y78.21
G1 F1350 X105.6 Y112.547 E154.90822
G0 F7200 X107.2 Y112.547
G1 F1350 X107.2 Y78.208 E159.01986
G0 F7200 X108.8 Y78.208
G1 F1350 X108.8 Y112.546 E163.13137
G0 F7200 X110.4 Y112.546
G1 F1350 X110.4 Y78.207 E167.243
G0 F7200 X112 Y78.207
G1 F1350 X112 Y112.546 E171.35463
G0 F7200 X113.6 Y112.545
G1 F1350 X113.6 Y78.206 E175.46626
G0 F7200 X115.2 Y78.206
G1 F1350 X115.2 Y112.545 E179.57789
G0 F7200 X116.8 Y112.544
G1 F1350 X116.8 Y78.205 E183.68952
G0 F7200 X118.4 Y78.205
G1 F1350 X118.4 Y112.544 E187.80115
G0 F7200 X120 Y112.543
G1 F1350 X120 Y78.204 E191.91279
G0 F7200 X121.6 Y78.204
G1 F1350 X121.6 Y112.543 E196.02442
G0 F7200 X123.2 Y112.543
G1 F1350 X123.2 Y78.203 E200.13617
G0 F7200 X124.8 Y78.203
G1 F1350 X124.8 Y112.542 E204.2478
G0 F7200 X126.4 Y112.542
G1 F1350 X126.4 Y78.202 E208.35955
G0 F7200 X128 Y78.202
G1 F1350 X128 Y112.541 E212.47118
G0 F7200 X129.6 Y112.541
G1 F1350 X129.6 Y78.201 E216.58293
G0 F7200 X131.2 Y78.201
G1 F1350 X131.2 Y112.54 E220.69456
G0 F7200 X132.8 Y112.54
G1 F1350 X132.8 Y78.228 E224.80296
G0 F7200 X134.4 Y78.394
G1 F1350 X134.4 Y112.537 E228.89112
G0 F7200 X136 Y112.436
G1 F1350 X136 Y78.748 E232.92481
G0 F7200 X137.6 Y79.299
G1 F1350 X137.6 Y112.167 E236.86031
G0 F7200 X139.2 Y111.703
G1 F1350 X139.2 Y80.065 E240.64853
G0 F7200 X140.8 Y81.107
G1 F1350 X140.8 Y111.031 E244.23152
G0 F7200 X142.4 Y110.12
G1 F1350 X142.4 Y82.494 E247.53936
G0 F7200 X144 Y84.392
G1 F1350 X144 Y108.895 E250.47327
G0 F7200 X145.6 Y107.246
G1 F1350 X145.6 Y86.956 E252.90272
G0 F7200 X147.2 Y90.314
G1 F1350 X147.2 Y104.867 E254.64525
G0 F7200 X148.8 Y99.986
G1 F1350 X148.8 Y95.885 E255.13628
G0 F7200 X56 Y109.279
G1 F1350 X56 Y81.503 E258.46209
G0 F7200 X54.4 Y83.014
G1 F1350 X54.4 Y107.764 E261.42556
G0 F7200 X52.8 Y105.654
G1 F1350 X52.8 Y85.144 E263.88136
G0 F7200 X51.2 Y88.703
G1 F1350 X51.2 Y102.063 E265.48104
G0 F7200 X50.834 Y100.544
;TIME_ELAPSED:104.911011
;LAYER:-8
M140 S60
G0 X50.834 Y100.544 Z0.51
;TYPE:SUPPORT
G1 F1350 X51.054 Y101.556 E265.53271
G1 X51.22 Y102.132 E265.56261
G1 X61.029 Y111.941 E266.25469
G1 X60.063 Y111.617 E266.30552
G1 X59.07 Y111.202 E266.35922
G0 F7200 X62.861 Y112.359
G1 F1350 X50.797 Y100.295 E267.2104
G0 F7200 X52.134 Y104.46
G1 F1350 X58.679 Y111.005 E267.67218
G1 X57.985 Y110.645 E267.71119
G1 X57.224 Y110.179 E267.75571
G1 X56.33 Y109.548 E267.8103
G1 X55.516 Y108.876 E267.86296
G1 X54.744 Y108.139 E267.91621
G1 X54.045 Y107.368 E267.96813
G1 X53.288 Y106.391 E268.02979
G1 X52.779 Y105.623 E268.07576
G1 X52.261 Y104.713 E268.128
G0 F7200 X50.635 Y91.841
G1 F1350 X50.599 Y93.026 E268.18715
G1 X70.129 Y112.555 E269.56506
G1 X68.715 Y112.555 E269.6356
G1 X50.599 Y94.44 E270.91375
G1 X50.599 Y95.854 E270.98429
G1 X67.3 Y112.555 E272.16264
G1 X65.883 Y112.552 E272.23333
G1 X50.599 Y97.268 E273.3117
G1 X50.599 Y97.877 E273.34208
G1 X50.644 Y98.727 E273.38455
G1 X64.442 Y112.525 E274.35807
G1 X63.136 Y112.404 E274.42351
G0 F7200 X50.65 Y91.662
G1 F1350 X71.542 Y112.555 E275.89759
G1 X72.957 Y112.555 E275.96818
G1 X50.81 Y90.408 E277.53077
G1 X50.935 Y89.734 E277.56497
G1 X51.058 Y89.241 E277.59032
G1 X74.37 Y112.554 E279.23515
G1 X75.784 Y112.554 E279.30569
G1 X51.381 Y88.151 E281.02745
G1 X51.598 Y87.536 E281.05999
G0 F7200 X51.771 Y87.126
G1 F1350 X77.198 Y112.553 E282.854
G1 X78.612 Y112.553 E282.92455
G1 X52.224 Y86.165 E284.78636
G1 X52.501 Y85.633 E284.81629
G0 F7200 X52.73 Y85.257
G1 F1350 X80.026 Y112.553 E286.74217
G1 X81.44 Y112.553 E286.81271
G1 X53.29 Y84.403 E288.79885
G1 X53.586 Y83.989 E288.82424
G1 X53.9 Y83.599 E288.84922
G1 X82.853 Y112.552 E290.89201
G1 X84.268 Y112.552 E290.9626
G1 X54.561 Y82.845 E293.05859
G1 X55.002 Y82.388 E293.09028
G0 F7200 X55.27 Y82.14
G1 F1350 X85.681 Y112.551 E295.23594
G1 X87.095 Y112.551 E295.30648
G1 X56.026 Y81.482 E297.49857
G1 X56.625 Y81.019 E297.53634
G0 F7200 X56.833 Y80.874
G1 F1350 X88.509 Y112.55 E299.77125
G1 X89.923 Y112.55 E299.8418
G1 X57.69 Y80.317 E302.11601
G1 X58.443 Y79.893 E302.15912
G0 F7200 X58.6 Y79.813
G1 F1350 X91.336 Y112.55 E304.46886
G1 X92.751 Y112.55 E304.53945
G1 X59.568 Y79.367 E306.88069
G1 X60.41 Y79.043 E306.9257
G0 F7200 X60.596 Y78.981
G1 F1350 X94.164 Y112.549 E309.29411
G1 X95.578 Y112.548 E309.36465
G1 X61.695 Y78.666 E311.75524
G1 X62.478 Y78.49 E311.79528
G0 F7200 X62.871 Y78.428
G1 F1350 X96.992 Y112.548 E314.20267
G1 X98.405 Y112.548 E314.27316
G1 X64.141 Y78.283 E316.69071
G1 X64.754 Y78.24 E316.72137
G1 X65.504 Y78.232 E316.75879
G1 X99.82 Y112.548 E319.17997
G1 X101.233 Y112.547 E319.25046
G1 X66.918 Y78.232 E321.67157
G1 X68.331 Y78.231 E321.74206
G1 X102.647 Y112.547 E324.16324
G1 X104.061 Y112.546 E324.23379
G1 X69.745 Y78.23 E326.65497
G1 X71.159 Y78.23 E326.72551
G1 X105.475 Y112.546 E329.14669
G1 X106.889 Y112.545 E329.21724
G1 X72.573 Y78.23 E331.63838
G1 X73.986 Y78.229 E331.70887
G1 X108.303 Y112.545 E334.13009
G1 X109.716 Y112.545 E334.20058
G1 X75.4 Y78.229 E336.62176
G1 X76.814 Y78.228 E336.69231
G1 X111.131 Y112.545 E339.11356
G1 X112.544 Y112.544 E339.18405
G1 X78.227 Y78.227 E341.6053
G1 X79.642 Y78.227 E341.6759
G1 X113.958 Y112.544 E344.09711
G1 X115.372 Y112.543 E344.16766
G1 X81.055 Y78.227 E346.58887
G1 X82.469 Y78.226 E346.65942
G1 X116.786 Y112.543 E349.08067
G1 X118.199 Y112.543 E349.15116
G1 X83.883 Y78.226 E351.57237
G1 X85.296 Y78.225 E351.64287
G1 X119.614 Y112.543 E354.06419
G1 X121.027 Y112.542 E354.13468
G1 X86.71 Y78.225 E356.55593
G1 X88.124 Y78.225 E356.62648
G1 X122.441 Y112.542 E359.04773
G1 X123.855 Y112.541 E359.11827
G1 X89.538 Y78.224 E361.53952
G1 X90.254 Y78.223 E361.57524
G1 X90.951 Y78.223 E361.61002
G1 X125.269 Y112.541 E364.03134
G1 X126.683 Y112.54 E364.10188
G1 X92.364 Y78.222 E366.52324
G1 X93.777 Y78.22 E366.59373
G1 X128.097 Y112.54 E369.01519
G1 X129.51 Y112.54 E369.08569
G1 X95.19 Y78.219 E371.50719
G1 X96.603 Y78.218 E371.57768
G1 X130.925 Y112.54 E373.99928
G1 X132.338 Y112.539 E374.06978
G1 X98.016 Y78.217 E376.49138
G1 X99.429 Y78.215 E376.56188
G1 X133.752 Y112.539 E378.98358
G1 X134.328 Y112.539 E379.01232
G1 X135.136 Y112.509 E379.05266
G1 X100.841 Y78.214 E381.47236
G1 X102.255 Y78.213 E381.5429
G1 X136.428 Y112.386 E383.95399
G0 F7200 X136.563 Y112.367
G1 F1350 X137.617 Y112.161 E384.00757
G1 X103.668 Y78.212 E386.40286
G1 X105.081 Y78.21 E386.47335
G1 X138.73 Y111.86 E388.84751
G1 X139.773 Y111.488 E388.90275
G1 X106.493 Y78.209 E391.2508
G1 X107.078 Y78.208 E391.27999
G1 X107.907 Y78.208 E391.32134
G1 X140.752 Y111.053 E393.63874
G1 X141.675 Y110.562 E393.6909
G1 X109.321 Y78.208 E395.97365
G1 X110.735 Y78.208 E396.04419
G1 X142.544 Y110.018 E398.28852
G1 X143.364 Y109.423 E398.33907
G1 X112.148 Y78.207 E400.54152
G1 X113.562 Y78.207 E400.61207
G1 X144.131 Y108.776 E402.76888
G0 F7200 X144.166 Y108.745
G1 F1350 X144.851 Y108.081 E402.81647
G1 X114.976 Y78.206 E404.92432
G1 X116.389 Y78.206 E404.99481
G1 X145.522 Y107.338 E407.05027
G0 F7200 X145.643 Y107.192
G1 F1350 X146.143 Y106.545 E407.09106
G1 X117.803 Y78.206 E409.09056
G1 X119.217 Y78.205 E409.16111
G1 X146.714 Y105.701 E411.10114
G0 F7200 X146.852 Y105.482
G1 F1350 X147.233 Y104.806 E411.13985
G1 X120.631 Y78.205 E413.01673
G1 X122.045 Y78.204 E413.08727
G1 X147.695 Y103.854 E414.89702
G0 F7200 X147.822 Y103.567
G1 F1350 X148.1 Y102.845 E414.93562
G1 X123.458 Y78.203 E416.67424
G1 X124.872 Y78.203 E416.74479
G1 X148.438 Y101.769 E418.4075
G0 F7200 X148.495 Y101.567
G1 F1350 X148.702 Y100.619 E418.45591
G1 X126.286 Y78.203 E420.03748
G1 X127.699 Y78.202 E420.10797
G1 X148.878 Y99.381 E421.60227
G1 X148.937 Y98.562 E421.64323
G1 X148.945 Y98.033 E421.66963
G1 X129.114 Y78.202 E423.06881
G1 X130.527 Y78.201 E423.13931
G1 X148.883 Y96.557 E424.43442
G0 F7200 X148.856 Y96.273
G1 F1350 X148.726 Y95.386 E424.47915
G1 X148.621 Y94.881 E424.50488
G1 X131.941 Y78.201 E425.68174
G1 X133.05 Y78.237 E425.7371
G0 F7200 X133.426 Y78.272
G1 F1350 X148.129 Y92.975 E426.77448
G1 X147.907 Y92.261 E426.81178
G1 X147.59 Y91.336 E426.86056
G1 X147.405 Y90.837 E426.88711
G1 X135.089 Y78.521 E427.75608
G1 X136.187 Y78.797 E427.81256
G1 X137.076 Y79.094 E427.85932
G1 X146.318 Y88.336 E428.51139
G1 X145.909 Y87.529 E428.55653
G1 X145.672 Y87.085 E428.58164
G1 X145.374 Y86.554 E428.61202
G1 X145.097 Y86.085 E428.63919
G1 X144.77 Y85.555 E428.67026
G1 X144.436 Y85.039 E428.70093
G1 X139.86 Y80.463 E429.02379
G1 X140.9 Y81.179 E429.08678
